;FLAVOR:Marlin
;TIME:12203
;Filament used: 9.8835m
;Layer height: 0.2
;MINX:67.273
;MINY:45.037
;MINZ:0.2
;MAXX:177.987
;MAXY:175.302
;MAXZ:14.4
;TARGET_MACHINE.NAME:Creality Ender-3
;Generated with Cura_SteamEngine 5.6.0
M140 S50
M105
M190 S50
M104 S200
M105
M109 S200
M82 ;absolute extrusion mode
; Ender 3 Custom Start G-code
G92 E0 ; Reset Extruder
G28 ; Home all axes
G1 Z2.0 F3000 ; Move Z Axis up little to prevent scratching of Heat Bed
G1 X0.1 Y20 Z0.3 F5000.0 ; Move to start position
G1 X0.1 Y200.0 Z0.3 F1500.0 E15 ; Draw the first line
G1 X0.4 Y200.0 Z0.3 F5000.0 ; Move to side a little
G1 X0.4 Y20 Z0.3 F1500.0 E30 ; Draw the second line
G92 E0 ; Reset Extruder
G1 Z2.0 F3000 ; Move Z Axis up little to prevent scratching of Heat Bed
G1 X5 Y20 Z0.3 F5000.0 ; Move over to prevent blob squish
G92 E0
G92 E0
G1 F2700 E-5
;LAYER_COUNT:72
;LAYER:0
M107
G0 F6000 X70.273 Y50.329 Z0.2
;TYPE:SKIRT
G1 F2700 E0
G1 F1200 X70.81 Y49.602 E0.03036
G1 X71.736 Y48.581 E0.07667
G1 X72.632 Y47.78 E0.11704
G1 X73.72 Y46.997 E0.16207
G1 X74.754 Y46.405 E0.20209
G1 X75.575 Y46.029 E0.23243
G1 X76.131 Y45.819 E0.25239
G1 X76.634 Y45.646 E0.27026
G1 X77.568 Y45.37 E0.30298
G1 X78.487 Y45.184 E0.33448
G1 X79.475 Y45.071 E0.36788
G1 X79.995 Y45.049 E0.38537
G1 X80.74 Y45.037 E0.4104
G1 X165.148 Y45.214 E3.2459
G1 X165.76 Y45.225 E3.26646
G1 X166.723 Y45.284 E3.29887
G1 X167.143 Y45.329 E3.31306
G1 X168.139 Y45.483 E3.34692
G1 X169.017 Y45.697 E3.37727
G1 X169.711 Y45.923 E3.40179
G1 X170.062 Y46.05 E3.41433
G1 X170.93 Y46.409 E3.44589
G1 X171.821 Y46.875 E3.47966
G1 X172.557 Y47.342 E3.50894
G1 X172.895 Y47.577 E3.52277
G1 X173.681 Y48.18 E3.55605
G1 X174.4 Y48.838 E3.58879
G1 X175.011 Y49.503 E3.61913
G1 X175.721 Y50.442 E3.65868
G1 X175.967 Y50.806 E3.67343
G1 X176.473 Y51.637 E3.70612
G1 X176.902 Y52.503 E3.73858
G1 X177.173 Y53.176 E3.76295
G1 X177.313 Y53.561 E3.77672
G1 X177.609 Y54.509 E3.81008
G1 X177.814 Y55.46 E3.84276
G1 X177.929 Y56.355 E3.87307
G1 X177.969 Y57.12 E3.89881
G1 X177.987 Y58.256 E3.93697
G1 X177.888 Y107.152 E5.57952
G1 X177.875 Y107.9 E5.60466
G1 X177.82 Y108.821 E5.63565
G1 X177.689 Y110.071 E5.67787
G1 X177.455 Y112.743 E5.76797
G1 X177.308 Y115.225 E5.8515
G1 X177.229 Y117.769 E5.937
G1 X177.215 Y119.367 E5.99068
G1 X177.215 Y162.563 E7.44175
G1 X177.202 Y163.307 E7.46675
G1 X177.14 Y164.29 E7.49984
G1 X176.95 Y165.451 E7.53936
G1 X176.847 Y165.911 E7.55519
G1 X176.59 Y166.851 E7.58793
G1 X176.252 Y167.763 E7.6206
G1 X175.867 Y168.58 E7.65094
G1 X175.308 Y169.528 E7.68791
G1 X175.057 Y169.907 E7.70318
G1 X174.502 Y170.672 E7.73493
G1 X173.506 Y171.777 E7.78491
G1 X172.673 Y172.522 E7.82245
G1 X171.889 Y173.105 E7.85527
G1 X170.963 Y173.671 E7.89172
G1 X170.522 Y173.909 E7.90856
G1 X169.647 Y174.332 E7.94121
G1 X168.803 Y174.654 E7.97155
G1 X167.993 Y174.891 E7.9999
G1 X167.69 Y174.967 E8.0104
G1 X166.805 Y175.149 E8.04075
G1 X165.781 Y175.267 E8.07538
G1 X165.215 Y175.291 E8.09441
G1 X164.423 Y175.302 E8.12101
G1 X80.012 Y175.3 E10.95661
G1 X79.266 Y175.287 E10.98168
G1 X78.285 Y175.225 E11.0147
G1 X77.131 Y175.038 E11.05397
G1 X76.729 Y174.949 E11.0678
G1 X75.788 Y174.697 E11.10052
G1 X74.873 Y174.363 E11.13324
G1 X74.055 Y173.982 E11.16356
G1 X73.08 Y173.413 E11.20148
G1 X72.682 Y173.152 E11.21747
G1 X71.949 Y172.624 E11.24781
G1 X70.9 Y171.694 E11.29491
G1 X70.098 Y170.815 E11.33488
G1 X69.552 Y170.095 E11.36523
G1 X68.934 Y169.098 E11.40464
G1 X68.703 Y168.675 E11.42083
G1 X68.276 Y167.8 E11.45354
G1 X67.95 Y166.957 E11.4839
G1 X67.681 Y166.059 E11.51539
G1 X67.465 Y165.11 E11.54808
G1 X67.333 Y164.149 E11.58067
G1 X67.285 Y163.283 E11.60981
G1 X67.273 Y162.339 E11.64152
G1 X67.274 Y113.386 E13.28599
G1 X67.286 Y112.683 E13.3096
G1 X67.336 Y111.805 E13.33915
G1 X67.51 Y110.122 E13.39598
G1 X67.731 Y107.568 E13.4821
G1 X67.869 Y105.136 E13.56393
G1 X67.955 Y101.335 E13.69165
G1 X68.048 Y57.808 E15.15384
G1 X68.061 Y57.111 E15.17726
G1 X68.122 Y56.145 E15.20978
G1 X68.249 Y55.261 E15.23978
G1 X68.432 Y54.377 E15.2701
G1 X68.768 Y53.278 E15.30871
G1 X68.881 Y52.97 E15.31973
G1 X69.264 Y52.055 E15.35305
G1 X69.713 Y51.203 E15.3854
G1 X70.079 Y50.618 E15.40858
G1 X70.273 Y50.329 E15.42028
G0 F6000 X70.595 Y50.567
G1 F1200 X71.132 Y49.84 E15.45064
G1 X72.032 Y48.85 E15.49558
G1 X72.866 Y48.105 E15.53315
G1 X73.954 Y47.322 E15.57818
G1 X74.921 Y46.769 E15.6156
G1 X75.742 Y46.393 E15.64594
G1 X76.262 Y46.197 E15.6646
G1 X76.748 Y46.029 E15.68188
G1 X77.648 Y45.762 E15.71341
G1 X78.533 Y45.581 E15.74376
G1 X79.492 Y45.471 E15.77618
G1 X80.002 Y45.449 E15.79333
G1 X80.739 Y45.437 E15.81809
G1 X165.141 Y45.614 E18.65339
G1 X165.735 Y45.624 E18.67335
G1 X166.68 Y45.682 E18.70516
G1 X167.1 Y45.727 E18.71935
G1 X168.044 Y45.872 E18.75143
G1 X168.922 Y46.086 E18.78179
G1 X169.575 Y46.299 E18.80486
G1 X169.909 Y46.42 E18.81679
G1 X170.777 Y46.779 E18.84835
G1 X171.607 Y47.213 E18.87981
G1 X172.329 Y47.671 E18.90853
G1 X172.652 Y47.895 E18.92174
G1 X173.411 Y48.475 E18.95383
G1 X174.105 Y49.109 E18.9854
G1 X174.716 Y49.774 E19.01574
G1 X175.39 Y50.666 E19.0533
G1 X175.626 Y51.015 E19.06745
G1 X176.115 Y51.815 E19.09895
G1 X176.531 Y52.653 E19.13038
G1 X176.797 Y53.313 E19.15428
G1 X176.931 Y53.681 E19.16744
G1 X177.218 Y54.594 E19.19959
G1 X177.417 Y55.511 E19.23111
G1 X177.532 Y56.406 E19.26142
G1 X177.569 Y57.126 E19.28564
G1 X177.587 Y58.255 E19.32357
G1 X177.488 Y107.145 E20.96592
G1 X177.476 Y107.876 E20.99048
G1 X177.422 Y108.78 E21.0209
G1 X177.292 Y110.03 E21.06312
G1 X177.057 Y112.708 E21.15343
G1 X176.908 Y115.213 E21.23773
G1 X176.829 Y117.757 E21.32323
G1 X176.815 Y119.364 E21.37721
G1 X176.815 Y162.556 E22.82815
G1 X176.803 Y163.282 E22.85254
G1 X176.745 Y164.225 E22.88428
G1 X176.555 Y165.386 E22.9238
G1 X176.461 Y165.806 E22.93826
G1 X176.215 Y166.712 E22.9698
G1 X175.89 Y167.592 E23.00131
G1 X175.505 Y168.409 E23.03165
G1 X174.974 Y169.308 E23.06672
G1 X174.733 Y169.673 E23.08142
G1 X174.204 Y170.405 E23.11176
G1 X173.239 Y171.479 E23.16026
G1 X172.434 Y172.201 E23.19658
G1 X171.68 Y172.764 E23.22819
G1 X170.773 Y173.319 E23.26391
G1 X170.348 Y173.549 E23.28015
G1 X169.504 Y173.958 E23.31165
G1 X168.66 Y174.28 E23.342
G1 X167.896 Y174.503 E23.36874
G1 X167.609 Y174.575 E23.37868
G1 X166.724 Y174.757 E23.40903
G1 X165.764 Y174.867 E23.44149
G1 X165.209 Y174.891 E23.46015
G1 X164.423 Y174.902 E23.48656
G1 X80.019 Y174.9 E26.32192
G1 X79.291 Y174.888 E26.34638
G1 X78.349 Y174.83 E26.37808
G1 X77.216 Y174.647 E26.41663
G1 X76.832 Y174.563 E26.42984
G1 X75.925 Y174.321 E26.46137
G1 X75.042 Y174 E26.49293
G1 X74.224 Y173.619 E26.52325
G1 X73.299 Y173.078 E26.55925
G1 X72.916 Y172.827 E26.57463
G1 X72.183 Y172.299 E26.60497
G1 X71.166 Y171.395 E26.65068
G1 X70.417 Y170.573 E26.68804
G1 X69.871 Y169.853 E26.7184
G1 X69.285 Y168.906 E26.75581
G1 X69.062 Y168.499 E26.7714
G1 X68.649 Y167.656 E26.80293
G1 X68.323 Y166.813 E26.83329
G1 X68.071 Y165.969 E26.86288
G1 X67.861 Y165.055 E26.89439
G1 X67.732 Y164.127 E26.92586
G1 X67.685 Y163.278 E26.95442
G1 X67.673 Y162.339 E26.98597
G1 X67.674 Y113.392 E28.63023
G1 X67.685 Y112.706 E28.65328
G1 X67.734 Y111.846 E28.68222
G1 X67.908 Y110.163 E28.73906
G1 X68.129 Y107.602 E28.82541
G1 X68.269 Y105.145 E28.90808
G1 X68.355 Y101.344 E29.0358
G1 X68.448 Y57.815 E30.49806
G1 X68.46 Y57.136 E30.52087
G1 X68.518 Y56.202 E30.55231
G1 X68.641 Y55.342 E30.58149
G1 X68.824 Y54.458 E30.61182
G1 X69.144 Y53.415 E30.64847
G1 X69.25 Y53.124 E30.65887
G1 X69.618 Y52.241 E30.69101
G1 X70.052 Y51.415 E30.72235
G1 X70.411 Y50.841 E30.74509
G1 X70.595 Y50.567 E30.75618
G0 F6000 X70.917 Y50.805
G1 F1200 X71.454 Y50.078 E30.78654
G1 X72.328 Y49.119 E30.83013
G1 X73.1 Y48.43 E30.86489
G1 X74.188 Y47.647 E30.90992
G1 X75.088 Y47.133 E30.94474
G1 X75.909 Y46.757 E30.97507
G1 X76.393 Y46.575 E30.99244
G1 X76.862 Y46.412 E31.00912
G1 X77.728 Y46.154 E31.03947
G1 X78.613 Y45.973 E31.06982
G1 X79.51 Y45.871 E31.10015
G1 X80.009 Y45.849 E31.11693
G1 X80.738 Y45.837 E31.14142
G1 X165.135 Y46.014 E33.97655
G1 X165.71 Y46.023 E33.99587
G1 X166.637 Y46.08 E34.02707
G1 X167.057 Y46.125 E34.04126
G1 X167.949 Y46.261 E34.07157
G1 X168.827 Y46.475 E34.10193
G1 X169.439 Y46.675 E34.12356
G1 X169.757 Y46.79 E34.13491
G1 X170.592 Y47.134 E34.16525
G1 X171.393 Y47.551 E34.19559
G1 X172.101 Y48 E34.22375
G1 X172.424 Y48.224 E34.23695
G1 X173.142 Y48.771 E34.26728
G1 X173.81 Y49.38 E34.29764
G1 X174.421 Y50.045 E34.32798
G1 X175.059 Y50.89 E34.36355
G1 X175.285 Y51.224 E34.37709
G1 X175.757 Y51.993 E34.40741
G1 X176.16 Y52.802 E34.43777
G1 X176.421 Y53.45 E34.46123
G1 X176.555 Y53.818 E34.47439
G1 X176.827 Y54.679 E34.50472
G1 X177.02 Y55.562 E34.53509
G1 X177.135 Y56.457 E34.5654
G1 X177.169 Y57.132 E34.5881
G1 X177.187 Y58.254 E34.6258
G1 X177.088 Y107.139 E36.26798
G1 X177.077 Y107.852 E36.29194
G1 X177.024 Y108.739 E36.32179
G1 X176.895 Y109.989 E36.364
G1 X176.659 Y112.673 E36.45451
G1 X176.508 Y115.201 E36.53959
G1 X176.429 Y117.745 E36.62509
G1 X176.415 Y119.361 E36.67937
G1 X176.415 Y162.55 E38.13021
G1 X176.404 Y163.258 E38.154
G1 X176.35 Y164.16 E38.18435
G1 X176.16 Y165.321 E38.22387
G1 X176.075 Y165.702 E38.23699
G1 X175.84 Y166.574 E38.26732
G1 X175.528 Y167.421 E38.29765
G1 X175.143 Y168.238 E38.32799
G1 X174.64 Y169.088 E38.36116
G1 X174.409 Y169.439 E38.37528
G1 X173.88 Y170.171 E38.40562
G1 X172.971 Y171.182 E38.45129
G1 X172.194 Y171.881 E38.4864
G1 X171.471 Y172.423 E38.51675
G1 X170.582 Y172.967 E38.55177
G1 X170.173 Y173.189 E38.5674
G1 X169.361 Y173.584 E38.59773
G1 X168.517 Y173.906 E38.62808
G1 X167.798 Y174.115 E38.65323
G1 X167.528 Y174.183 E38.66258
G1 X166.643 Y174.365 E38.69294
G1 X165.746 Y174.467 E38.72326
G1 X165.203 Y174.491 E38.74152
G1 X164.423 Y174.502 E38.76773
G1 X80.025 Y174.5 E41.60289
G1 X79.315 Y174.489 E41.62674
G1 X78.413 Y174.435 E41.65709
G1 X77.301 Y174.256 E41.69493
G1 X76.934 Y174.176 E41.70755
G1 X76.061 Y173.945 E41.73788
G1 X75.211 Y173.637 E41.76825
G1 X74.393 Y173.256 E41.79857
G1 X73.518 Y172.743 E41.83264
G1 X73.15 Y172.502 E41.84742
G1 X72.417 Y171.974 E41.87776
G1 X71.432 Y171.096 E41.92209
G1 X70.736 Y170.331 E41.95683
G1 X70.19 Y169.611 E41.98719
G1 X69.636 Y168.714 E42.0226
G1 X69.421 Y168.322 E42.03762
G1 X69.022 Y167.512 E42.06796
G1 X68.696 Y166.669 E42.09832
G1 X68.461 Y165.879 E42.12601
G1 X68.257 Y164.999 E42.15635
G1 X68.131 Y164.105 E42.18668
G1 X68.085 Y163.273 E42.21467
G1 X68.073 Y162.339 E42.24605
G1 X68.074 Y113.398 E43.89011
G1 X68.084 Y112.729 E43.91259
G1 X68.132 Y111.887 E43.94092
G1 X68.306 Y110.204 E43.99776
G1 X68.527 Y107.636 E44.08434
G1 X68.669 Y105.154 E44.16786
G1 X68.755 Y101.353 E44.29557
G1 X68.848 Y57.822 E45.7579
G1 X68.859 Y57.16 E45.78014
G1 X68.914 Y56.258 E45.8105
G1 X69.033 Y55.423 E45.83884
G1 X69.216 Y54.539 E45.86916
G1 X69.52 Y53.552 E45.90385
G1 X69.626 Y53.261 E45.91426
G1 X69.972 Y52.427 E45.94459
G1 X70.391 Y51.627 E45.97493
G1 X70.743 Y51.064 E45.99723
G1 X70.917 Y50.805 E46.00771
G1 F2700 E41.00771
;MESH:RC Bot Final 1.stl
G0 F6000 X80.063 Y98.765
G0 X80.325 Y107.382
;TYPE:WALL-INNER
G1 F2700 E46.00771
G1 F1200 X165.505 Y107.557 E48.86915
G1 X165.586 Y107.528 E48.87204
G1 X165.604 Y99.081 E49.1558
G1 X165.498 Y99.311 E49.1643
G1 X165.252 Y99.719 E49.18031
G1 X165.032 Y100.007 E49.19248
G1 X164.707 Y100.348 E49.20831
G1 X164.384 Y100.617 E49.22243
G1 X164.036 Y100.848 E49.23646
G1 X163.668 Y101.037 E49.25036
G1 X163.269 Y101.192 E49.26474
G1 X162.88 Y101.294 E49.27825
G1 X162.464 Y101.358 E49.29238
G1 X162.037 Y101.377 E49.30674
G1 X161.693 Y101.358 E49.31832
G1 X161.224 Y101.28 E49.33429
G1 X160.811 Y101.162 E49.34872
G1 X160.496 Y101.035 E49.36013
G1 X160.068 Y100.806 E49.37643
G1 X159.772 Y100.605 E49.38845
G1 X159.452 Y100.338 E49.40245
G1 X159.13 Y99.995 E49.41826
G1 X158.875 Y99.65 E49.43267
G1 X158.667 Y99.297 E49.44643
G1 X158.492 Y98.91 E49.4607
G1 X158.364 Y98.515 E49.47465
G1 X158.29 Y98.178 E49.48624
G1 X158.243 Y97.76 E49.50037
G1 X158.241 Y97.306 E49.51562
G1 X158.293 Y96.863 E49.5306
G1 X158.388 Y96.455 E49.54468
G1 X158.501 Y96.127 E49.55633
G1 X158.684 Y95.721 E49.57129
G1 X158.915 Y95.343 E49.58617
G1 X159.16 Y95.025 E49.59966
G1 X159.443 Y94.726 E49.61349
G1 X159.756 Y94.46 E49.62728
G1 X160.08 Y94.241 E49.64042
G1 X160.506 Y94.017 E49.65659
G1 X160.897 Y93.865 E49.67068
G1 X161.293 Y93.761 E49.68444
G1 X161.707 Y93.697 E49.69851
G1 X162.136 Y93.678 E49.71293
G1 X162.533 Y93.705 E49.7263
G1 X162.956 Y93.778 E49.74072
G1 X163.35 Y93.892 E49.7545
G1 X163.744 Y94.053 E49.7688
G1 X164.048 Y94.215 E49.78037
G1 X164.4 Y94.452 E49.79462
G1 X164.758 Y94.757 E49.81042
G1 X165.007 Y95.018 E49.82254
G1 X165.258 Y95.345 E49.83639
G1 X165.476 Y95.702 E49.85044
G1 X165.611 Y95.99 E49.86113
G1 X165.667 Y69.079 E50.76514
G1 X165.528 Y69.37 E50.77597
G1 X165.352 Y69.664 E50.78749
G1 X165.052 Y70.055 E50.80404
G1 X164.816 Y70.304 E50.81557
G1 X164.499 Y70.577 E50.82962
G1 X164.154 Y70.814 E50.84368
G1 X163.788 Y71.011 E50.85764
G1 X163.331 Y71.192 E50.87415
G1 X162.943 Y71.294 E50.88763
G1 X162.527 Y71.358 E50.90177
G1 X162.098 Y71.377 E50.9162
G1 X161.701 Y71.351 E50.92956
G1 X161.342 Y71.292 E50.94178
G1 X160.944 Y71.185 E50.95563
G1 X160.487 Y71.002 E50.97216
G1 X160.127 Y70.805 E50.98595
G1 X159.832 Y70.603 E50.99796
G1 X159.507 Y70.331 E51.0122
G1 X159.188 Y69.989 E51.02791
G1 X158.937 Y69.65 E51.04208
G1 X158.749 Y69.336 E51.05437
G1 X158.57 Y68.954 E51.06854
G1 X158.434 Y68.546 E51.08299
G1 X158.346 Y68.146 E51.09675
G1 X158.302 Y67.729 E51.11083
G1 X158.306 Y67.277 E51.12602
G1 X158.346 Y66.923 E51.13799
G1 X158.434 Y66.515 E51.15201
G1 X158.583 Y66.076 E51.16758
G1 X158.769 Y65.68 E51.18228
G1 X158.985 Y65.333 E51.19601
G1 X159.192 Y65.061 E51.20749
G1 X159.53 Y64.705 E51.22398
G1 X159.85 Y64.437 E51.238
G1 X160.197 Y64.209 E51.25195
G1 X160.568 Y64.017 E51.26598
G1 X160.962 Y63.864 E51.28018
G1 X161.354 Y63.761 E51.2938
G1 X161.77 Y63.697 E51.30794
G1 X162.198 Y63.678 E51.32233
G1 X162.593 Y63.705 E51.33563
G1 X163.018 Y63.778 E51.35011
G1 X163.421 Y63.894 E51.3642
G1 X163.801 Y64.049 E51.37799
G1 X164.167 Y64.249 E51.392
G1 X164.46 Y64.45 E51.40394
G1 X164.778 Y64.715 E51.41784
G1 X165.066 Y65.015 E51.43181
G1 X165.319 Y65.345 E51.44578
G1 X165.537 Y65.702 E51.45983
G1 X165.674 Y65.99 E51.47055
G1 X165.692 Y57.548 E51.75414
G1 X165.65 Y57.513 E51.75597
G1 X80.374 Y57.336 E54.62063
G1 X80.345 Y57.419 E54.62359
G1 X80.268 Y95.172 E55.89182
G1 X80.53 Y94.837 E55.9061
G1 X80.814 Y94.544 E55.91981
G1 X81.137 Y94.275 E55.93393
G1 X81.488 Y94.043 E55.94806
G1 X81.856 Y93.854 E55.96196
G1 X82.247 Y93.702 E55.97605
G1 X82.643 Y93.598 E55.98981
G1 X83.059 Y93.534 E56.00395
G1 X83.474 Y93.516 E56.0179
G1 X83.826 Y93.535 E56.02974
G1 X84.242 Y93.6 E56.04389
G1 X84.65 Y93.712 E56.0581
G1 X85.089 Y93.887 E56.07397
G1 X85.449 Y94.083 E56.08774
G1 X85.8 Y94.326 E56.10209
G1 X86.095 Y94.579 E56.11514
G1 X86.371 Y94.872 E56.12866
G1 X86.607 Y95.182 E56.14175
G1 X86.834 Y95.556 E56.15645
G1 X87.02 Y95.956 E56.17127
G1 X87.148 Y96.342 E56.18493
G1 X87.237 Y96.754 E56.19909
G1 X87.281 Y97.161 E56.21284
G1 X87.277 Y97.612 E56.22799
G1 X87.238 Y97.966 E56.23995
G1 X87.134 Y98.435 E56.25609
G1 X86.999 Y98.819 E56.26976
G1 X86.817 Y99.205 E56.2841
G1 X86.602 Y99.557 E56.29796
G1 X86.382 Y99.844 E56.3101
G1 X86.057 Y100.185 E56.32593
G1 X85.787 Y100.414 E56.33782
G1 X85.386 Y100.685 E56.35408
G1 X85.076 Y100.848 E56.36585
G1 X84.619 Y101.029 E56.38236
G1 X84.23 Y101.131 E56.39587
G1 X83.814 Y101.195 E56.41001
G1 X83.387 Y101.214 E56.42436
G1 X83.043 Y101.195 E56.43594
G1 X82.576 Y101.117 E56.45184
G1 X82.223 Y101.019 E56.46415
G1 X81.783 Y100.843 E56.48007
G1 X81.419 Y100.645 E56.49399
G1 X81.071 Y100.403 E56.50823
G1 X80.754 Y100.129 E56.5223
G1 X80.517 Y99.877 E56.53392
G1 X80.261 Y99.549 E56.5479
G1 X80.241 Y107.35 E56.80996
G1 X80.325 Y107.382 E56.81298
G0 F6000 X80.282 Y107.782
;TYPE:WALL-OUTER
G1 F1200 X165.546 Y107.957 E59.67724
G1 X165.711 Y107.923 E59.6829
G1 X165.877 Y107.81 E59.68964
G1 X165.986 Y107.521 E59.70002
G1 F1197 X166.004 Y98.515 E60.00331
G1 F1113.7 X165.976 Y98.142 E60.01685
