;FLAVOR:Marlin
;TIME:15777
;Filament used: 12.0747m
;Layer height: 0.2
;MINX:52.14
;MINY:43.84
;MINZ:0.2
;MAXX:179.079
;MAXY:176.496
;MAXZ:14.4
;TARGET_MACHINE.NAME:Creality Ender-3
;Generated with Cura_SteamEngine 5.6.0
M140 S50
M105
M190 S50
M104 S200
M105
M109 S200
M82 ;absolute extrusion mode
; Ender 3 Custom Start G-code
G92 E0 ; Reset Extruder
G28 ; Home all axes
G1 Z2.0 F3000 ; Move Z Axis up little to prevent scratching of Heat Bed
G1 X0.1 Y20 Z0.3 F5000.0 ; Move to start position
G1 X0.1 Y200.0 Z0.3 F1500.0 E15 ; Draw the first line
G1 X0.4 Y200.0 Z0.3 F5000.0 ; Move to side a little
G1 X0.4 Y20 Z0.3 F1500.0 E30 ; Draw the second line
G92 E0 ; Reset Extruder
G1 Z2.0 F3000 ; Move Z Axis up little to prevent scratching of Heat Bed
G1 X5 Y20 Z0.3 F5000.0 ; Move over to prevent blob squish
G92 E0
G92 E0
G1 F2700 E-5
;LAYER_COUNT:72
;LAYER:0
M107
G0 F6000 X69.177 Y49.805 Z0.2
;TYPE:SKIRT
G1 F2700 E0
G1 F900 X69.745 Y49.017 E0.03263
G1 X70.306 Y48.363 E0.06158
G1 X70.716 Y47.922 E0.0818
G1 X71.41 Y47.24 E0.11449
G1 X72.107 Y46.665 E0.14484
G1 X72.908 Y46.111 E0.17756
G1 X73.477 Y45.756 E0.20009
G1 X74.332 Y45.275 E0.23304
G1 X75.381 Y44.811 E0.27158
G1 X75.873 Y44.624 E0.28926
G1 X76.731 Y44.34 E0.31962
G1 X77.74 Y44.104 E0.35443
G1 X78.433 Y43.997 E0.37798
G1 X79.038 Y43.925 E0.39845
G1 X80.148 Y43.85 E0.43582
G1 X80.921 Y43.84 E0.46179
G1 X156.55 Y43.997 E3.00238
G1 X157.571 Y44.018 E3.03669
G1 X159.534 Y44.12 E3.10272
G1 X162.055 Y44.197 E3.18745
G1 X165.88 Y44.226 E3.31594
G1 X167.171 Y44.315 E3.35941
G1 X167.66 Y44.38 E3.37599
G1 X168.619 Y44.552 E3.40872
G1 X169.544 Y44.802 E3.4409
G1 X170.078 Y44.987 E3.45989
G1 X170.69 Y45.217 E3.48185
G1 X171.552 Y45.587 E3.51336
G1 X172.44 Y46.065 E3.54724
G1 X173.175 Y46.546 E3.57675
G1 X173.747 Y46.955 E3.60037
G1 X174.512 Y47.557 E3.63307
G1 X175.196 Y48.199 E3.66458
G1 X175.866 Y48.949 E3.69837
G1 X176.359 Y49.605 E3.72593
G1 X176.648 Y50.02 E3.74292
G1 X177.014 Y50.578 E3.76534
G1 X177.468 Y51.359 E3.79569
G1 X177.963 Y52.431 E3.83535
G1 X178.214 Y53.093 E3.85913
G1 X178.382 Y53.58 E3.87644
G1 X178.654 Y54.514 E3.90912
G1 X178.845 Y55.469 E3.94184
G1 X178.949 Y56.421 E3.97401
G1 X178.971 Y56.961 E3.99216
G1 X178.987 Y58.106 E4.03063
G1 X178.903 Y100.356 E5.44992
G1 X178.936 Y102.945 E5.5369
G1 X179.068 Y106.298 E5.64963
G1 X179.079 Y107.022 E5.67395
G1 X179.071 Y107.793 E5.69985
G1 X179.003 Y108.836 E5.73496
G1 X178.639 Y112.053 E5.84372
G1 X178.427 Y114.566 E5.92844
G1 X178.294 Y117.001 E6.01036
G1 X178.215 Y120.844 E6.13948
G1 X178.216 Y155.784 E7.31321
G1 X178.253 Y158.344 E7.39922
G1 X178.397 Y161.71 E7.5124
G1 X178.406 Y162.262 E7.53094
G1 X178.395 Y163.323 E7.56659
G1 X178.297 Y164.643 E7.61105
G1 X178.235 Y165.087 E7.62611
G1 X178.053 Y166.053 E7.65913
G1 X177.717 Y167.198 E7.69922
G1 X177.515 Y167.769 E7.71956
G1 X177.16 Y168.641 E7.75119
G1 X176.613 Y169.688 E7.79087
G1 X176.335 Y170.153 E7.80907
G1 X175.789 Y170.976 E7.84225
G1 X174.956 Y171.989 E7.88631
G1 X174.575 Y172.399 E7.90511
G1 X173.878 Y173.08 E7.93784
G1 X173.181 Y173.654 E7.96818
G1 X172.497 Y174.136 E7.99629
G1 X171.714 Y174.63 E8.02739
G1 X170.86 Y175.101 E8.06015
G1 X169.988 Y175.487 E8.09218
G1 X169.537 Y175.662 E8.10843
G1 X168.616 Y175.973 E8.14109
G1 X167.738 Y176.188 E8.17146
G1 X167.092 Y176.297 E8.19346
G1 X166.437 Y176.388 E8.21568
G1 X165.203 Y176.485 E8.25726
G1 X164.349 Y176.496 E8.28595
G1 X163.487 Y176.48 E8.31491
G1 X161.59 Y176.386 E8.37871
G1 X157.633 Y176.302 E8.51167
G1 X86.804 Y176.301 E10.89101
G1 X84.226 Y176.338 E10.97762
G1 X81.18 Y176.472 E11.08004
G1 X80.256 Y176.491 E11.11109
G1 X79.17 Y176.478 E11.14758
G1 X77.89 Y176.377 E11.19071
G1 X77.466 Y176.317 E11.20509
G1 X76.501 Y176.132 E11.2381
G1 X75.378 Y175.801 E11.27743
G1 X74.79 Y175.592 E11.29839
G1 X73.953 Y175.253 E11.32873
G1 X72.878 Y174.692 E11.36946
G1 X72.46 Y174.443 E11.38581
G1 X71.64 Y173.901 E11.41883
G1 X70.724 Y173.157 E11.45847
G1 X70.276 Y172.75 E11.4788
G1 X69.646 Y172.129 E11.50852
G1 X67.773 Y170.124 E11.60069
G1 X66.021 Y168.349 E11.68447
G1 X64.201 Y166.608 E11.76908
G1 X62.341 Y164.928 E11.85327
G1 X60.375 Y163.25 E11.9401
G1 X58.467 Y161.711 E12.02245
G1 X57.264 Y160.783 E12.07349
G1 X56.521 Y160.152 E12.10623
G1 X55.833 Y159.455 E12.13913
G1 X55.142 Y158.608 E12.17585
G1 X54.853 Y158.215 E12.19224
G1 X54.315 Y157.404 E12.22493
G1 X53.881 Y156.612 E12.25527
G1 X53.34 Y155.322 E12.30226
G1 X53.209 Y154.941 E12.3158
G1 X52.942 Y154.034 E12.34756
G1 X52.697 Y152.715 E12.39262
G1 X52.648 Y152.306 E12.40646
G1 X52.573 Y151.226 E12.44283
G1 X52.561 Y150.516 E12.46668
G1 X52.561 Y146.975 E12.58564
G1 X52.524 Y144.381 E12.67278
G1 X52.416 Y141.849 E12.75792
G1 X52.179 Y138.583 E12.86792
G1 X52.153 Y137.985 E12.88803
G1 X52.14 Y137.171 E12.91538
G1 X52.14 Y129.477 E13.17384
G1 X52.153 Y128.732 E13.19887
G1 X52.21 Y127.8 E13.23024
G1 X52.299 Y127.127 E13.25304
G1 X52.659 Y124.969 E13.32654
G1 X53.016 Y122.458 E13.41173
G1 X53.293 Y120 E13.49483
G1 X53.51 Y117.447 E13.5809
G1 X53.648 Y114.964 E13.66444
G1 X53.692 Y113.371 E13.71797
G1 X53.738 Y112.4 E13.75063
G1 X53.916 Y109.347 E13.85336
G1 X53.987 Y106.821 E13.93825
G1 X53.987 Y104.307 E14.0227
G1 X53.914 Y101.793 E14.10719
G1 X53.771 Y99.277 E14.19185
G1 X53.559 Y96.768 E14.27643
G1 X53.451 Y95.828 E14.30821
G1 X53.438 Y95.643 E14.31444
G1 X53.309 Y94.458 E14.35449
G1 X53.248 Y93.5 E14.38673
G1 X53.226 Y92.249 E14.42877
G1 X53.227 Y85.081 E14.66956
G1 X53.237 Y84.442 E14.69103
G1 X53.297 Y83.453 E14.72431
G1 X53.432 Y82.548 E14.75505
G1 X53.51 Y82.148 E14.76874
G1 X53.741 Y81.191 E14.80181
G1 X54.14 Y80.052 E14.84235
G1 X54.298 Y79.673 E14.85615
G1 X54.703 Y78.82 E14.88787
G1 X55.418 Y77.647 E14.93401
G1 X57.047 Y75.247 E15.03145
G1 X58.429 Y73.074 E15.11796
G1 X59.703 Y70.937 E15.20154
G1 X60.919 Y68.761 E15.28528
G1 X62.101 Y66.496 E15.3711
G1 X63.206 Y64.227 E15.45588
G1 X64.234 Y61.954 E15.53968
G1 X65.223 Y59.585 E15.62592
G1 X66.104 Y57.302 E15.70813
G1 X67.135 Y54.359 E15.81288
G1 X67.513 Y53.223 E15.8531
G1 X67.875 Y52.248 E15.88804
G1 X68.281 Y51.324 E15.92194
G1 X68.93 Y50.181 E15.9661
G1 X69.177 Y49.805 E15.98121
G0 F6000 X69.502 Y50.038
G1 F900 X70.049 Y49.277 E16.01269
G1 X70.599 Y48.635 E16.04109
G1 X70.996 Y48.207 E16.0607
G1 X71.665 Y47.549 E16.09222
G1 X72.362 Y46.974 E16.12258
G1 X73.12 Y46.45 E16.15353
G1 X73.673 Y46.104 E16.17544
G1 X74.494 Y45.641 E16.20711
G1 X75.523 Y45.185 E16.24492
G1 X75.999 Y45.004 E16.26202
G1 X76.857 Y44.72 E16.29238
G1 X77.801 Y44.499 E16.32495
G1 X78.481 Y44.394 E16.34807
G1 X79.065 Y44.324 E16.36783
G1 X80.153 Y44.25 E16.40446
G1 X80.92 Y44.24 E16.43023
G1 X156.542 Y44.397 E18.97058
G1 X157.55 Y44.417 E19.00445
G1 X159.522 Y44.52 E19.07079
G1 X162.043 Y44.597 E19.15551
G1 X165.853 Y44.625 E19.2835
G1 X167.119 Y44.712 E19.32613
G1 X167.59 Y44.774 E19.34209
G1 X168.515 Y44.938 E19.37365
G1 X169.413 Y45.18 E19.40489
G1 X169.937 Y45.361 E19.42351
G1 X170.533 Y45.585 E19.4449
G1 X171.363 Y45.94 E19.47523
G1 X172.221 Y46.4 E19.50793
G1 X172.942 Y46.871 E19.53686
G1 X173.5 Y47.27 E19.55991
G1 X174.238 Y47.849 E19.59142
G1 X174.922 Y48.491 E19.62293
G1 X175.546 Y49.19 E19.65441
G1 X176.031 Y49.834 E19.68149
G1 X176.314 Y50.24 E19.69811
G1 X176.668 Y50.779 E19.71978
G1 X177.122 Y51.56 E19.75012
G1 X177.589 Y52.573 E19.78759
G1 X177.836 Y53.224 E19.81098
G1 X177.998 Y53.693 E19.82765
G1 X178.262 Y54.593 E19.85916
G1 X178.447 Y55.513 E19.89068
G1 X178.549 Y56.438 E19.92195
G1 X178.571 Y56.967 E19.93973
G1 X178.587 Y58.105 E19.97796
G1 X178.503 Y100.355 E21.39726
G1 X178.536 Y102.959 E21.48474
G1 X178.601 Y104.761 E21.54532
G1 X178.668 Y106.304 E21.5972
G1 X178.679 Y107.018 E21.62119
G1 X178.672 Y107.767 E21.64635
G1 X178.606 Y108.791 E21.68082
G1 X178.24 Y112.02 E21.78998
G1 X178.029 Y114.533 E21.8747
G1 X177.894 Y116.993 E21.95746
G1 X177.815 Y120.836 E22.08659
G1 X177.816 Y155.784 E23.26059
G1 X177.853 Y158.361 E23.34716
G1 X177.997 Y161.717 E23.46
G1 X178.006 Y162.258 E23.47818
G1 X177.996 Y163.293 E23.51295
G1 X177.898 Y164.613 E23.55741
G1 X177.842 Y165.014 E23.57102
G1 X177.669 Y165.941 E23.60269
G1 X177.34 Y167.065 E23.64204
G1 X177.144 Y167.619 E23.66178
G1 X176.805 Y168.456 E23.69211
G1 X176.269 Y169.483 E23.73103
G1 X176.001 Y169.933 E23.74862
G1 X175.48 Y170.722 E23.78039
G1 X174.663 Y171.717 E23.82363
G1 X174.295 Y172.113 E23.84179
G1 X173.624 Y172.771 E23.87336
G1 X172.927 Y173.345 E23.9037
G1 X172.284 Y173.798 E23.93012
G1 X171.52 Y174.28 E23.96046
G1 X170.698 Y174.735 E23.99203
G1 X169.843 Y175.114 E24.02344
G1 X169.409 Y175.283 E24.03909
G1 X168.521 Y175.584 E24.07059
G1 X167.643 Y175.799 E24.10095
G1 X167.037 Y175.901 E24.1216
G1 X166.406 Y175.989 E24.143
G1 X165.172 Y176.086 E24.18458
G1 X164.357 Y176.096 E24.21196
G1 X163.504 Y176.08 E24.24062
G1 X162.445 Y176.034 E24.27623
G1 X161.598 Y175.986 E24.30473
G1 X157.641 Y175.902 E24.43768
G1 X86.798 Y175.901 E26.81749
G1 X84.208 Y175.938 E26.90451
G1 X81.172 Y176.072 E27.00659
G1 X80.261 Y176.091 E27.0372
G1 X79.201 Y176.079 E27.07281
G1 X77.921 Y175.978 E27.11595
G1 X77.541 Y175.924 E27.12884
G1 X76.614 Y175.748 E27.16054
G1 X75.512 Y175.424 E27.19912
G1 X74.94 Y175.221 E27.21951
G1 X74.103 Y174.882 E27.24985
G1 X73.082 Y174.348 E27.28855
G1 X72.68 Y174.109 E27.30426
G1 X71.892 Y173.59 E27.33596
G1 X70.993 Y172.861 E27.37484
G1 X70.557 Y172.465 E27.39463
G1 X69.938 Y171.856 E27.4238
G1 X68.058 Y169.843 E27.51632
G1 X66.306 Y168.068 E27.60011
G1 X64.469 Y166.311 E27.6855
G1 X62.609 Y164.631 E27.76969
G1 X60.635 Y162.946 E27.85688
G1 X58.711 Y161.394 E27.93992
G1 X57.522 Y160.478 E27.99034
G1 X56.805 Y159.871 E28.0219
G1 X56.143 Y159.202 E28.05351
G1 X55.464 Y158.371 E28.08956
G1 X55.186 Y157.993 E28.10532
G1 X54.666 Y157.212 E28.13684
G1 X54.232 Y156.42 E28.16718
G1 X53.718 Y155.192 E28.2119
G1 X53.593 Y154.828 E28.22483
G1 X53.326 Y153.921 E28.25659
G1 X53.094 Y152.667 E28.29943
G1 X53.047 Y152.278 E28.31259
G1 X52.973 Y151.219 E28.34826
G1 X52.961 Y150.509 E28.37211
G1 X52.961 Y146.975 E28.49083
G1 X52.924 Y144.375 E28.57818
G1 X52.816 Y141.832 E28.66368
G1 X52.579 Y138.565 E28.77372
G1 X52.553 Y137.979 E28.79342
G1 X52.54 Y137.165 E28.82077
G1 X52.54 Y129.484 E29.07879
G1 X52.552 Y128.756 E29.10325
G1 X52.609 Y127.824 E29.13462
G1 X52.694 Y127.193 E29.15601
G1 X53.054 Y125.035 E29.2295
G1 X53.412 Y122.514 E29.31504
G1 X53.692 Y120.034 E29.39888
G1 X53.908 Y117.481 E29.48495
G1 X54.048 Y114.975 E29.56926
G1 X54.092 Y113.39 E29.62253
G1 X54.137 Y112.423 E29.65505
G1 X54.316 Y109.358 E29.75819
G1 X54.387 Y106.832 E29.84307
G1 X54.387 Y104.307 E29.9279
G1 X54.314 Y101.781 E30.01279
G1 X54.17 Y99.243 E30.09818
G1 X53.957 Y96.734 E30.18277
G1 X53.85 Y95.8 E30.21435
G1 X53.836 Y95.599 E30.22112
G1 X53.708 Y94.432 E30.26056
G1 X53.648 Y93.493 E30.29216
G1 X53.626 Y92.249 E30.33396
G1 X53.627 Y85.087 E30.57455
G1 X53.636 Y84.466 E30.59541
G1 X53.693 Y83.512 E30.62752
G1 X53.825 Y82.624 E30.65768
G1 X53.899 Y82.241 E30.67078
G1 X54.119 Y81.323 E30.70249
G1 X54.518 Y80.184 E30.74303
G1 X54.66 Y79.844 E30.75541
G1 X55.045 Y79.028 E30.78572
G1 X55.749 Y77.872 E30.83119
G1 X57.385 Y75.462 E30.92904
G1 X58.767 Y73.289 E31.01555
G1 X60.047 Y71.142 E31.09952
G1 X61.274 Y68.946 E31.18402
G1 X62.456 Y66.681 E31.26985
G1 X63.566 Y64.402 E31.355
G1 X64.598 Y62.119 E31.43917
G1 X65.592 Y59.739 E31.52581
G1 X66.482 Y57.434 E31.60881
G1 X67.513 Y54.491 E31.71357
G1 X67.888 Y53.362 E31.75353
G1 X68.25 Y52.387 E31.78847
G1 X68.629 Y51.521 E31.82022
G1 X69.265 Y50.4 E31.86352
G1 X69.502 Y50.038 E31.87805
G0 F6000 X69.827 Y50.271
G1 F900 X70.353 Y49.537 E31.90839
G1 X70.892 Y48.907 E31.93624
G1 X71.277 Y48.492 E31.95526
G1 X71.92 Y47.858 E31.98559
G1 X72.617 Y47.283 E32.01594
G1 X73.333 Y46.789 E32.04517
G1 X73.87 Y46.452 E32.06646
G1 X74.656 Y46.007 E32.0968
G1 X75.665 Y45.559 E32.13389
G1 X76.125 Y45.384 E32.15042
G1 X76.983 Y45.1 E32.18078
G1 X77.862 Y44.894 E32.21111
G1 X78.529 Y44.791 E32.23378
G1 X79.092 Y44.723 E32.25283
G1 X80.158 Y44.65 E32.28873
G1 X80.919 Y44.64 E32.31429
G1 X156.534 Y44.797 E34.85441
G1 X157.532 Y44.817 E34.88795
G1 X158.533 Y44.863 E34.92161
G1 X159.51 Y44.92 E34.95448
G1 X162.031 Y44.997 E35.03921
G1 X165.826 Y45.024 E35.1667
G1 X167.067 Y45.109 E35.20849
G1 X167.521 Y45.168 E35.22386
G1 X168.411 Y45.324 E35.25422
G1 X169.283 Y45.558 E35.28455
G1 X169.796 Y45.735 E35.30278
G1 X170.376 Y45.953 E35.32359
G1 X171.206 Y46.308 E35.35392
G1 X172.002 Y46.735 E35.38426
G1 X172.71 Y47.197 E35.41266
G1 X173.254 Y47.585 E35.43511
G1 X173.965 Y48.141 E35.46543
G1 X174.624 Y48.758 E35.49575
G1 X175.227 Y49.431 E35.52611
G1 X175.703 Y50.062 E35.55266
G1 X175.98 Y50.46 E35.56895
G1 X176.322 Y50.98 E35.58986
G1 X176.776 Y51.761 E35.6202
G1 X177.215 Y52.715 E35.65548
G1 X177.458 Y53.354 E35.67845
G1 X177.614 Y53.806 E35.69451
G1 X177.87 Y54.672 E35.72485
G1 X178.049 Y55.557 E35.75518
G1 X178.149 Y56.455 E35.78553
G1 X178.171 Y56.973 E35.80295
G1 X178.187 Y58.104 E35.84094
G1 X178.103 Y100.354 E37.26024
G1 X178.136 Y102.973 E37.34823
G1 X178.201 Y104.778 E37.4089
G1 X178.268 Y106.31 E37.46041
G1 X178.279 Y107.015 E37.4841
G1 X178.273 Y107.742 E37.50852
G1 X178.209 Y108.746 E37.54232
G1 X177.841 Y111.987 E37.65189
G1 X177.631 Y114.5 E37.7366
G1 X177.494 Y116.985 E37.82021
G1 X177.415 Y120.828 E37.94933
G1 X177.416 Y155.784 E39.1236
G1 X177.453 Y158.378 E39.21075
G1 X177.597 Y161.724 E39.32325
G1 X177.606 Y162.254 E39.34106
G1 X177.597 Y163.263 E39.37496
G1 X177.499 Y164.583 E39.41942
G1 X177.449 Y164.941 E39.43157
G1 X177.285 Y165.829 E39.4619
G1 X176.963 Y166.932 E39.5005
G1 X176.773 Y167.469 E39.51963
G1 X176.434 Y168.306 E39.54997
G1 X175.925 Y169.279 E39.58686
G1 X175.667 Y169.713 E39.60382
G1 X175.171 Y170.468 E39.63417
G1 X174.37 Y171.445 E39.67661
G1 X174.014 Y171.828 E39.69417
G1 X173.37 Y172.462 E39.72453
G1 X172.673 Y173.036 E39.75486
G1 X172.07 Y173.46 E39.77962
G1 X171.326 Y173.93 E39.80919
G1 X170.536 Y174.369 E39.83955
G1 X169.697 Y174.741 E39.87038
G1 X169.28 Y174.904 E39.88542
G1 X168.426 Y175.195 E39.91573
G1 X167.548 Y175.41 E39.94609
G1 X166.982 Y175.505 E39.96537
G1 X166.375 Y175.59 E39.98596
G1 X165.141 Y175.687 E40.02754
G1 X164.365 Y175.696 E40.05361
G1 X163.521 Y175.68 E40.08197
G1 X162.468 Y175.635 E40.11737
G1 X161.606 Y175.586 E40.14638
G1 X157.649 Y175.502 E40.27933
G1 X86.792 Y175.501 E42.65962
G1 X84.19 Y175.538 E42.74703
G1 X81.164 Y175.672 E42.84878
G1 X80.265 Y175.691 E42.87899
G1 X79.232 Y175.68 E42.91369
G1 X77.952 Y175.579 E42.95683
G1 X77.615 Y175.531 E42.96826
G1 X76.727 Y175.364 E42.99861
G1 X75.646 Y175.047 E43.03646
G1 X75.09 Y174.85 E43.05627
G1 X74.253 Y174.511 E43.08661
G1 X73.286 Y174.004 E43.12329
G1 X72.899 Y173.774 E43.13841
G1 X72.144 Y173.279 E43.16874
G1 X71.262 Y172.565 E43.20686
G1 X70.837 Y172.18 E43.22612
G1 X70.23 Y171.583 E43.25472
G1 X68.343 Y169.562 E43.34761
G1 X66.591 Y167.787 E43.43139
G1 X64.746 Y166.022 E43.51716
G1 X62.877 Y164.334 E43.60176
G1 X60.895 Y162.642 E43.6893
G1 X58.955 Y161.077 E43.77303
G1 X57.78 Y160.172 E43.82286
G1 X57.089 Y159.589 E43.85323
G1 X56.453 Y158.949 E43.88354
G1 X55.786 Y158.134 E43.91891
G1 X55.519 Y157.771 E43.93405
G1 X55.017 Y157.02 E43.9644
G1 X54.583 Y156.228 E43.99473
G1 X54.096 Y155.061 E44.03721
G1 X53.976 Y154.714 E44.04955
G1 X53.719 Y153.848 E44.07989
G1 X53.491 Y152.618 E44.12192
G1 X53.446 Y152.25 E44.13437
G1 X53.373 Y151.212 E44.16933
G1 X53.361 Y150.502 E44.19318
G1 X53.361 Y146.975 E44.31166
G1 X53.324 Y144.369 E44.39921
G1 X53.216 Y141.815 E44.48509
G1 X52.979 Y138.547 E44.59516
G1 X52.953 Y137.973 E44.61446
G1 X52.94 Y137.159 E44.64181
G1 X52.94 Y129.49 E44.89943
G1 X52.951 Y128.78 E44.92328
G1 X53.005 Y127.878 E44.95364
G1 X53.089 Y127.259 E44.97462
G1 X53.449 Y125.101 E45.04812
G1 X53.808 Y122.57 E45.13399
G1 X54.091 Y120.068 E45.21858
G1 X54.306 Y117.515 E45.30464
G1 X54.448 Y114.986 E45.38973
G1 X54.492 Y113.408 E45.44276
G1 X54.536 Y112.446 E45.47511
G1 X54.716 Y109.369 E45.57865
G1 X54.787 Y106.843 E45.66354
G1 X54.787 Y104.307 E45.74873
G1 X54.714 Y101.769 E45.83403
G1 X54.569 Y99.209 E45.92016
