;FLAVOR:Marlin
;TIME:9790
;Filament used: 8.0768m
;Layer height: 0.2
;MINX:55.704
;MINY:64.431
;MINZ:0.2
;MAXX:182.422
;MAXY:170.569
;MAXZ:13.4
;TARGET_MACHINE.NAME:Creality Ender-3
;Generated with Cura_SteamEngine 5.6.0
M140 S50
M105
M190 S50
M104 S200
M105
M109 S200
M82 ;absolute extrusion mode
; Ender 3 Custom Start G-code
G92 E0 ; Reset Extruder
G28 ; Home all axes
G1 Z2.0 F3000 ; Move Z Axis up little to prevent scratching of Heat Bed
G1 X0.1 Y20 Z0.3 F5000.0 ; Move to start position
G1 X0.1 Y200.0 Z0.3 F1500.0 E15 ; Draw the first line
G1 X0.4 Y200.0 Z0.3 F5000.0 ; Move to side a little
G1 X0.4 Y20 Z0.3 F1500.0 E30 ; Draw the second line
G92 E0 ; Reset Extruder
G1 Z2.0 F3000 ; Move Z Axis up little to prevent scratching of Heat Bed
G1 X5 Y20 Z0.3 F5000.0 ; Move over to prevent blob squish
G92 E0
G92 E0
G1 F2700 E-5
;LAYER_COUNT:67
;LAYER:0
M107
G0 F6000 X59.957 Y66.884 Z0.2
;TYPE:SKIRT
G1 F2700 E0
G1 F1200 X61.686 Y65.66 E0.07046
G1 X64.234 Y64.702 E0.161
G1 X66.049 Y64.545 E0.22159
G1 X68.751 Y64.533 E0.31146
G1 X69.498 Y64.729 E0.33715
G1 X113.893 Y64.727 E1.81373
G1 X114.843 Y64.517 E1.84609
G1 X117.405 Y64.58 E1.93133
G1 X118.942 Y64.785 E1.9829
G1 X120.201 Y64.436 E2.02635
G1 X172.581 Y64.431 E3.76852
G1 X175.48 Y64.753 E3.86553
G1 X178.169 Y66.131 E3.96603
G1 X179.87 Y67.637 E4.04159
G1 X181.43 Y69.792 E4.13008
G1 X182.422 Y72.803 E4.23552
G1 X182.418 Y161.952 E7.20063
G1 X181.643 Y164.797 E7.2987
G1 X179.854 Y167.484 E7.40607
G1 X177.075 Y169.614 E7.52252
G1 X173.865 Y170.568 E7.6339
G1 X120.056 Y170.569 E9.4236
G1 X118.918 Y170.215 E9.46324
G1 X118.803 Y170.24 E9.46715
G1 X116.947 Y170.451 E9.52928
G1 X114.672 Y170.483 E9.60495
G1 X113.876 Y170.272 E9.63234
G1 X69.539 Y170.272 E11.107
G1 X68.946 Y170.484 E11.12794
G1 X65.221 Y170.388 E11.25188
G1 X64.025 Y170.211 E11.29209
G1 X61.83 Y169.405 E11.36986
G1 X60.138 Y168.322 E11.43668
G1 X58.45 Y166.709 E11.51434
G1 X57.158 Y164.632 E11.59569
G1 X56.433 Y162.634 E11.66639
G1 X56.206 Y160.649 E11.73284
G1 X56.171 Y158.335 E11.80981
G1 X56.382 Y157.532 E11.83742
G1 X56.382 Y108.181 E13.47885
G1 X55.704 Y106.332 E13.54435
G1 X55.704 Y94.593 E13.93479
G1 X56.28 Y92.779 E13.99809
G1 X56.382 Y92.548 E14.00649
G1 X56.382 Y77.443 E14.50888
G1 X56.173 Y76.511 E14.54065
G1 X56.242 Y73.812 E14.63045
G1 X56.479 Y72.025 E14.69041
G1 X57.673 Y69.396 E14.78644
G1 X58.53 Y68.185 E14.83579
G1 X59.957 Y66.884 E14.90001
G0 F6000 X60.227 Y67.18
G1 F1200 X61.877 Y66.015 E14.96719
G1 X64.32 Y65.097 E15.054
G1 X66.084 Y64.944 E15.11289
G1 X68.699 Y64.933 E15.19986
G1 X69.446 Y65.129 E15.22555
G1 X113.938 Y65.127 E16.70536
G1 X114.883 Y64.918 E16.73755
G1 X117.395 Y64.98 E16.82112
G1 X118.97 Y65.192 E16.87398
G1 X120.254 Y64.836 E16.9183
G1 X172.581 Y64.831 E18.6587
G1 X175.365 Y65.143 E18.75188
G1 X177.94 Y66.463 E18.84812
G1 X179.574 Y67.909 E18.92069
G1 X181.069 Y69.975 E19.00551
G1 X182.022 Y72.867 E19.10679
G1 X182.018 Y161.898 E22.06797
G1 X181.274 Y164.629 E22.16211
G1 X179.558 Y167.207 E22.26512
G1 X176.889 Y169.252 E22.37695
G1 X173.808 Y170.168 E22.48386
G1 X120.117 Y170.169 E24.26963
G1 X118.931 Y169.8 E24.31094
G1 X118.757 Y169.843 E24.3169
G1 X116.941 Y170.051 E24.3777
G1 X114.722 Y170.082 E24.45151
G1 X113.929 Y169.872 E24.47879
G1 X69.468 Y169.872 E25.95757
G1 X68.881 Y170.082 E25.97831
G1 X65.28 Y169.992 E26.09811
G1 X64.125 Y169.821 E26.13695
G1 X62.008 Y169.044 E26.21195
G1 X60.384 Y168.004 E26.27609
G1 X58.764 Y166.456 E26.35062
G1 X57.52 Y164.456 E26.42896
G1 X56.824 Y162.54 E26.49676
G1 X56.606 Y160.643 E26.56027
G1 X56.572 Y158.384 E26.63541
G1 X56.782 Y157.585 E26.66289
G1 X56.782 Y108.108 E28.3085
G1 X56.104 Y106.259 E28.374
G1 X56.104 Y94.654 E28.75999
G1 X56.646 Y92.941 E28.81974
G1 X56.782 Y92.633 E28.83094
G1 X56.782 Y77.4 E29.33759
G1 X56.574 Y76.473 E29.36919
G1 X56.639 Y73.864 E29.45599
G1 X56.868 Y72.134 E29.51404
G1 X58.02 Y69.599 E29.60665
G1 X58.831 Y68.453 E29.65334
G1 X60.227 Y67.18 E29.71618
G0 F6000 X60.458 Y67.507
G1 F1200 X62.068 Y66.37 E29.78174
G1 X64.407 Y65.491 E29.86484
G1 X66.118 Y65.343 E29.92197
G1 X68.647 Y65.333 E30.00608
G1 X69.394 Y65.529 E30.03177
G1 X113.983 Y65.527 E31.5148
G1 X114.923 Y65.319 E31.54682
G1 X117.343 Y65.377 E31.62734
G1 X118.843 Y65.573 E31.67765
G1 X118.974 Y65.606 E31.68214
G1 X120.307 Y65.236 E31.72816
G1 X172.581 Y65.231 E33.4668
G1 X175.247 Y65.532 E33.55603
G1 X177.711 Y66.795 E33.64812
G1 X179.276 Y68.18 E33.71763
G1 X180.709 Y70.16 E33.79893
G1 X181.622 Y72.931 E33.89596
G1 X181.618 Y161.844 E36.85322
G1 X180.905 Y164.461 E36.94344
G1 X179.26 Y166.932 E37.04217
G1 X176.705 Y168.89 E37.14923
G1 X173.751 Y169.768 E37.25173
G1 X120.178 Y169.769 E39.03357
G1 X118.935 Y169.382 E39.07687
G1 X118.711 Y169.446 E39.08462
G1 X116.935 Y169.651 E39.14409
G1 X114.772 Y169.681 E39.21603
G1 X113.982 Y169.472 E39.24321
G1 X69.397 Y169.472 E40.72612
G1 X68.816 Y169.68 E40.74664
G1 X65.339 Y169.596 E40.86232
G1 X64.225 Y169.431 E40.89978
G1 X62.186 Y168.683 E40.97201
G1 X60.63 Y167.686 E41.03348
G1 X59.078 Y166.203 E41.10488
G1 X57.881 Y164.279 E41.18024
G1 X57.216 Y162.447 E41.24506
G1 X57.006 Y160.637 E41.30567
G1 X56.973 Y158.433 E41.37898
G1 X57.182 Y157.638 E41.40632
G1 X57.182 Y108.035 E43.05613
G1 X56.504 Y106.186 E43.12163
G1 X56.504 Y94.717 E43.50309
G1 X57.012 Y93.103 E43.55937
G1 X57.182 Y92.718 E43.57336
G1 X57.182 Y77.357 E44.08427
G1 X56.975 Y76.435 E44.1157
G1 X57.036 Y73.917 E44.19948
G1 X57.258 Y72.243 E44.25564
G1 X58.368 Y69.798 E44.34495
G1 X59.131 Y68.72 E44.38888
G1 X60.458 Y67.507 E44.44867
G0 F6000 X60.689 Y67.834
G1 F1200 X62.259 Y66.725 E44.51261
G1 X64.493 Y65.886 E44.59198
G1 X66.153 Y65.742 E44.64739
G1 X68.595 Y65.733 E44.72862
G1 X69.342 Y65.929 E44.7543
G1 X114.028 Y65.927 E46.24057
G1 X114.963 Y65.72 E46.27242
G1 X117.291 Y65.774 E46.34987
G1 X118.791 Y65.97 E46.40018
G1 X118.974 Y66.021 E46.4065
G1 X120.36 Y65.636 E46.45434
G1 X172.581 Y65.631 E48.19122
G1 X175.129 Y65.921 E48.27652
G1 X177.482 Y67.127 E48.36446
G1 X178.978 Y68.451 E48.4309
G1 X180.349 Y70.345 E48.50867
G1 X181.222 Y72.995 E48.60147
G1 X181.218 Y161.79 E51.5548
G1 X180.536 Y164.293 E51.64109
G1 X178.962 Y166.657 E51.73555
G1 X176.521 Y168.528 E51.83784
G1 X173.694 Y169.368 E51.93593
G1 X120.239 Y169.369 E53.71385
G1 X118.933 Y168.962 E53.75935
G1 X118.665 Y169.049 E53.76872
G1 X116.929 Y169.251 E53.82685
G1 X114.822 Y169.28 E53.89694
G1 X114.035 Y169.072 E53.92401
G1 X69.326 Y169.072 E55.41104
G1 X68.75 Y169.278 E55.43138
G1 X65.397 Y169.2 E55.54294
G1 X64.321 Y169.041 E55.57911
G1 X62.368 Y168.324 E55.64831
G1 X60.876 Y167.368 E55.70725
G1 X59.392 Y165.95 E55.77551
G1 X58.242 Y164.102 E55.84791
G1 X57.608 Y162.354 E55.90975
G1 X57.406 Y160.631 E55.96745
G1 X57.374 Y158.482 E56.03894
G1 X57.582 Y157.69 E56.06617
G1 X57.582 Y107.943 E57.72076
G1 X57.526 Y107.826 E57.72508
G1 X56.904 Y106.114 E57.78566
G1 X56.904 Y94.78 E58.16263
G1 X57.394 Y93.223 E58.21692
G1 X57.582 Y92.803 E58.23223
G1 X57.582 Y77.313 E58.74743
G1 X57.376 Y76.397 E58.77865
G1 X57.433 Y73.969 E58.85943
G1 X57.647 Y72.352 E58.91368
G1 X58.715 Y70.001 E58.99957
G1 X59.434 Y68.985 E59.04096
G1 X60.689 Y67.834 E59.0976
G0 F6000 X60.92 Y68.161
G1 F1200 X62.45 Y67.08 E59.15991
G1 X64.58 Y66.28 E59.23559
G1 X66.187 Y66.141 E59.28924
G1 X68.543 Y66.133 E59.3676
G1 X69.29 Y66.329 E59.39328
G1 X114.074 Y66.327 E60.8828
G1 X115.004 Y66.121 E60.91449
G1 X117.239 Y66.171 E60.98884
G1 X118.739 Y66.367 E61.03916
G1 X118.968 Y66.438 E61.04713
G1 X120.413 Y66.036 E61.09702
G1 X172.581 Y66.031 E62.83213
G1 X175.011 Y66.31 E62.91348
G1 X177.256 Y67.46 E62.99738
G1 X178.678 Y68.719 E63.06055
G1 X179.989 Y70.53 E63.13491
G1 X180.822 Y73.059 E63.22347
G1 X180.818 Y161.736 E66.17288
G1 X180.167 Y164.125 E66.25523
G1 X178.666 Y166.38 E66.34533
G1 X176.335 Y168.166 E66.443
G1 X173.637 Y168.968 E66.53662
G1 X120.3 Y168.969 E68.31061
G1 X118.923 Y168.54 E68.35858
G1 X118.618 Y168.652 E68.36939
G1 X116.924 Y168.851 E68.42612
G1 X114.872 Y168.879 E68.49438
G1 X114.088 Y168.672 E68.52135
G1 X69.255 Y168.672 E70.0125
G1 X68.684 Y168.876 E70.03267
G1 X65.455 Y168.804 E70.14009
G1 X64.417 Y168.651 E70.17499
G1 X62.55 Y167.965 E70.24114
G1 X61.122 Y167.05 E70.29755
G1 X59.706 Y165.697 E70.36269
G1 X58.604 Y163.926 E70.43207
G1 X57.999 Y162.26 E70.49102
G1 X57.806 Y160.625 E70.54578
G1 X57.775 Y158.531 E70.61543
G1 X57.982 Y157.743 E70.64253
G1 X57.982 Y107.848 E72.30204
G1 X57.902 Y107.689 E72.30796
G1 X57.304 Y106.043 E72.36621
G1 X57.304 Y94.843 E72.73873
G1 X57.776 Y93.343 E72.79103
G1 X57.982 Y92.89 E72.80758
G1 X57.982 Y77.269 E73.32714
G1 X57.777 Y76.358 E73.35819
G1 X57.83 Y74.021 E73.43594
G1 X58.036 Y72.462 E73.48824
G1 X59.063 Y70.203 E73.57078
G1 X59.738 Y69.249 E73.60965
G1 X60.92 Y68.161 E73.66308
G0 F6000 X61.151 Y68.488
G1 F1200 X62.641 Y67.435 E73.72377
G1 X64.666 Y66.675 E73.7957
G1 X66.222 Y66.54 E73.84765
G1 X68.491 Y66.533 E73.92312
G1 X69.238 Y66.729 E73.94881
G1 X114.12 Y66.727 E75.44159
G1 X115.045 Y66.522 E75.4731
G1 X117.187 Y66.568 E75.54436
G1 X118.687 Y66.764 E75.59467
G1 X118.955 Y66.856 E75.6041
G1 X120.466 Y66.436 E75.65626
G1 X172.581 Y66.431 E77.38961
G1 X174.893 Y66.699 E77.46702
G1 X177.03 Y67.793 E77.54687
G1 X178.378 Y68.987 E77.60677
G1 X179.629 Y70.715 E77.67772
G1 X180.422 Y73.123 E77.76204
G1 X180.418 Y161.682 E80.70753
G1 X179.798 Y163.957 E80.78595
G1 X178.368 Y166.105 E80.87178
G1 X176.151 Y167.804 E80.96468
G1 X173.58 Y168.568 E81.05389
G1 X120.361 Y168.569 E82.82396
G1 X118.912 Y168.117 E82.87444
G1 X118.524 Y168.261 E82.88821
G1 X116.919 Y168.451 E82.94196
G1 X114.922 Y168.478 E83.00839
G1 X114.141 Y168.272 E83.03525
G1 X69.186 Y168.272 E84.53046
G1 X68.619 Y168.474 E84.55048
G1 X65.514 Y168.408 E84.65378
G1 X64.513 Y168.26 E84.68743
G1 X62.732 Y167.606 E84.75054
G1 X61.368 Y166.732 E84.80442
G1 X60.02 Y165.444 E84.86643
G1 X58.965 Y163.749 E84.93283
G1 X58.391 Y162.167 E84.98881
G1 X58.206 Y160.619 E85.04066
G1 X58.176 Y158.58 E85.10849
G1 X58.382 Y157.796 E85.13545
G1 X58.382 Y107.75 E86.79998
G1 X58.278 Y107.552 E86.80742
G1 X57.704 Y105.972 E86.86333
G1 X57.704 Y94.906 E87.23139
G1 X58.158 Y93.463 E87.2817
G1 X58.382 Y92.978 E87.29947
G1 X58.382 Y77.225 E87.82342
G1 X58.178 Y76.319 E87.85431
G1 X58.227 Y74.074 E87.92899
G1 X58.426 Y72.571 E87.97942
G1 X59.411 Y70.402 E88.05865
G1 X60.039 Y69.515 E88.0948
G1 X61.151 Y68.488 E88.14515
G0 F6000 X61.382 Y68.815
G1 F1200 X62.832 Y67.79 E88.20421
G1 X64.753 Y67.069 E88.27245
G1 X66.256 Y66.939 E88.32263
G1 X68.439 Y66.933 E88.39523
G1 X69.186 Y67.129 E88.42092
G1 X114.177 Y67.127 E89.91733
G1 X114.294 Y67.093 E89.92138
G1 X115.084 Y66.923 E89.94826
G1 X117.135 Y66.965 E90.01649
G1 X118.635 Y67.161 E90.0668
G1 X118.932 Y67.277 E90.07741
G1 X120.519 Y66.836 E90.13219
G1 X172.581 Y66.831 E91.86378
G1 X174.775 Y67.088 E91.93725
G1 X176.801 Y68.125 E92.01295
G1 X178.082 Y69.259 E92.06985
G1 X179.268 Y70.898 E92.13714
G1 X180.022 Y73.187 E92.2173
G1 X180.018 Y161.628 E95.15886
G1 X179.429 Y163.789 E95.23335
G1 X178.07 Y165.83 E95.31491
G1 X175.967 Y167.442 E95.40304
G1 X173.523 Y168.168 E95.48784
G1 X120.422 Y168.169 E97.25399
G1 X118.901 Y167.695 E97.30697
G1 X118.429 Y167.87 E97.32372
G1 X116.914 Y168.051 E97.37446
G1 X114.972 Y168.077 E97.43906
G1 X114.194 Y167.872 E97.46582
G1 X69.117 Y167.872 E98.96509
G1 X68.554 Y168.072 E98.98496
G1 X65.572 Y168.012 E99.08416
G1 X64.609 Y167.87 E99.11654
G1 X62.914 Y167.247 E99.1766
G1 X61.614 Y166.414 E99.22795
G1 X60.334 Y165.191 E99.28684
G1 X59.327 Y163.573 E99.35022
G1 X58.782 Y162.073 E99.4033
G1 X58.606 Y160.613 E99.45222
G1 X58.577 Y158.629 E99.51821
G1 X58.782 Y157.848 E99.54507
G1 X58.782 Y107.645 E101.21483
G1 X58.654 Y107.415 E101.22358
G1 X58.104 Y105.901 E101.27716
G1 X58.104 Y94.969 E101.64076
G1 X58.54 Y93.583 E101.68908
G1 X58.782 Y93.067 E101.70804
G1 X58.782 Y77.181 E102.23641
G1 X58.579 Y76.28 E102.26713
G1 X58.624 Y74.127 E102.33875
G1 X58.816 Y72.68 E102.3873
G1 X59.758 Y70.605 E102.46309
G1 X60.343 Y69.778 E102.49679
G1 X61.382 Y68.815 E102.5439
G0 F6000 X61.613 Y69.142
G1 F1200 X63.02 Y68.147 E102.60122
G1 X64.843 Y67.463 E102.66598
G1 X66.29 Y67.338 E102.71429
G1 X68.387 Y67.333 E102.78403
G1 X69.133 Y67.529 E102.80969
G1 X114.234 Y67.527 E104.30975
G1 X114.378 Y67.484 E104.31475
G1 X115.122 Y67.324 E104.34006
G1 X117.083 Y67.362 E104.4053
G1 X118.583 Y67.558 E104.45561
G1 X118.899 Y67.701 E104.46715
G1 X120.572 Y67.236 E104.5249
G1 X172.581 Y67.231 E106.25473
G1 X174.657 Y67.477 E106.32426
G1 X176.575 Y68.458 E106.39591
G1 X177.782 Y69.527 E106.44954
G1 X178.908 Y71.083 E106.51342
G1 X179.622 Y73.251 E106.58934
G1 X179.618 Y161.574 E109.52697
G1 X179.06 Y163.621 E109.59754
G1 X177.774 Y165.553 E109.67473
G1 X175.781 Y167.08 E109.75824
G1 X173.466 Y167.768 E109.83857
G1 X120.483 Y167.769 E111.60079
G1 X118.89 Y167.273 E111.65628
G1 X118.334 Y167.479 E111.676
G1 X116.909 Y167.651 E111.72374
G1 X115.022 Y167.676 E111.78651
G1 X114.247 Y167.472 E111.81316
G1 X69.048 Y167.472 E113.31649
G1 X68.489 Y167.671 E113.33622
G1 X65.631 Y167.616 E113.4313
G1 X64.705 Y167.479 E113.46243
G1 X63.096 Y166.888 E113.51945
G1 X61.86 Y166.096 E113.56827
G1 X60.648 Y164.938 E113.62402
G1 X59.689 Y163.397 E113.68439
G1 X59.174 Y161.979 E113.73457
G1 X59.006 Y160.607 E113.78054
G1 X58.978 Y158.677 E113.84474
G1 X59.182 Y157.899 E113.87149
G1 X59.182 Y107.537 E115.54654
G1 X59.03 Y107.278 E115.55653
G1 X58.504 Y105.83 E115.60777
G1 X58.504 Y95.031 E115.96694
G1 X58.902 Y93.753 E116.01146
G1 X59.182 Y93.156 E116.0334
G1 X59.182 Y77.123 E116.56666
G1 X59.152 Y77.025 E116.57006
G1 X58.98 Y76.239 E116.59683
G1 X59.021 Y74.179 E116.66535
G1 X59.205 Y72.789 E116.71199
G1 X60.105 Y70.808 E116.78436
G1 X60.645 Y70.044 E116.81548
G1 X61.613 Y69.142 E116.85948
G0 F6000 X61.886 Y69.435
G1 F1200 X63.207 Y68.504 E116.91324
G1 X64.935 Y67.856 E116.97462
G1 X66.291 Y67.738 E117.01989
G1 X68.335 Y67.733 E117.08787
G1 X69.08 Y67.929 E117.11349
G1 X114.297 Y67.927 E118.61742
G1 X114.462 Y67.875 E118.62317
G1 X115.16 Y67.725 E118.64692
G1 X117.031 Y67.759 E118.70916
G1 X118.475 Y67.948 E118.75759
G1 X118.866 Y68.125 E118.77187
G1 X120.625 Y67.636 E118.83259
G1 X172.581 Y67.631 E120.56066
G1 X174.539 Y67.866 E120.62625
G1 X176.349 Y68.791 E120.69385
G1 X177.482 Y69.795 E120.7442
G1 X178.548 Y71.268 E120.80468
G1 X179.222 Y73.315 E120.87636
G1 X179.218 Y161.52 E123.81007
G1 X178.691 Y163.453 E123.87671
G1 X177.476 Y165.278 E123.94963
G1 X175.597 Y166.718 E124.02837
G1 X173.409 Y167.368 E124.10428
G1 X120.544 Y167.369 E125.86258
G1 X118.879 Y166.85 E125.92059
G1 X118.24 Y167.087 E125.94325
G1 X116.904 Y167.251 E125.98802
G1 X115.072 Y167.275 E126.04896
G1 X114.299 Y167.072 E126.07554
G1 X68.979 Y167.072 E127.58289
G1 X68.423 Y167.27 E127.60252
G1 X65.69 Y167.22 E127.69344
G1 X64.805 Y167.089 E127.72319
G1 X63.274 Y166.527 E127.77744
G1 X62.106 Y165.778 E127.82359
G1 X60.962 Y164.685 E127.87621
G1 X60.05 Y163.22 E127.93361
G1 X59.566 Y161.886 E127.98081
G1 X59.406 Y160.601 E128.02388
G1 X59.379 Y158.725 E128.08628
G1 X59.582 Y157.95 E128.11292
G1 X59.582 Y107.421 E129.79353
G1 X59.406 Y107.141 E129.80453
G1 X58.904 Y105.759 E129.85343
G1 X58.904 Y95.091 E130.20825
G1 X59.264 Y93.923 E130.2489
G1 X59.582 Y93.245 E130.27381
G1 X59.582 Y77.058 E130.81219
G1 X59.543 Y76.94 E130.81632
G1 X59.381 Y76.199 E130.84155
G1 X59.418 Y74.232 E130.90698
G1 X59.595 Y72.898 E130.95174
G1 X60.453 Y71.007 E131.02081
G1 X60.945 Y70.312 E131.04913
G1 X61.886 Y69.435 E131.09191
G0 F6000 X62.159 Y69.728
G1 F1200 X63.394 Y68.861 E131.1421
G1 X65.023 Y68.25 E131.19997
G1 X66.326 Y68.137 E131.24347
G1 X68.283 Y68.133 E131.30856
G1 X69.027 Y68.329 E131.33415
G1 X114.361 Y68.327 E132.84196
G1 X114.546 Y68.266 E132.84844
G1 X115.198 Y68.126 E132.87062
G1 X116.979 Y68.156 E132.92987
G1 X118.367 Y68.338 E132.97643
G1 X118.833 Y68.549 E132.99344
G1 X120.678 Y68.036 E133.05713
G1 X172.581 Y68.031 E134.78344
G1 X174.421 Y68.255 E134.84509
G1 X176.123 Y69.124 E134.90865
G1 X177.182 Y70.063 E134.95572
G1 X178.188 Y71.453 E135.01279
G1 X178.822 Y73.379 E135.08023
