;FLAVOR:Marlin
;TIME:22046
;Filament used: 24.4622m
;Layer height: 0.32
;MINX:20.471
;MINY:66.657
;MINZ:0.28
;MAXX:211.082
;MAXY:162.254
;MAXZ:33.88
;Generated with Cura_SteamEngine 5.4.0
M140 S50
M105
M190 S50
M104 S200
M105
M109 S200
M82 ;absolute extrusion mode
; Ender 3 Custom Start G-code
G92 E0 ; Reset Extruder
G28 ; Home all axes
G1 Z2.0 F3000 ; Move Z Axis up little to prevent scratching of Heat Bed
G1 X0.1 Y20 Z0.3 F5000.0 ; Move to start position
G1 X0.1 Y200.0 Z0.3 F1500.0 E15 ; Draw the first line
G1 X0.4 Y200.0 Z0.3 F5000.0 ; Move to side a little
G1 X0.4 Y20 Z0.3 F1500.0 E30 ; Draw the second line
G92 E0 ; Reset Extruder
G1 Z2.0 F3000 ; Move Z Axis up little to prevent scratching of Heat Bed
G1 X5 Y20 Z0.3 F5000.0 ; Move over to prevent blob squish
G92 E0
G92 E0
G1 F2700 E-5
;LAYER_COUNT:106
;LAYER:0
M107
G0 F6000 X25.574 Y67.01 Z0.28
;TYPE:SKIRT
G1 F2700 E0
G1 F1200 X27.292 Y66.728 E0.08107
G1 X177.309 Y66.657 E7.06649
G1 X181.966 Y66.696 E7.28335
G1 X183.861 Y66.73 E7.3716
G1 X187.104 Y66.827 E7.52267
G1 X188.986 Y66.905 E7.61038
G1 X190.796 Y66.996 E7.69477
G1 X193.925 Y67.189 E7.84075
G1 X195.958 Y67.355 E7.93573
G1 X197.325 Y67.493 E7.9997
G1 X198.585 Y67.635 E8.05875
G1 X199.933 Y67.818 E8.12209
G1 X201.614 Y68.125 E8.20166
G1 X202.324 Y68.29 E8.2356
G1 X204.77 Y69.062 E8.35504
G1 X206.672 Y70.445 E8.46454
G1 X208.002 Y71.878 E8.55558
G1 X208.577 Y73.012 E8.61478
G1 X209.345 Y75.077 E8.71737
G1 X209.343 Y86.02 E9.22692
G1 X209.501 Y86.37 E9.2448
G1 X209.909 Y87.223 E9.28883
G1 X210.698 Y89.519 E9.40188
G1 X210.854 Y90.227 E9.43564
G1 X211.082 Y92.529 E9.54335
G1 X211.082 Y99.361 E9.86148
G1 X210.616 Y101.257 E9.95239
G1 X209.595 Y103.226 E10.05567
G1 X209.346 Y103.49 E10.07257
G1 X209.345 Y125.608 E11.10248
G1 X209.552 Y125.847 E11.1172
G1 X210.487 Y127.473 E11.20454
G1 X210.815 Y128.268 E11.24458
G1 X211.082 Y130.529 E11.3506
G1 X211.045 Y137.225 E11.66239
G1 X210.968 Y138.021 E11.69963
G1 X210.442 Y140.374 E11.8119
G1 X209.84 Y141.986 E11.89203
G1 X209.341 Y142.969 E11.94336
G1 X209.345 Y153.517 E12.43452
G1 X208.769 Y155.463 E12.52902
G1 X207.886 Y157.11 E12.61604
G1 X206.055 Y159.02 E12.73924
G1 X205.811 Y159.194 E12.75319
G1 X203.537 Y160.237 E12.86969
G1 X202.424 Y160.583 E12.92396
G1 X201.198 Y160.86 E12.98249
G1 X199.539 Y161.151 E13.06092
G1 X198.369 Y161.299 E13.11583
G1 X195.888 Y161.55 E13.23195
G1 X194.836 Y161.647 E13.28114
G1 X190.677 Y161.928 E13.47524
G1 X188.894 Y162.01 E13.55835
G1 X187.037 Y162.079 E13.64488
G1 X183.774 Y162.176 E13.79689
G1 X182.465 Y162.2 E13.85785
G1 X176.794 Y162.253 E14.12193
G1 X27.418 Y162.254 E21.0775
G1 X25.522 Y161.788 E21.16841
G1 X23.494 Y160.735 E21.27482
G1 X22.035 Y159.174 E21.37431
G1 X20.828 Y157.151 E21.484
G1 X20.546 Y155.433 E21.56507
G1 X20.471 Y73.6 E25.37556
G1 X20.937 Y71.704 E25.46647
G1 X21.99 Y69.676 E25.57287
G1 X23.551 Y68.217 E25.67237
G1 X25.574 Y67.01 E25.78206
G0 F6000 X25.714 Y67.393
G1 F1200 X27.357 Y67.123 E25.85959
G1 X177.306 Y67.057 E32.84184
G1 X181.959 Y67.096 E33.05851
G1 X183.849 Y67.13 E33.14653
G1 X187.088 Y67.227 E33.29742
G1 X188.966 Y67.304 E33.38494
G1 X190.771 Y67.395 E33.4691
G1 X193.893 Y67.588 E33.61475
G1 X195.918 Y67.753 E33.70936
G1 X197.28 Y67.89 E33.7731
G1 X198.531 Y68.031 E33.83172
G1 X199.861 Y68.212 E33.89422
G1 X201.523 Y68.515 E33.97288
G1 X202.233 Y68.68 E34.00683
G1 X204.588 Y69.423 E34.12181
G1 X206.404 Y70.744 E34.22638
G1 X207.671 Y72.109 E34.3131
G1 X208.202 Y73.151 E34.36756
G1 X208.945 Y75.149 E34.46682
G1 X208.943 Y86.106 E34.97702
G1 X209.14 Y86.543 E34.99934
G1 X209.548 Y87.396 E35.04337
G1 X210.307 Y89.605 E35.15213
G1 X210.463 Y90.313 E35.18589
G1 X210.682 Y92.529 E35.28958
G1 X210.682 Y99.315 E35.60556
G1 X210.24 Y101.114 E35.69182
G1 X209.24 Y103.042 E35.79296
G1 X208.946 Y103.317 E35.8117
G1 X208.945 Y125.765 E36.85698
G1 X209.206 Y126.047 E36.87487
G1 X210.117 Y127.626 E36.95975
G1 X210.425 Y128.372 E36.99733
G1 X210.682 Y130.527 E37.09839
G1 X210.647 Y137.186 E37.40846
G1 X210.57 Y137.982 E37.4457
G1 X210.067 Y140.235 E37.55319
G1 X209.483 Y141.805 E37.63119
G1 X209.083 Y142.593 E37.67234
G1 X208.941 Y142.899 E37.68805
G1 X208.945 Y153.458 E38.17972
G1 X208.396 Y155.314 E38.26985
G1 X207.561 Y156.87 E38.35207
G1 X205.766 Y158.743 E38.47287
G1 X205.644 Y158.83 E38.47985
G1 X203.37 Y159.873 E38.59635
G1 X202.336 Y160.193 E38.64675
G1 X201.129 Y160.466 E38.70437
G1 X199.489 Y160.754 E38.7819
G1 X198.329 Y160.901 E38.83635
G1 X195.851 Y161.152 E38.95232
G1 X194.809 Y161.248 E39.00105
G1 X190.659 Y161.528 E39.19473
G1 X188.879 Y161.61 E39.2777
G1 X187.025 Y161.679 E39.36409
G1 X183.767 Y161.776 E39.51587
G1 X182.461 Y161.8 E39.57669
G1 X176.794 Y161.853 E39.84058
G1 X27.464 Y161.854 E46.79401
G1 X25.665 Y161.412 E46.88027
G1 X23.739 Y160.412 E46.98132
G1 X22.359 Y158.935 E47.07544
G1 X21.211 Y157.011 E47.17977
G1 X20.941 Y155.368 E47.2573
G1 X20.871 Y73.646 E51.06262
G1 X21.313 Y71.847 E51.14888
G1 X22.313 Y69.921 E51.24993
G1 X23.79 Y68.541 E51.34406
G1 X25.714 Y67.393 E51.44838
G0 F6000 X25.852 Y67.776
G1 F1200 X27.422 Y67.518 E51.52247
G1 X177.303 Y67.457 E58.50155
G1 X181.952 Y67.496 E58.71804
G1 X183.837 Y67.53 E58.80583
G1 X187.072 Y67.627 E58.95653
G1 X188.946 Y67.704 E59.04386
G1 X190.746 Y67.794 E59.12779
G1 X193.861 Y67.987 E59.27311
G1 X195.878 Y68.151 E59.36734
G1 X197.235 Y68.287 E59.43084
G1 X198.477 Y68.427 E59.48904
G1 X199.789 Y68.605 E59.5507
G1 X201.432 Y68.905 E59.62847
G1 X202.142 Y69.07 E59.66241
G1 X204.403 Y69.784 E59.77281
G1 X206.139 Y71.046 E59.87275
G1 X207.34 Y72.34 E59.95496
G1 X207.827 Y73.29 E60.00467
G1 X208.545 Y75.221 E60.1006
G1 X208.543 Y86.192 E60.61145
G1 X208.779 Y86.716 E60.63821
G1 X209.187 Y87.569 E60.68224
G1 X209.916 Y89.691 E60.78672
G1 X210.072 Y90.399 E60.82048
G1 X210.282 Y92.529 E60.92014
G1 X210.282 Y99.268 E61.23394
G1 X209.863 Y100.972 E61.31565
G1 X208.918 Y102.795 E61.41126
G1 X208.546 Y103.142 E61.43495
G1 X208.545 Y125.921 E62.49563
G1 X208.883 Y126.286 E62.5188
G1 X209.747 Y127.778 E62.59908
G1 X210.034 Y128.474 E62.63414
G1 X210.282 Y130.525 E62.73033
G1 X210.249 Y137.147 E63.03869
G1 X210.172 Y137.943 E63.07592
G1 X209.692 Y140.096 E63.17864
G1 X209.126 Y141.624 E63.25451
G1 X208.726 Y142.412 E63.29566
G1 X208.541 Y142.81 E63.3161
G1 X208.545 Y153.399 E63.80917
G1 X208.024 Y155.16 E63.89468
G1 X207.234 Y156.633 E63.97251
G1 X205.477 Y158.466 E64.09074
G1 X203.203 Y159.509 E64.20723
G1 X202.248 Y159.803 E64.25376
G1 X201.06 Y160.072 E64.31048
G1 X199.439 Y160.357 E64.38712
G1 X198.289 Y160.503 E64.4411
G1 X195.814 Y160.754 E64.55694
G1 X194.782 Y160.849 E64.60519
G1 X190.641 Y161.128 E64.79845
G1 X188.864 Y161.21 E64.88129
G1 X187.013 Y161.279 E64.96754
G1 X183.76 Y161.376 E65.11908
G1 X182.457 Y161.4 E65.17976
G1 X176.794 Y161.453 E65.44346
G1 X27.511 Y161.454 E72.39471
G1 X25.807 Y161.035 E72.47642
G1 X23.984 Y160.089 E72.57205
G1 X22.68 Y158.693 E72.661
G1 X21.594 Y156.873 E72.75969
G1 X21.336 Y155.303 E72.83378
G1 X21.271 Y73.693 E76.63388
G1 X21.69 Y71.989 E76.71559
G1 X22.636 Y70.166 E76.81122
G1 X24.032 Y68.862 E76.90018
G1 X25.852 Y67.776 E76.99886
G0 F6000 X25.99 Y68.159
G1 F1200 X27.487 Y67.913 E77.0695
G1 X177.3 Y67.857 E84.04543
G1 X181.945 Y67.896 E84.26172
G1 X183.825 Y67.93 E84.34928
G1 X187.056 Y68.027 E84.4998
G1 X188.926 Y68.103 E84.58694
G1 X190.721 Y68.193 E84.67063
G1 X193.829 Y68.386 E84.81563
G1 X195.838 Y68.549 E84.90949
G1 X197.19 Y68.684 E84.97275
G1 X198.423 Y68.823 E85.03053
G1 X199.717 Y68.999 E85.09134
G1 X201.341 Y69.295 E85.16821
G1 X202.051 Y69.46 E85.20215
G1 X204.221 Y70.145 E85.30811
G1 X205.871 Y71.345 E85.40311
G1 X207.008 Y72.57 E85.48093
G1 X207.471 Y73.473 E85.52818
G1 X208.145 Y75.293 E85.61856
G1 X208.143 Y86.293 E86.13076
G1 X208.21 Y86.418 E86.13737
G1 X208.418 Y86.889 E86.16134
G1 X208.826 Y87.742 E86.20537
G1 X209.525 Y89.777 E86.30556
G1 X209.681 Y90.485 E86.33932
G1 X209.882 Y92.529 E86.43496
G1 X209.882 Y99.222 E86.74661
G1 X209.487 Y100.829 E86.82367
G1 X208.595 Y102.55 E86.91393
G1 X208.146 Y102.969 E86.94253
G1 X208.145 Y126.078 E88.01858
G1 X208.56 Y126.527 E88.04705
G1 X209.377 Y127.931 E88.12269
G1 X209.644 Y128.578 E88.15528
G1 X209.882 Y130.523 E88.24652
G1 X209.851 Y137.108 E88.55315
G1 X209.774 Y137.904 E88.59039
G1 X209.317 Y139.958 E88.68837
G1 X208.769 Y141.443 E88.76208
G1 X208.369 Y142.231 E88.80322
G1 X208.141 Y142.721 E88.82839
G1 X208.145 Y153.339 E89.32281
G1 X207.651 Y155.008 E89.40386
G1 X206.907 Y156.396 E89.47719
G1 X205.239 Y158.135 E89.58939
G1 X203.085 Y159.127 E89.69981
G1 X202.159 Y159.413 E89.74494
G1 X200.991 Y159.678 E89.80071
G1 X199.388 Y159.96 E89.8765
G1 X198.249 Y160.105 E89.92997
G1 X195.777 Y160.356 E90.04566
G1 X194.755 Y160.45 E90.09345
G1 X190.623 Y160.728 E90.28629
G1 X188.849 Y160.81 E90.36898
G1 X187.001 Y160.879 E90.4551
G1 X183.753 Y160.976 E90.6064
G1 X182.453 Y161 E90.66695
G1 X176.794 Y161.053 E90.93047
G1 X27.557 Y161.054 E97.87957
G1 X25.95 Y160.659 E97.95662
G1 X24.229 Y159.766 E98.0469
G1 X23.001 Y158.451 E98.13068
G1 X21.977 Y156.735 E98.22373
G1 X21.731 Y155.238 E98.29437
G1 X21.671 Y73.739 E102.08931
G1 X22.066 Y72.132 E102.16637
G1 X22.959 Y70.411 E102.25665
G1 X24.274 Y69.183 E102.34043
G1 X25.99 Y68.159 E102.43348
G0 F6000 X26.128 Y68.542
G1 F1200 X27.552 Y68.308 E102.50067
G1 X177.297 Y68.257 E109.47343
G1 X181.938 Y68.296 E109.68954
G1 X183.813 Y68.33 E109.77686
G1 X187.04 Y68.427 E109.92719
G1 X188.906 Y68.502 E110.01415
G1 X190.696 Y68.592 E110.09761
G1 X193.797 Y68.785 E110.24228
G1 X195.798 Y68.947 E110.33576
G1 X197.145 Y69.081 E110.39879
G1 X198.369 Y69.219 E110.45615
G1 X199.645 Y69.392 E110.51611
G1 X201.25 Y69.685 E110.59208
G1 X201.96 Y69.85 E110.62602
G1 X204.039 Y70.506 E110.72753
G1 X205.603 Y71.644 E110.8176
G1 X206.676 Y72.8 E110.89104
G1 X207.115 Y73.656 E110.93584
G1 X207.745 Y75.363 E111.02056
G1 X207.743 Y86.395 E111.53426
G1 X207.844 Y86.58 E111.54407
G1 X208.057 Y87.062 E111.56861
G1 X208.465 Y87.915 E111.61264
G1 X209.134 Y89.863 E111.70855
G1 X209.29 Y90.571 E111.7423
G1 X209.482 Y92.529 E111.83391
G1 X209.482 Y99.176 E112.14343
G1 X209.111 Y100.686 E112.21583
G1 X208.272 Y102.305 E112.30074
G1 X207.746 Y102.796 E112.33424
G1 X207.745 Y126.235 E113.42566
G1 X208.237 Y126.766 E113.45937
G1 X209.007 Y128.084 E113.53045
G1 X209.254 Y128.682 E113.56057
G1 X209.482 Y130.521 E113.64686
G1 X209.453 Y137.069 E113.95177
G1 X209.376 Y137.865 E113.98901
G1 X208.941 Y139.82 E114.08226
G1 X208.412 Y141.262 E114.15379
G1 X208.012 Y142.05 E114.19493
G1 X207.741 Y142.632 E114.22483
G1 X207.745 Y153.28 E114.72064
G1 X207.278 Y154.859 E114.79732
G1 X206.582 Y156.156 E114.86586
G1 X205.002 Y157.804 E114.97217
G1 X202.967 Y158.745 E115.07656
G1 X202.07 Y159.023 E115.12029
G1 X200.922 Y159.284 E115.17511
G1 X199.337 Y159.563 E115.25005
G1 X198.209 Y159.707 E115.303
G1 X195.74 Y159.958 E115.41856
G1 X194.728 Y160.051 E115.46588
G1 X190.604 Y160.328 E115.65835
G1 X188.834 Y160.41 E115.74085
G1 X186.989 Y160.479 E115.82682
G1 X183.746 Y160.576 E115.9779
G1 X182.449 Y160.6 E116.0383
G1 X176.794 Y160.653 E116.30164
G1 X27.603 Y160.654 E123.24859
G1 X26.093 Y160.283 E123.321
G1 X24.474 Y159.443 E123.40593
G1 X23.322 Y158.209 E123.48453
G1 X22.36 Y156.597 E123.57195
G1 X22.126 Y155.173 E123.63914
G1 X22.071 Y73.785 E127.42891
G1 X22.442 Y72.275 E127.50131
G1 X23.282 Y70.656 E127.58624
G1 X24.516 Y69.504 E127.66485
G1 X26.128 Y68.542 E127.75226
G0 F6000 X26.266 Y68.925
G1 F1200 X27.617 Y68.703 E127.81601
G1 X177.294 Y68.657 E134.7856
G1 X181.931 Y68.696 E135.00153
G1 X183.801 Y68.73 E135.08862
G1 X187.024 Y68.827 E135.23876
G1 X188.886 Y68.901 E135.32553
G1 X190.671 Y68.991 E135.40876
G1 X193.765 Y69.184 E135.55311
G1 X195.759 Y69.345 E135.64626
G1 X197.1 Y69.478 E135.70901
G1 X198.315 Y69.615 E135.76594
G1 X199.573 Y69.786 E135.82506
G1 X201.159 Y70.075 E135.90012
G1 X201.869 Y70.24 E135.93406
G1 X203.854 Y70.867 E136.031
G1 X205.338 Y71.946 E136.11643
G1 X206.344 Y73.03 E136.18529
G1 X206.759 Y73.839 E136.22763
G1 X207.345 Y75.433 E136.30671
G1 X207.343 Y86.499 E136.82199
G1 X207.478 Y86.741 E136.8349
G1 X207.696 Y87.235 E136.86004
G1 X208.104 Y88.088 E136.90407
G1 X208.743 Y89.949 E136.99569
G1 X208.899 Y90.657 E137.02945
G1 X209.082 Y92.529 E137.11703
G1 X209.082 Y99.129 E137.42435
G1 X208.734 Y100.544 E137.49221
G1 X207.95 Y102.058 E137.5716
G1 X207.346 Y102.621 E137.61004
G1 X207.345 Y126.392 E138.71692
G1 X207.914 Y127.007 E138.75594
G1 X208.637 Y128.237 E138.82237
G1 X208.864 Y128.786 E138.85003
G1 X209.082 Y130.519 E138.93137
G1 X209.055 Y137.03 E139.23455
G1 X208.978 Y137.826 E139.27179
G1 X208.565 Y139.682 E139.36032
G1 X208.036 Y141.124 E139.43184
G1 X207.649 Y141.881 E139.47143
G1 X207.341 Y142.543 E139.50543
G1 X207.345 Y153.221 E140.00264
G1 X206.906 Y154.705 E140.0747
G1 X206.255 Y155.919 E140.13885
G1 X204.766 Y157.472 E140.23903
G1 X202.848 Y158.363 E140.33751
G1 X201.981 Y158.633 E140.37979
G1 X200.853 Y158.89 E140.43366
G1 X199.286 Y159.166 E140.50775
G1 X198.168 Y159.309 E140.56023
G1 X195.703 Y159.56 E140.67561
G1 X194.701 Y159.652 E140.72246
G1 X190.585 Y159.928 E140.91455
G1 X188.819 Y160.01 E140.99687
G1 X186.977 Y160.079 E141.0827
G1 X183.739 Y160.176 E141.23354
G1 X182.445 Y160.2 E141.29381
G1 X176.794 Y160.253 E141.55695
G1 X27.65 Y160.254 E148.50172
G1 X26.235 Y159.906 E148.56958
G1 X24.719 Y159.12 E148.64909
G1 X23.643 Y157.967 E148.72253
G1 X22.743 Y156.459 E148.8043
G1 X22.521 Y155.108 E148.86805
G1 X22.471 Y73.832 E152.6526
G1 X22.819 Y72.417 E152.72046
G1 X23.605 Y70.901 E152.79997
G1 X24.758 Y69.825 E152.87341
G1 X26.266 Y68.925 E152.95518
G0 F6000 X26.404 Y69.308
G1 F1200 X27.682 Y69.098 E153.01549
G1 X177.291 Y69.057 E159.98191
G1 X181.924 Y69.096 E160.19765
G1 X183.789 Y69.13 E160.2845
G1 X187.008 Y69.227 E160.43446
G1 X188.866 Y69.301 E160.52105
G1 X190.646 Y69.39 E160.60404
G1 X193.733 Y69.583 E160.74806
G1 X195.72 Y69.743 E160.84088
G1 X197.055 Y69.875 E160.90335
G1 X198.261 Y70.011 E160.95986
G1 X199.501 Y70.179 E161.01813
G1 X201.068 Y70.465 E161.0923
G1 X201.778 Y70.63 E161.12624
G1 X203.672 Y71.228 E161.21873
G1 X205.07 Y72.245 E161.29922
G1 X206.012 Y73.26 E161.36371
G1 X206.403 Y74.022 E161.40359
G1 X206.945 Y75.505 E161.47711
G1 X206.943 Y86.606 E161.99402
G1 X207.112 Y86.903 E162.00993
G1 X207.335 Y87.408 E162.03563
G1 X207.743 Y88.261 E162.07966
G1 X208.352 Y90.035 E162.167
G1 X208.508 Y90.743 E162.20076
G1 X208.682 Y92.529 E162.28432
G1 X208.682 Y99.083 E162.5895
G1 X208.358 Y100.401 E162.6527
G1 X207.628 Y101.811 E162.72663
G1 X206.946 Y102.446 E162.77002
G1 X206.945 Y126.549 E163.89236
G1 X207.59 Y127.245 E163.93654
G1 X208.292 Y128.44 E164.00108
G1 X208.474 Y128.889 E164.02364
G1 X208.682 Y130.517 E164.10006
G1 X208.657 Y136.991 E164.40152
G1 X208.58 Y137.787 E164.43876
G1 X208.189 Y139.544 E164.52257
G1 X207.66 Y140.986 E164.59409
G1 X207.293 Y141.698 E164.63139
G1 X206.941 Y142.453 E164.67018
G1 X206.945 Y153.162 E165.16884
G1 X206.534 Y154.551 E165.23629
G1 X205.928 Y155.682 E165.29603
G1 X204.529 Y157.14 E165.39012
G1 X202.679 Y158 E165.48512
G1 X201.892 Y158.243 E165.52347
G1 X200.784 Y158.496 E165.57639
G1 X199.235 Y158.769 E165.64963
G1 X198.127 Y158.911 E165.70165
G1 X195.666 Y159.162 E165.81684
G1 X194.674 Y159.253 E165.86322
G1 X190.566 Y159.528 E166.05494
G1 X188.804 Y159.61 E166.13707
G1 X186.965 Y159.679 E166.22276
G1 X183.732 Y159.776 E166.37337
G1 X182.441 Y159.8 E166.4335
G1 X176.794 Y159.853 E166.69646
G1 X27.696 Y159.854 E173.63908
G1 X26.378 Y159.53 E173.70228
G1 X24.964 Y158.797 E173.77645
G1 X23.964 Y157.725 E173.84471
G1 X23.126 Y156.321 E173.92085
G1 X22.916 Y155.043 E173.98115
G1 X22.871 Y73.878 E177.76054
G1 X23.195 Y72.56 E177.82373
G1 X23.928 Y71.146 E177.8979
G1 X25 Y70.146 E177.96616
G1 X26.404 Y69.308 E178.0423
G0 F6000 X26.542 Y69.691
G1 F1200 X27.747 Y69.493 E178.09916
G1 X177.288 Y69.457 E185.06241
G1 X181.917 Y69.496 E185.27797
G1 X183.777 Y69.53 E185.36459
G1 X186.992 Y69.627 E185.51436
G1 X188.846 Y69.7 E185.60076
G1 X190.621 Y69.789 E185.68352
G1 X193.701 Y69.982 E185.82721
G1 X195.68 Y70.141 E185.91966
