;FLAVOR:Marlin
;TIME:5820
;Filament used: 9.15475m
;Layer height: 0.32
;MINX:52.838
;MINY:82.937
;MINZ:0.28
;MAXX:181.298
;MAXY:152.062
;MAXZ:5.4
;TARGET_MACHINE.NAME:Creality Ender-3
;Generated with Cura_SteamEngine 5.6.0
M140 S60
M105
M190 S60
M104 S210
M105
M109 S210
M82 ;absolute extrusion mode
; Ender 3 Custom Start G-code
G92 E0 ; Reset Extruder
G28 ; Home all axes
G1 Z2.0 F3000 ; Move Z Axis up little to prevent scratching of Heat Bed
G1 X0.1 Y20 Z0.3 F5000.0 ; Move to start position
G1 X0.1 Y200.0 Z0.3 F1500.0 E15 ; Draw the first line
G1 X0.4 Y200.0 Z0.3 F5000.0 ; Move to side a little
G1 X0.4 Y20 Z0.3 F1500.0 E30 ; Draw the second line
G92 E0 ; Reset Extruder
G1 Z2.0 F3000 ; Move Z Axis up little to prevent scratching of Heat Bed
G1 X5 Y20 Z0.3 F5000.0 ; Move over to prevent blob squish
G92 E0
G92 E0
G1 F2700 E-5
;LAYER_COUNT:17
;LAYER:0
M107
M204 S2000
;MESH:Golf Cart V3 13S Battery Case Cover.stl
G0 F6000 X92.991 Y114.695 Z0.28
M204 S800
;TYPE:WALL-INNER
G1 F2700 E0
G1 F780 X92.762 Y114.748 E0.01095
G1 X90.436 Y114.748 E0.11925
G1 X90.049 Y114.621 E0.13822
G1 X89.8 Y114.419 E0.15315
G1 X89.609 Y114.101 E0.17042
G1 X89.547 Y113.798 E0.18482
G1 X89.551 Y109.151 E0.40121
G1 X89.653 Y108.797 E0.41836
G1 X89.914 Y108.472 E0.43777
G1 X90.172 Y108.319 E0.45174
G1 X90.482 Y108.249 E0.46654
G1 X92.72 Y108.249 E0.57075
G1 X93.038 Y108.323 E0.58595
G1 X93.254 Y108.446 E0.59752
G1 X93.484 Y108.689 E0.6131
G1 X93.577 Y108.862 E0.62225
G1 X93.651 Y109.178 E0.63736
G1 X93.652 Y113.81 E0.85305
G1 X93.619 Y114.015 E0.86272
G1 X93.498 Y114.289 E0.87666
G1 X93.33 Y114.49 E0.88886
G1 X92.991 Y114.695 E0.90731
M204 S2000
G0 F6000 X92.891 Y114.305
M204 S800
G1 F780 X92.683 Y114.353 E0.91725
G1 X90.48 Y114.35 E1.01983
G1 X90.166 Y114.218 E1.03569
G1 X89.993 Y113.986 E1.04917
G1 X89.947 Y113.78 E1.05899
G1 X89.949 Y109.189 E1.27277
G1 X90.024 Y108.951 E1.28439
G1 X90.117 Y108.827 E1.29161
G1 X90.322 Y108.69 E1.30309
G1 X90.467 Y108.648 E1.31012
G1 X92.772 Y108.648 E1.41745
G1 X93.014 Y108.766 E1.42999
G1 X93.134 Y108.886 E1.43789
G1 X93.252 Y109.205 E1.45373
G1 X93.253 Y113.787 E1.66708
G1 X93.185 Y114.033 E1.67897
G1 X93.059 Y114.196 E1.68856
G1 X92.891 Y114.305 E1.69788
M204 S2000
G1 F2700 E-3.30212
G0 F6000 X92.891 Y114.653
G0 X92.782 Y114.928
G0 X95.32 Y144.826
G0 X95.234 Y149.135
M204 S800
G1 F2700 E1.69788
G1 F780 X95.239 Y146.172 E1.83585
G1 X95.277 Y145.739 E1.85609
G1 X95.389 Y145.259 E1.87905
G1 X95.505 Y144.902 E1.89652
G1 X95.653 Y144.554 E1.91413
G1 X95.888 Y144.126 E1.93687
G1 X96.116 Y143.801 E1.95536
G1 X96.382 Y143.487 E1.97452
G1 X96.61 Y143.259 E1.98953
G1 X96.998 Y142.939 E2.01295
G1 X97.407 Y142.681 E2.03547
G1 X97.692 Y142.533 E2.05042
G1 X98.055 Y142.384 E2.06869
G1 X98.615 Y142.226 E2.09579
G1 X98.943 Y142.169 E2.11129
G1 X99.318 Y142.136 E2.12882
G1 X139.228 Y142.132 E3.98719
G1 X139.239 Y137.172 E4.21815
G1 X139.277 Y136.747 E4.23802
G1 X139.389 Y136.259 E4.26134
G1 X139.505 Y135.902 E4.27882
G1 X139.653 Y135.554 E4.29642
G1 X139.888 Y135.126 E4.31916
G1 X140.127 Y134.786 E4.33851
G1 X140.365 Y134.504 E4.35569
G1 X140.609 Y134.26 E4.37176
G1 X140.946 Y133.977 E4.39225
G1 X141.331 Y133.725 E4.41368
G1 X141.733 Y133.515 E4.4348
G1 X142.05 Y133.386 E4.45074
G1 X142.563 Y133.237 E4.47561
G1 X142.948 Y133.168 E4.49382
G1 X143.275 Y133.139 E4.50911
G1 X179.233 Y133.13 E6.18346
G1 X179.231 Y85.87 E8.38409
G1 X55.772 Y85.871 E14.13286
G1 X55.771 Y149.133 E17.0786
G1 X95.234 Y149.135 E18.91616
M204 S2000
G0 F6000 X95.509 Y149.534
M204 S800
G1 F780 X95.634 Y149.4 E18.9247
G1 X95.638 Y146.208 E19.07333
G1 X95.682 Y145.768 E19.09392
G1 X95.771 Y145.379 E19.1125
G1 X95.875 Y145.054 E19.12839
G1 X96.007 Y144.74 E19.14425
G1 X96.196 Y144.384 E19.16302
G1 X96.433 Y144.044 E19.18232
G1 X96.665 Y143.769 E19.19907
G1 X96.861 Y143.572 E19.21201
G1 X97.194 Y143.291 E19.2323
G1 X97.569 Y143.049 E19.25308
G1 X97.862 Y142.896 E19.26847
G1 X98.185 Y142.762 E19.28476
G1 X98.655 Y142.626 E19.30754
G1 X98.994 Y142.565 E19.32358
G1 X99.335 Y142.536 E19.33951
G1 X139.471 Y142.532 E21.20841
G1 X139.583 Y142.488 E21.21402
G1 X139.628 Y142.375 E21.21968
G1 X139.638 Y137.208 E21.46028
G1 X139.682 Y136.768 E21.48087
G1 X139.771 Y136.379 E21.49945
G1 X139.875 Y136.054 E21.51534
G1 X140.007 Y135.74 E21.5312
G1 X140.196 Y135.384 E21.54997
G1 X140.432 Y135.045 E21.5692
G1 X140.646 Y134.789 E21.58474
G1 X140.88 Y134.554 E21.60018
G1 X141.224 Y134.269 E21.62098
G1 X141.569 Y134.049 E21.64003
G1 X141.861 Y133.896 E21.65538
G1 X142.182 Y133.763 E21.67156
G1 X142.654 Y133.626 E21.69445
G1 X142.997 Y133.565 E21.71067
G1 X143.309 Y133.538 E21.72525
G1 X179.489 Y133.53 E23.40995
G1 X179.596 Y133.462 E23.41585
G1 X179.634 Y133.347 E23.42149
G1 X179.63 Y85.626 E25.64358
G1 X179.584 Y85.512 E25.6493
G1 X179.473 Y85.471 E25.65481
G1 X55.526 Y85.471 E31.4263
G1 X55.412 Y85.516 E31.43201
G1 X55.372 Y85.627 E31.43751
G1 X55.37 Y149.411 E34.40756
G1 X55.425 Y149.498 E34.41235
G1 X55.547 Y149.533 E34.41826
G1 X95.509 Y149.534 E36.27906
M204 S2000
G1 F2700 E31.27906
G0 F6000 X95.364 Y149.265
G0 X95.436 Y145.774
G0 X95.778 Y144.665
G0 X96.242 Y143.9
G0 X97.069 Y143.085
G0 X98.105 Y142.537
G0 X98.962 Y142.328
G0 X139.056 Y141.96
G0 X142.274 Y114.932
G0 X141.901 Y114.653
G0 X141.902 Y114.65
M204 S800
G1 F2700 E36.27906
G1 F780 X141.65 Y114.472 E36.29342
G1 X141.427 Y114.147 E36.31178
G1 X141.348 Y113.81 E36.32789
G1 X141.349 Y109.177 E36.54363
G1 X141.423 Y108.862 E36.55869
G1 X141.516 Y108.689 E36.56784
G1 X141.7 Y108.483 E36.5807
G1 X141.962 Y108.323 E36.59499
G1 X142.215 Y108.249 E36.60727
G1 X144.598 Y108.249 E36.71823
G1 X144.885 Y108.344 E36.73231
G1 X145.169 Y108.548 E36.74859
G1 X145.299 Y108.713 E36.75837
G1 X145.413 Y108.965 E36.77125
G1 X145.449 Y109.151 E36.78007
G1 X145.449 Y113.842 E36.99851
G1 X145.332 Y114.229 E37.01733
G1 X145.186 Y114.432 E37.02897
G1 X144.969 Y114.609 E37.04201
G1 X144.63 Y114.749 E37.05909
G1 X142.286 Y114.752 E37.16824
G1 X141.902 Y114.65 E37.18674
M204 S2000
G0 F6000 X142.021 Y114.258
M204 S800
G1 F780 X141.814 Y114.031 E37.20104
G1 X141.747 Y113.787 E37.21283
G1 X141.747 Y109.166 E37.428
G1 X141.804 Y108.99 E37.43661
G1 X141.909 Y108.836 E37.44529
G1 X142.081 Y108.708 E37.45528
G1 X142.307 Y108.648 E37.46616
G1 X144.492 Y108.648 E37.56791
G1 X144.806 Y108.761 E37.58345
G1 X144.976 Y108.951 E37.59532
G1 X145.051 Y109.189 E37.60694
G1 X145.052 Y113.871 E37.82495
G1 X144.942 Y114.1 E37.83678
G1 X144.682 Y114.307 E37.85226
G1 X144.5 Y114.351 E37.86097
G1 X142.244 Y114.353 E37.96602
G1 X142.021 Y114.258 E37.97731
M204 S2000
G0 F6000 X142.204 Y113.894
M204 S800
;TYPE:WALL-OUTER
G1 F780 X142.153 Y113.806 E37.98205
G1 X142.151 Y109.203 E38.19638
G1 X142.217 Y109.094 E38.20231
G1 X142.32 Y109.048 E38.20757
G1 X144.492 Y109.05 E38.30871
G1 X144.589 Y109.099 E38.31377
G1 X144.653 Y109.196 E38.31918
G1 X144.651 Y113.779 E38.53258
G1 X144.616 Y113.868 E38.53703
G1 X144.484 Y113.95 E38.54427
G1 X142.334 Y113.953 E38.64438
G1 X142.204 Y113.894 E38.65103
M204 S2000
G1 F2700 E33.65103
G0 F6000 X141.447 Y113.894
G0 X141.167 Y113.819
G0 X93.813 Y111.226
G0 X93.481 Y114.581
G0 X92.766 Y114.653
G0 X92.766 Y113.919
M204 S800
G1 F2700 E38.65103
G1 F780 X92.7 Y113.948 E38.65439
G1 X90.515 Y113.954 E38.75613
G1 X90.408 Y113.898 E38.76175
G1 X90.347 Y113.771 E38.76831
G1 X90.347 Y109.192 E38.98153
G1 X90.411 Y109.099 E38.98679
G1 X90.521 Y109.048 E38.99243
G1 X92.693 Y109.05 E39.09357
G1 X92.814 Y109.126 E39.10022
G1 X92.849 Y109.203 E39.10416
G1 X92.85 Y113.793 E39.31789
G1 X92.766 Y113.919 E39.32494
M204 S2000
G1 F2700 E34.32494
G0 F6000 X92.766 Y114.653
G0 X92.782 Y114.928
G0 X95.32 Y144.826
G0 X95.364 Y149.265
G0 X95.583 Y149.934
M204 S800
G1 F2700 E39.32494
G1 F780 X95.867 Y149.783 E39.33992
G1 X96.002 Y149.567 E39.35178
G1 X96.034 Y149.381 E39.36057
G1 X96.036 Y146.243 E39.50669
G1 X96.072 Y145.855 E39.52483
G1 X96.148 Y145.515 E39.54106
G1 X96.245 Y145.206 E39.55614
G1 X96.352 Y144.945 E39.56927
G1 X96.537 Y144.594 E39.58775
G1 X96.756 Y144.281 E39.60553
G1 X96.949 Y144.051 E39.61952
G1 X97.158 Y143.842 E39.63328
G1 X97.457 Y143.595 E39.65134
G1 X97.778 Y143.39 E39.66907
G1 X98.031 Y143.258 E39.68236
G1 X98.316 Y143.14 E39.69672
G1 X98.756 Y143.014 E39.71804
G1 X99.053 Y142.961 E39.73208
G1 X99.36 Y142.936 E39.74643
G1 X139.546 Y142.932 E41.61765
G1 X139.81 Y142.83 E41.63083
G1 X139.922 Y142.719 E41.63818
G1 X140.029 Y142.451 E41.65161
G1 X140.036 Y137.243 E41.89412
G1 X140.072 Y136.855 E41.91226
G1 X140.148 Y136.515 E41.92849
G1 X140.245 Y136.206 E41.94357
G1 X140.352 Y135.945 E41.9567
G1 X140.537 Y135.594 E41.97518
G1 X140.756 Y135.281 E41.99296
G1 X140.949 Y135.051 E42.00695
G1 X141.158 Y134.842 E42.02071
G1 X141.457 Y134.595 E42.03877
G1 X141.778 Y134.39 E42.0565
G1 X142.031 Y134.258 E42.06979
G1 X142.326 Y134.137 E42.08464
G1 X142.756 Y134.014 E42.10546
G1 X143.053 Y133.961 E42.11951
G1 X143.343 Y133.936 E42.13306
G1 X179.549 Y133.93 E43.81897
G1 X179.748 Y133.868 E43.82867
G1 X179.945 Y133.684 E43.84123
G1 X180.034 Y133.41 E43.85464
G1 X180.03 Y85.55 E46.0832
G1 X179.923 Y85.282 E46.09664
G1 X179.803 Y85.167 E46.10438
G1 X179.545 Y85.071 E46.1172
G1 X55.45 Y85.071 E51.89558
G1 X55.182 Y85.177 E51.909
G1 X55.067 Y85.297 E51.91674
G1 X54.972 Y85.555 E51.92954
G1 X54.97 Y149.461 E54.90527
G1 X55.129 Y149.779 E54.92183
G1 X55.258 Y149.871 E54.92921
G1 X55.496 Y149.933 E54.94066
G1 X95.583 Y149.934 E56.80728
M204 S2000
G1 F2700 E51.80728
G0 F6000 X95.364 Y149.265
G0 X95.436 Y145.774
G0 X95.778 Y144.665
G0 X96.242 Y143.9
G0 X97.069 Y143.085
G0 X98.105 Y142.537
G0 X98.962 Y142.328
G0 X139.056 Y141.96
G0 X142.274 Y114.932
G0 X141.795 Y114.706
G0 X141.667 Y114.932
M204 S800
;TYPE:SKIN
G1 F2700 E56.80728
G1 F780 X141.909 Y115.042 E56.81965
G1 X142.239 Y115.108 E56.83532
G1 X144.559 Y115.109 E56.94335
G1 X144.976 Y115.01 E56.96331
G1 X145.314 Y114.806 E56.98169
G1 X145.554 Y114.55 E56.99803
G1 X145.717 Y114.251 E57.01389
G1 X145.81 Y113.829 E57.03401
G1 X145.812 Y109.178 E57.25058
G1 X145.769 Y108.904 E57.2635
G1 X145.559 Y108.452 E57.2867
G1 X145.289 Y108.144 E57.30578
G1 X144.811 Y107.936 E57.33005
G1 X144.545 Y107.889 E57.34263
G1 X142.246 Y107.89 E57.44968
G1 X141.904 Y107.96 E57.46593
G1 X141.546 Y108.149 E57.48479
G1 X141.297 Y108.378 E57.50054
G1 X141.049 Y108.835 E57.52475
G1 X140.987 Y109.252 E57.54438
G1 X140.99 Y113.852 E57.75857
G1 X141.089 Y114.273 E57.77871
G1 X141.31 Y114.663 E57.79959
G1 X141.667 Y114.932 E57.8204
M204 S2000
G1 F2700 E52.8204
G0 F6000 X141.795 Y114.706
G0 X141.547 Y114.594
G0 X141.188 Y111.684
G0 X93.813 Y111.226
G0 X93.481 Y114.581
G0 X93.026 Y114.788
G0 X93.106 Y115.037
M204 S800
G1 F2700 E57.8204
G1 F780 X93.373 Y114.906 E57.83425
G1 X93.745 Y114.565 E57.85775
G1 X93.928 Y114.229 E57.87556
G1 X94.01 Y113.855 E57.89339
G1 X94.01 Y109.059 E58.11671
G1 X93.881 Y108.659 E58.13628
G1 X93.734 Y108.418 E58.14943
G1 X93.487 Y108.171 E58.16569
G1 X93.098 Y107.961 E58.18628
G1 X92.767 Y107.892 E58.20202
G1 X90.375 Y107.889 E58.3134
G1 X89.973 Y108.012 E58.33298
G1 X89.67 Y108.206 E58.34973
G1 X89.401 Y108.513 E58.36874
G1 X89.281 Y108.747 E58.38098
G1 X89.192 Y109.117 E58.3987
G1 X89.188 Y113.822 E58.61779
G1 X89.221 Y114.059 E58.62893
G1 X89.38 Y114.486 E58.65015
G1 X89.69 Y114.811 E58.67106
G1 X90.031 Y115.014 E58.68954
G1 X90.392 Y115.114 E58.70698
G1 X92.805 Y115.106 E58.81934
G1 X93.106 Y115.037 E58.83372
M204 S2000
G1 F2700 E53.83372
G0 F6000 X93.026 Y114.788
G0 X92.782 Y114.928
G0 X95.32 Y144.826
G0 X95.079 Y146.156
G0 X95.032 Y147.522
G0 X94.872 Y149.034
G0 X94.873 Y148.775
M204 S800
G1 F2700 E58.83372
G1 F780 X56.131 Y148.773 E60.63771
G1 X56.132 Y86.231 E63.54993
G1 X178.871 Y86.23 E69.26517
G1 X178.873 Y132.77 E71.43227
G1 X143.347 Y132.776 E73.08651
G1 X142.912 Y132.809 E73.10682
G1 X142.484 Y132.884 E73.12706
G1 X141.941 Y133.041 E73.15338
G1 X141.545 Y133.204 E73.17332
G1 X141.206 Y133.379 E73.19108
G1 X140.787 Y133.646 E73.21422
G1 X140.371 Y133.989 E73.23932
G1 X140.089 Y134.272 E73.25792
G1 X139.835 Y134.575 E73.27633
G1 X139.548 Y134.985 E73.29964
G1 X139.328 Y135.397 E73.32139
G1 X139.172 Y135.764 E73.33996
G1 X139.017 Y136.252 E73.3638
G1 X138.924 Y136.67 E73.38374
G1 X138.88 Y137.145 E73.40595
G1 X138.867 Y141.772 E73.6214
G1 X99.362 Y141.776 E75.46092
G1 X98.907 Y141.81 E75.48217
G1 X98.49 Y141.884 E75.50189
G1 X97.946 Y142.039 E75.52823
G1 X97.541 Y142.205 E75.54861
G1 X97.244 Y142.36 E75.56421
G1 X96.738 Y142.684 E75.59219
G1 X96.416 Y142.95 E75.61163
G1 X96.125 Y143.234 E75.63057
G1 X95.837 Y143.571 E75.65121
G1 X95.543 Y143.996 E75.67527
G1 X95.328 Y144.397 E75.69646
G1 X95.172 Y144.764 E75.71503
G1 X95.017 Y145.252 E75.73887
G1 X94.924 Y145.67 E75.75881
G1 X94.88 Y146.145 E75.78102
G1 X94.873 Y148.775 E75.90349
M204 S2000
G1 F2700 E70.90349
G0 F6000 X94.872 Y149.034
G0 X56.93 Y149.033
G0 X56.931 Y148.572
M204 S800
G1 F2700 E75.90349
G1 F780 X56.331 Y147.972 E75.943
M204 S2000
G0 F6000 X56.331 Y147.407
M204 S800
G1 F780 X57.496 Y148.572 E76.01972
M204 S2000
G0 F6000 X58.062 Y148.572
M204 S800
G1 F780 X56.331 Y146.841 E76.1337
M204 S2000
G0 F6000 X56.331 Y146.275
M204 S800
G1 F780 X58.628 Y148.572 E76.28497
M204 S2000
G0 F6000 X59.194 Y148.572
M204 S800
G1 F780 X56.331 Y145.709 E76.4735
M204 S2000
G0 F6000 X56.331 Y145.144
M204 S800
G1 F780 X59.759 Y148.572 E76.69924
M204 S2000
G0 F6000 X60.325 Y148.572
M204 S800
G1 F780 X56.331 Y144.578 E76.96225
M204 S2000
G0 F6000 X56.331 Y144.012
M204 S800
G1 F780 X60.891 Y148.572 E77.26253
M204 S2000
G0 F6000 X61.456 Y148.572
M204 S800
G1 F780 X56.331 Y143.447 E77.60002
M204 S2000
G0 F6000 X56.331 Y142.881
M204 S800
G1 F780 X62.022 Y148.572 E77.97479
M204 S2000
G0 F6000 X62.588 Y148.572
M204 S800
G1 F780 X56.331 Y142.315 E78.38682
M204 S2000
G0 F6000 X56.331 Y141.75
M204 S800
G1 F780 X63.153 Y148.572 E78.83606
M204 S2000
G0 F6000 X63.719 Y148.572
M204 S800
G1 F780 X56.331 Y141.184 E79.32257
M204 S2000
G0 F6000 X56.331 Y140.618
M204 S800
G1 F780 X64.285 Y148.572 E79.84636
M204 S2000
G0 F6000 X64.85 Y148.572
M204 S800
G1 F780 X56.331 Y140.053 E80.40735
M204 S2000
G0 F6000 X56.331 Y139.487
M204 S800
G1 F780 X65.416 Y148.572 E81.00561
M204 S2000
G0 F6000 X65.982 Y148.572
M204 S800
G1 F780 X56.331 Y138.921 E81.64115
M204 S2000
G0 F6000 X56.331 Y138.356
M204 S800
G1 F780 X66.547 Y148.572 E82.31389
M204 S2000
G0 F6000 X67.113 Y148.572
M204 S800
G1 F780 X56.331 Y137.79 E83.0239
M204 S2000
G0 F6000 X56.331 Y137.224
M204 S800
G1 F780 X67.679 Y148.572 E83.77119
M204 S2000
G0 F6000 X68.244 Y148.572
M204 S800
G1 F780 X56.331 Y136.658 E84.55571
M204 S2000
G0 F6000 X56.331 Y136.093
M204 S800
G1 F780 X68.81 Y148.572 E85.37747
M204 S2000
G0 F6000 X69.377 Y148.573
M204 S800
G1 F780 X56.331 Y135.527 E86.23657
M204 S2000
G0 F6000 X56.331 Y134.961
M204 S800
G1 F780 X69.942 Y148.573 E87.13292
M204 S2000
G0 F6000 X70.508 Y148.573
M204 S800
G1 F780 X56.331 Y134.396 E88.0665
M204 S2000
G0 F6000 X56.331 Y133.83
M204 S800
G1 F780 X71.074 Y148.573 E89.03735
M204 S2000
G0 F6000 X71.639 Y148.573
M204 S800
G1 F780 X56.331 Y133.264 E90.04544
M204 S2000
G0 F6000 X56.331 Y132.699
M204 S800
G1 F780 X72.205 Y148.573 E91.09077
M204 S2000
G0 F6000 X72.771 Y148.573
M204 S800
G1 F780 X56.331 Y132.133 E92.17337
M204 S2000
G0 F6000 X56.331 Y131.567
M204 S800
G1 F780 X73.336 Y148.573 E93.29321
M204 S2000
G0 F6000 X73.902 Y148.573
M204 S800
G1 F780 X56.331 Y131.002 E94.45029
M204 S2000
G0 F6000 X56.331 Y130.436
M204 S800
G1 F780 X74.468 Y148.573 E95.64464
M204 S2000
G0 F6000 X75.033 Y148.573
M204 S800
G1 F780 X56.331 Y129.87 E96.87624
M204 S2000
G0 F6000 X56.331 Y129.305
M204 S800
G1 F780 X75.599 Y148.573 E98.14507
M204 S2000
G0 F6000 X76.165 Y148.573
M204 S800
G1 F780 X56.331 Y128.739 E99.45117
M204 S2000
G0 F6000 X56.331 Y128.173
M204 S800
G1 F780 X76.73 Y148.573 E100.79451
M204 S2000
G0 F6000 X77.296 Y148.573
M204 S800
G1 F780 X56.331 Y127.608 E102.17509
M204 S2000
G0 F6000 X56.331 Y127.042
M204 S800
G1 F780 X77.862 Y148.573 E103.59294
M204 S2000
G0 F6000 X78.428 Y148.573
M204 S800
G1 F780 X56.331 Y126.476 E105.04807
M204 S2000
G0 F6000 X56.331 Y125.91
M204 S800
