;FLAVOR:Marlin
;TIME:19638
;Filament used: 35.4926m
;Layer height: 0.32
;MINX:73.703
;MINY:72.335
;MINZ:0.28
;MAXX:161.296
;MAXY:162.665
;MAXZ:20.12
;TARGET_MACHINE.NAME:Creality Ender-3
;Generated with Cura_SteamEngine 5.6.0
M140 S60
M105
M190 S60
M104 S210
M105
M109 S210
M82 ;absolute extrusion mode
; Ender 3 Custom Start G-code
G92 E0 ; Reset Extruder
G28 ; Home all axes
G1 Z2.0 F3000 ; Move Z Axis up little to prevent scratching of Heat Bed
G1 X0.1 Y20 Z0.3 F5000.0 ; Move to start position
G1 X0.1 Y200.0 Z0.3 F1500.0 E15 ; Draw the first line
G1 X0.4 Y200.0 Z0.3 F5000.0 ; Move to side a little
G1 X0.4 Y20 Z0.3 F1500.0 E30 ; Draw the second line
G92 E0 ; Reset Extruder
G1 Z2.0 F3000 ; Move Z Axis up little to prevent scratching of Heat Bed
G1 X5 Y20 Z0.3 F5000.0 ; Move over to prevent blob squish
G92 E0
G92 E0
G1 F2700 E-5
;LAYER_COUNT:63
;LAYER:0
M107
M204 S2000
G0 F6000 X85.893 Y73.2 Z0.28
M204 S800
;TYPE:SKIRT
G1 F2700 E0
G1 F780 X98.707 Y73.2 E0.59667
G1 X98.706 Y161.8 E4.72226
G1 X85.893 Y161.8 E5.31889
G1 X85.893 Y73.2 E9.44447
M204 S2000
G0 F6000 X86.293 Y73.6
M204 S800
G1 F780 X98.307 Y73.6 E10.0039
G1 X98.306 Y161.4 E14.09223
G1 X86.293 Y161.4 E14.65161
G1 X86.293 Y73.6 E18.73994
M204 S2000
G0 F6000 X86.693 Y74
M204 S800
G1 F780 X97.907 Y74 E19.26211
G1 X97.906 Y161 E23.3132
G1 X86.693 Y161 E23.83532
G1 X86.693 Y74 E27.88641
M204 S2000
G0 F6000 X87.093 Y74.4
M204 S800
G1 F780 X97.507 Y74.4 E28.37133
G1 X97.506 Y160.6 E32.38516
G1 X87.093 Y160.6 E32.87003
G1 X87.093 Y74.4 E36.88387
M204 S2000
G0 F6000 X87.493 Y74.8
M204 S800
G1 F780 X97.107 Y74.8 E37.33153
G1 X97.106 Y160.2 E41.30812
G1 X87.493 Y160.2 E41.75574
G1 X87.493 Y74.8 E45.73232
M204 S2000
G0 F6000 X87.893 Y75.2
M204 S800
G1 F780 X96.707 Y75.2 E46.14274
G1 X96.706 Y159.8 E50.08207
G1 X87.893 Y159.8 E50.49244
G1 X87.893 Y75.2 E54.43177
M204 S2000
G0 F6000 X88.293 Y75.6
M204 S800
G1 F780 X96.307 Y75.6 E54.80493
G1 X96.306 Y159.4 E58.70701
G1 X88.293 Y159.4 E59.08013
G1 X88.293 Y75.6 E62.98221
M204 S2000
G0 F6000 X88.693 Y76
M204 S800
G1 F780 X95.907 Y76 E63.31812
G1 X95.906 Y159 E67.18295
G1 X88.693 Y159 E67.51882
G1 X88.693 Y76 E71.38365
M204 S2000
G0 F6000 X89.093 Y76.4
M204 S800
G1 F780 X95.507 Y76.4 E71.68231
G1 X95.506 Y158.6 E75.50989
G1 X89.093 Y158.6 E75.8085
G1 X89.093 Y76.4 E79.63608
M204 S2000
G0 F6000 X89.493 Y76.8
M204 S800
G1 F780 X95.107 Y76.8 E79.89749
G1 X95.106 Y158.2 E83.68781
G1 X89.493 Y158.2 E83.94918
G1 X89.493 Y76.8 E87.7395
M204 S2000
G1 F2700 E82.7395
G0 F6000 X89.493 Y76.335
G0 X102.994 Y73.347
G0 X136.294 Y73.2
M204 S800
G1 F2700 E87.7395
G1 F780 X149.107 Y73.2 E88.33613
G1 X149.106 Y161.8 E92.46172
G1 X136.293 Y161.8 E93.05835
G1 X136.294 Y73.2 E97.18393
M204 S2000
G0 F6000 X136.694 Y73.6
M204 S800
G1 F780 X148.707 Y73.6 E97.74331
G1 X148.706 Y161.4 E101.83164
G1 X136.693 Y161.4 E102.39102
G1 X136.694 Y73.6 E106.47936
M204 S2000
G0 F6000 X137.094 Y74
M204 S800
G1 F780 X148.307 Y74 E107.00148
G1 X148.306 Y161 E111.05256
G1 X137.093 Y161 E111.57469
G1 X137.094 Y74 E115.62577
M204 S2000
G0 F6000 X137.494 Y74.4
M204 S800
G1 F780 X147.907 Y74.4 E116.11065
G1 X147.906 Y160.6 E120.12448
G1 X137.493 Y160.6 E120.60935
G1 X137.494 Y74.4 E124.62318
M204 S2000
G0 F6000 X137.894 Y74.8
M204 S800
G1 F780 X147.507 Y74.8 E125.07081
G1 X147.506 Y160.2 E129.04739
G1 X137.893 Y160.2 E129.49501
G1 X137.894 Y74.8 E133.47159
M204 S2000
G0 F6000 X138.294 Y75.2
M204 S800
G1 F780 X147.107 Y75.2 E133.88196
G1 X147.106 Y159.8 E137.82129
G1 X138.293 Y159.8 E138.23166
G1 X138.294 Y75.2 E142.17099
M204 S2000
G0 F6000 X138.694 Y75.6
M204 S800
G1 F780 X146.707 Y75.6 E142.54411
G1 X146.706 Y159.4 E146.44619
G1 X138.693 Y159.4 E146.81931
G1 X138.694 Y75.6 E150.72139
M204 S2000
G0 F6000 X139.094 Y76
M204 S800
G1 F780 X146.307 Y76 E151.05726
G1 X146.306 Y159 E154.92208
G1 X139.093 Y159 E155.25795
G1 X139.094 Y76 E159.12278
M204 S2000
G0 F6000 X139.494 Y76.4
M204 S800
G1 F780 X145.907 Y76.4 E159.4214
G1 X145.906 Y158.6 E163.24897
G1 X139.493 Y158.6 E163.54759
G1 X139.494 Y76.4 E167.37516
M204 S2000
G0 F6000 X139.894 Y76.8
M204 S800
G1 F780 X145.507 Y76.8 E167.63653
G1 X145.506 Y158.2 E171.42685
G1 X139.893 Y158.2 E171.68822
G1 X139.894 Y76.8 E175.47854
M204 S2000
G0 F6000 X140.294 Y77.2
M204 S800
;TYPE:SUPPORT
G1 F780 X145.106 Y77.2 E175.70261
G1 X145.106 Y157.8 E179.45568
G1 X140.294 Y157.8 E179.67975
G1 X140.294 Y77.2 E183.43282
M204 S2000
G1 F2700 E178.43282
G0 F6000 X140.374 Y80
M204 S800
G1 F2700 E183.43282
G1 F780 X145.026 Y80 E183.64944
M204 S2000
G1 F2700 E178.64944
G0 F6000 X145.972 Y80
G0 X145.96 Y76.347
G0 X144 Y76.335
G0 X144 Y77.28
M204 S800
G1 F2700 E183.64944
G1 F780 X144 Y157.72 E187.39506
M204 S2000
G1 F2700 E182.39506
G0 F6000 X144 Y158.665
G0 X145.959 Y158.653
G0 X145.972 Y152
G0 X145.026 Y152
M204 S800
G1 F2700 E187.39506
G1 F780 X140.374 Y152 E187.61168
M204 S2000
G1 F2700 E182.61168
G0 F6000 X139.428 Y152
G0 X139.428 Y144
G0 X140.374 Y144
M204 S800
G1 F2700 E187.61168
G1 F780 X145.026 Y144 E187.8283
M204 S2000
G1 F2700 E182.8283
G0 F6000 X145.972 Y144
G0 X145.972 Y136
G0 X145.026 Y136
M204 S800
G1 F2700 E187.8283
G1 F780 X140.374 Y136 E188.04491
M204 S2000
G1 F2700 E183.04491
G0 F6000 X139.428 Y136
G0 X139.428 Y128
G0 X140.374 Y128
M204 S800
G1 F2700 E188.04491
G1 F780 X145.026 Y128 E188.26153
M204 S2000
G1 F2700 E183.26153
G0 F6000 X145.972 Y128
G0 X145.972 Y120
G0 X145.026 Y120
M204 S800
G1 F2700 E188.26153
G1 F780 X140.374 Y120 E188.47815
M204 S2000
G1 F2700 E183.47815
G0 F6000 X139.428 Y120
G0 X139.428 Y112
G0 X140.374 Y112
M204 S800
G1 F2700 E188.47815
G1 F780 X145.026 Y112 E188.69476
M204 S2000
G1 F2700 E183.69476
G0 F6000 X145.972 Y112
G0 X145.972 Y104
G0 X145.026 Y104
M204 S800
G1 F2700 E188.69476
G1 F780 X140.374 Y104 E188.91138
M204 S2000
G1 F2700 E183.91138
G0 F6000 X139.428 Y104
G0 X139.428 Y96
G0 X140.374 Y96
M204 S800
G1 F2700 E188.91138
G1 F780 X145.026 Y96 E189.128
M204 S2000
G1 F2700 E184.128
G0 F6000 X145.972 Y96
G0 X145.972 Y88
G0 X145.026 Y88
M204 S800
G1 F2700 E189.128
G1 F780 X140.374 Y88 E189.34461
M204 S2000
G1 F2700 E184.34461
G0 F6000 X139.428 Y88
G0 X132.006 Y73.347
G0 X102.994 Y73.347
G0 X95.572 Y77.201
G0 X94.706 Y77.201
M204 S800
G1 F2700 E189.34461
G1 F780 X94.706 Y157.799 E193.09759
G1 X89.894 Y157.799 E193.32166
G1 X89.894 Y77.201 E197.07464
G1 X94.706 Y77.201 E197.29871
M204 S2000
G1 F2700 E192.29871
G0 F6000 X94.626 Y80
M204 S800
G1 F2700 E197.29871
G1 F780 X89.974 Y80 E197.51533
M204 S2000
G1 F2700 E192.51533
G0 F6000 X89.028 Y80
G0 X89.028 Y88
G0 X89.974 Y88
M204 S800
G1 F2700 E197.51533
G1 F780 X94.626 Y88 E197.73194
M204 S2000
G1 F2700 E192.73194
G0 F6000 X95.572 Y88
G0 X95.572 Y96
G0 X94.626 Y96
M204 S800
G1 F2700 E197.73194
G1 F780 X89.974 Y96 E197.94856
M204 S2000
G1 F2700 E192.94856
G0 F6000 X89.028 Y96
G0 X89.028 Y104
G0 X89.974 Y104
M204 S800
G1 F2700 E197.94856
G1 F780 X94.626 Y104 E198.16518
M204 S2000
G1 F2700 E193.16518
G0 F6000 X95.572 Y104
G0 X95.572 Y112
G0 X94.626 Y112
M204 S800
G1 F2700 E198.16518
G1 F780 X89.974 Y112 E198.38179
M204 S2000
G1 F2700 E193.38179
G0 F6000 X89.028 Y112
G0 X89.028 Y120
G0 X89.973 Y120
M204 S800
G1 F2700 E198.38179
G1 F780 X94.625 Y120 E198.59841
M204 S2000
G1 F2700 E193.59841
G0 F6000 X95.572 Y120
G0 X95.572 Y128
G0 X94.625 Y128
M204 S800
G1 F2700 E198.59841
G1 F780 X89.973 Y128 E198.81502
M204 S2000
G1 F2700 E193.81502
G0 F6000 X89.028 Y128
G0 X89.028 Y136
G0 X89.973 Y136
M204 S800
G1 F2700 E198.81502
G1 F780 X94.625 Y136 E199.03164
M204 S2000
G1 F2700 E194.03164
G0 F6000 X95.572 Y136
G0 X95.572 Y144
G0 X94.625 Y144
M204 S800
G1 F2700 E199.03164
G1 F780 X89.973 Y144 E199.24826
M204 S2000
G1 F2700 E194.24826
G0 F6000 X89.028 Y144
G0 X89.028 Y152
G0 X89.973 Y152
M204 S800
G1 F2700 E199.24826
G1 F780 X94.625 Y152 E199.46487
M204 S2000
G1 F2700 E194.46487
;MESH:Battery Mount Cover.stl
G0 F6000 X95.572 Y152
G0 X95.559 Y158.653
G0 X89.04 Y158.653
G0 X81.618 Y152
G0 X80.533 Y152
G0 X79.953 Y160
M204 S800
;TYPE:WALL-INNER
G1 F2700 E199.46487
G1 F780 X79.953 Y75 E203.42283
G1 X74.504 Y75 E203.67656
G1 X74.503 Y160 E207.63452
G1 X79.953 Y160 E207.88829
M204 S2000
G0 F6000 X80.353 Y160.4
M204 S800
G1 F780 X80.353 Y74.6 E211.8835
G1 X74.104 Y74.6 E212.17448
G1 X74.103 Y160.4 E216.16968
G1 X80.353 Y160.4 E216.46071
M204 S2000
G0 F6000 X80.753 Y160.8
M204 S800
;TYPE:WALL-OUTER
G1 F780 X80.753 Y74.2 E220.49317
G1 X73.704 Y74.2 E220.8214
G1 X73.703 Y160.8 E224.85386
G1 X80.753 Y160.8 E225.18214
M204 S2000
G0 F6000 X80.483 Y160.53
G0 X79.853 Y159.64
G0 X79.593 Y159.64
M204 S800
;TYPE:SKIN
G1 F780 X74.863 Y159.64 E225.40239
G1 X74.864 Y75.36 E229.32682
G1 X79.593 Y75.36 E229.54702
G1 X79.593 Y159.64 E233.47145
M204 S2000
G0 F6000 X79.853 Y159.64
G0 X74.675 Y159.828
G0 X74.604 Y159.349
G0 X75.062 Y159.35
M204 S800
G1 F780 X75.152 Y159.439 E233.47734
M204 S2000
G0 F6000 X75.717 Y159.439
M204 S800
G1 F780 X75.062 Y158.784 E233.52047
M204 S2000
G0 F6000 X75.062 Y158.218
M204 S800
G1 F780 X76.283 Y159.439 E233.60088
M204 S2000
G0 F6000 X76.849 Y159.439
M204 S800
G1 F780 X75.062 Y157.652 E233.71856
M204 S2000
G0 F6000 X75.062 Y157.087
M204 S800
G1 F780 X77.414 Y159.439 E233.87344
M204 S2000
G0 F6000 X77.98 Y159.439
M204 S800
G1 F780 X75.062 Y156.521 E234.06559
M204 S2000
G0 F6000 X75.062 Y155.955
M204 S800
G1 F780 X78.546 Y159.439 E234.29502
M204 S2000
G0 F6000 X79.111 Y159.439
M204 S800
G1 F780 X75.062 Y155.39 E234.56166
M204 S2000
G0 F6000 X75.062 Y154.824
M204 S800
G1 F780 X79.393 Y159.154 E234.84683
M204 S2000
G0 F6000 X79.393 Y158.589
M204 S800
G1 F780 X75.062 Y154.258 E235.13203
M204 S2000
G0 F6000 X75.062 Y153.693
M204 S800
G1 F780 X79.393 Y158.023 E235.4172
M204 S2000
G0 F6000 X79.393 Y157.457
M204 S800
G1 F780 X75.062 Y153.127 E235.70237
M204 S2000
G0 F6000 X75.062 Y152.561
M204 S800
G1 F780 X79.393 Y156.892 E235.98758
M204 S2000
G0 F6000 X79.393 Y156.326
M204 S800
G1 F780 X75.062 Y151.996 E236.27275
M204 S2000
G0 F6000 X75.062 Y151.43
M204 S800
G1 F780 X79.393 Y155.76 E236.55792
M204 S2000
G0 F6000 X79.393 Y155.195
M204 S800
G1 F780 X75.062 Y150.864 E236.84312
M204 S2000
G0 F6000 X75.062 Y150.299
M204 S800
G1 F780 X79.393 Y154.629 E237.12829
M204 S2000
G0 F6000 X79.393 Y154.063
M204 S800
G1 F780 X75.062 Y149.733 E237.41346
M204 S2000
G0 F6000 X75.062 Y149.167
M204 S800
G1 F780 X79.393 Y153.498 E237.69867
M204 S2000
G0 F6000 X79.393 Y152.932
M204 S800
G1 F780 X75.062 Y148.602 E237.98384
M204 S2000
G0 F6000 X75.062 Y148.036
M204 S800
G1 F780 X79.393 Y152.366 E238.26901
M204 S2000
G0 F6000 X79.393 Y151.8
M204 S800
G1 F780 X75.062 Y147.47 E238.55418
M204 S2000
G0 F6000 X75.062 Y146.904
M204 S800
G1 F780 X79.393 Y151.235 E238.83938
M204 S2000
G0 F6000 X79.393 Y150.669
M204 S800
G1 F780 X75.062 Y146.339 E239.12455
M204 S2000
G0 F6000 X75.062 Y145.773
M204 S800
G1 F780 X79.393 Y150.103 E239.40972
M204 S2000
G0 F6000 X79.393 Y149.538
M204 S800
G1 F780 X75.062 Y145.207 E239.69493
M204 S2000
G0 F6000 X75.062 Y144.642
M204 S800
G1 F780 X79.393 Y148.972 E239.9801
M204 S2000
G0 F6000 X79.393 Y148.406
M204 S800
G1 F780 X75.062 Y144.076 E240.26527
M204 S2000
G0 F6000 X75.062 Y143.51
M204 S800
G1 F780 X79.393 Y147.841 E240.55047
M204 S2000
G0 F6000 X79.393 Y147.275
M204 S800
G1 F780 X75.062 Y142.945 E240.83564
M204 S2000
G0 F6000 X75.062 Y142.379
M204 S800
G1 F780 X79.393 Y146.709 E241.12081
M204 S2000
G0 F6000 X79.393 Y146.144
M204 S800
G1 F780 X75.062 Y141.813 E241.40602
M204 S2000
G0 F6000 X75.062 Y141.248
M204 S800
G1 F780 X79.393 Y145.578 E241.69119
M204 S2000
G0 F6000 X79.393 Y145.012
M204 S800
G1 F780 X75.062 Y140.682 E241.97636
M204 S2000
G0 F6000 X75.062 Y140.116
M204 S800
G1 F780 X79.393 Y144.447 E242.26156
M204 S2000
G0 F6000 X79.393 Y143.881
M204 S800
G1 F780 X75.062 Y139.551 E242.54673
M204 S2000
G0 F6000 X75.062 Y138.985
M204 S800
G1 F780 X79.393 Y143.315 E242.83191
M204 S2000
G0 F6000 X79.393 Y142.75
M204 S800
G1 F780 X75.062 Y138.419 E243.11711
M204 S2000
G0 F6000 X75.062 Y137.854
M204 S800
G1 F780 X79.393 Y142.184 E243.40228
M204 S2000
G0 F6000 X79.393 Y141.618
M204 S800
G1 F780 X75.062 Y137.288 E243.68745
M204 S2000
G0 F6000 X75.062 Y136.722
M204 S800
G1 F780 X79.393 Y141.052 E243.97262
M204 S2000
G0 F6000 X79.393 Y140.487
M204 S800
G1 F780 X75.062 Y136.156 E244.25783
M204 S2000
G0 F6000 X75.062 Y135.591
M204 S800
G1 F780 X79.393 Y139.921 E244.543
M204 S2000
G0 F6000 X79.393 Y139.355
M204 S800
G1 F780 X75.062 Y135.025 E244.82817
M204 S2000
G0 F6000 X75.062 Y134.459
M204 S800
G1 F780 X79.393 Y138.79 E245.11337
M204 S2000
G0 F6000 X79.393 Y138.224
M204 S800
G1 F780 X75.062 Y133.894 E245.39854
M204 S2000
G0 F6000 X75.062 Y133.328
M204 S800
G1 F780 X79.393 Y137.658 E245.68371
M204 S2000
G0 F6000 X79.393 Y137.093
M204 S800
G1 F780 X75.062 Y132.762 E245.96892
M204 S2000
G0 F6000 X75.062 Y132.197
M204 S800
G1 F780 X79.393 Y136.527 E246.25409
M204 S2000
G0 F6000 X79.393 Y135.961
M204 S800
G1 F780 X75.062 Y131.631 E246.53926
M204 S2000
G0 F6000 X75.062 Y131.065
M204 S800
G1 F780 X79.393 Y135.396 E246.82446
M204 S2000
G0 F6000 X79.393 Y134.83
M204 S800
G1 F780 X75.062 Y130.5 E247.10963
M204 S2000
G0 F6000 X75.062 Y129.934
M204 S800
G1 F780 X79.393 Y134.264 E247.3948
M204 S2000
G0 F6000 X79.393 Y133.699
M204 S800
G1 F780 X75.062 Y129.368 E247.68001
M204 S2000
G0 F6000 X75.062 Y128.803
M204 S800
G1 F780 X79.393 Y133.133 E247.96518
M204 S2000
G0 F6000 X79.393 Y132.567
M204 S800
G1 F780 X75.062 Y128.237 E248.25035
M204 S2000
G0 F6000 X75.062 Y127.671
M204 S800
G1 F780 X79.393 Y132.001 E248.53552
M204 S2000
G0 F6000 X79.393 Y131.436
M204 S800
G1 F780 X75.062 Y127.105 E248.82072
M204 S2000
G0 F6000 X75.062 Y126.54
M204 S800
G1 F780 X79.393 Y130.87 E249.10589
M204 S2000
G0 F6000 X79.393 Y130.304
M204 S800
G1 F780 X75.062 Y125.974 E249.39106
M204 S2000
G0 F6000 X75.062 Y125.408
M204 S800
G1 F780 X79.393 Y129.739 E249.67627
M204 S2000
G0 F6000 X79.393 Y129.173
M204 S800
G1 F780 X75.062 Y124.843 E249.96144
M204 S2000
G0 F6000 X75.062 Y124.277
M204 S800
G1 F780 X79.393 Y128.607 E250.24661
M204 S2000
G0 F6000 X79.393 Y128.042
M204 S800
G1 F780 X75.062 Y123.711 E250.53181
M204 S2000
G0 F6000 X75.062 Y123.146
M204 S800
G1 F780 X79.393 Y127.476 E250.81698
M204 S2000
G0 F6000 X79.393 Y126.91
M204 S800
G1 F780 X75.062 Y122.58 E251.10216
M204 S2000
G0 F6000 X75.062 Y122.014
M204 S800
G1 F780 X79.393 Y126.345 E251.38736
M204 S2000
G0 F6000 X79.393 Y125.779
M204 S800
G1 F780 X75.062 Y121.449 E251.67253
M204 S2000
G0 F6000 X75.062 Y120.883
M204 S800
G1 F780 X79.393 Y125.213 E251.9577
M204 S2000
G0 F6000 X79.393 Y124.648
M204 S800
G1 F780 X75.062 Y120.317 E252.2429
M204 S2000
G0 F6000 X75.062 Y119.752
M204 S800
G1 F780 X79.393 Y124.082 E252.52808
M204 S2000
G0 F6000 X79.393 Y123.516
M204 S800
G1 F780 X75.062 Y119.186 E252.81325
M204 S2000
G0 F6000 X75.062 Y118.62
M204 S800
G1 F780 X79.393 Y122.951 E253.09845
M204 S2000
G0 F6000 X79.393 Y122.385
M204 S800
G1 F780 X75.062 Y118.055 E253.38362
M204 S2000
G0 F6000 X75.063 Y117.49
M204 S800
G1 F780 X79.393 Y121.819 E253.66873
M204 S2000
G0 F6000 X79.393 Y121.253
M204 S800
G1 F780 X75.063 Y116.924 E253.95383
M204 S2000
G0 F6000 X75.063 Y116.358
M204 S800
G1 F780 X79.393 Y120.688 E254.23897
M204 S2000
G0 F6000 X79.393 Y120.122
M204 S800
G1 F780 X75.063 Y115.792 E254.52411
M204 S2000
G0 F6000 X75.063 Y115.227
M204 S800
G1 F780 X79.393 Y119.556 E254.80921
M204 S2000
G0 F6000 X79.393 Y118.991
M204 S800
G1 F780 X75.063 Y114.661 E255.09435
M204 S2000
G0 F6000 X75.063 Y114.095
M204 S800
G1 F780 X79.393 Y118.425 E255.37949
M204 S2000
G0 F6000 X79.393 Y117.859
M204 S800
G1 F780 X75.063 Y113.53 E255.66459
M204 S2000
G0 F6000 X75.063 Y112.964
M204 S800
G1 F780 X79.393 Y117.294 E255.94973
M204 S2000
G0 F6000 X79.393 Y116.728
M204 S800
G1 F780 X75.063 Y112.398 E256.23487
M204 S2000
G0 F6000 X75.063 Y111.833
M204 S800
G1 F780 X79.393 Y116.162 E256.51997
M204 S2000
G0 F6000 X79.393 Y115.597
M204 S800
G1 F780 X75.063 Y111.267 E256.80511
M204 S2000
G0 F6000 X75.063 Y110.701
M204 S800
G1 F780 X79.393 Y115.031 E257.09025
M204 S2000
G0 F6000 X79.393 Y114.465
M204 S800
G1 F780 X75.063 Y110.136 E257.37535
M204 S2000
G0 F6000 X75.063 Y109.57
M204 S800
