;FLAVOR:Marlin
;TIME:12728
;Filament used: 15.0278m
;Layer height: 0.28
;MINX:77.2
;MINY:74.7
;MINZ:0.28
;MAXX:160.777
;MAXY:160.3
;MAXZ:38.08
;TARGET_MACHINE.NAME:Creality Ender-3
;Generated with Cura_SteamEngine 5.6.0
M140 S60
M105
M190 S60
M104 S210
M105
M109 S210
M82 ;absolute extrusion mode
; Ender 3 Custom Start G-code
G92 E0 ; Reset Extruder
G28 ; Home all axes
G1 Z2.0 F3000 ; Move Z Axis up little to prevent scratching of Heat Bed
G1 X0.1 Y20 Z0.3 F5000.0 ; Move to start position
G1 X0.1 Y200.0 Z0.3 F1500.0 E15 ; Draw the first line
G1 X0.4 Y200.0 Z0.3 F5000.0 ; Move to side a little
G1 X0.4 Y20 Z0.3 F1500.0 E30 ; Draw the second line
G92 E0 ; Reset Extruder
G1 Z2.0 F3000 ; Move Z Axis up little to prevent scratching of Heat Bed
G1 X5 Y20 Z0.3 F5000.0 ; Move over to prevent blob squish
G92 E0
G92 E0
G1 F2700 E-5
;LAYER_COUNT:136
;LAYER:0
M107
G0 F6000 X158.998 Y114.991 Z0.28
;TYPE:SKIRT
G1 F2700 E0
G1 F780 X159.418 Y115.047 E0.01973
G1 X159.667 Y115.148 E0.03224
G1 X159.934 Y115.302 E0.04659
G1 X160.214 Y115.546 E0.06389
G1 X160.565 Y116.026 E0.09158
G1 X160.685 Y116.328 E0.10671
G1 X160.777 Y116.673 E0.12334
G1 X160.754 Y117.649 E0.16879
G1 X160.754 Y117.657 E0.16917
G1 X160.766 Y118.362 E0.202
G1 X160.614 Y118.891 E0.22763
G1 X160.209 Y119.455 E0.25996
G1 X159.934 Y119.703 E0.2772
G1 X159.694 Y119.87 E0.29082
G1 X159.198 Y120.004 E0.31474
G1 X159.159 Y119.882 E0.32071
G1 X159.074 Y119.816 E0.32572
G1 X158.998 Y119.785 E0.32954
G1 X158.998 Y114.991 E0.55277
G0 F6000 X159.398 Y115.47
G1 F780 X159.492 Y115.508 E0.55749
G1 X159.7 Y115.629 E0.56869
G1 X159.915 Y115.815 E0.58193
G1 X160.213 Y116.223 E0.60546
G1 X160.303 Y116.45 E0.61683
G1 X160.376 Y116.723 E0.62999
G1 X160.354 Y117.64 E0.6727
G1 X160.354 Y117.664 E0.67382
G1 X160.365 Y118.307 E0.70376
G1 X160.247 Y118.716 E0.72358
G1 X159.909 Y119.186 E0.75054
G1 X159.689 Y119.385 E0.76435
G1 X159.519 Y119.503 E0.77399
G1 X159.398 Y119.536 E0.77983
G1 X159.398 Y115.47 E0.96916
G0 F6000 X159.798 Y116.333
G1 F780 X159.86 Y116.418 E0.97406
G1 X159.923 Y116.577 E0.98202
G1 X159.975 Y116.769 E0.99128
G1 X159.954 Y117.63 E1.03139
G1 X159.954 Y117.67 E1.03325
G1 X159.964 Y118.256 E1.06054
G1 X159.883 Y118.536 E1.07411
G1 X159.798 Y118.655 E1.08092
G1 X159.798 Y116.333 E1.18905
G1 F2700 E-3.81095
;MESH:Golf Cart V3 Controller Case.stl
G0 F6000 X157.198 Y116.333
G0 X78.957 Y159.898
;TYPE:WALL-INNER
G1 F2700 E1.18905
G1 F780 X156.125 Y159.898 E4.78231
G1 X156.592 Y159.774 E4.80481
G1 X156.842 Y159.614 E4.81863
G1 X157.03 Y159.441 E4.83053
G1 X157.265 Y159.137 E4.84842
G1 X157.362 Y158.814 E4.86412
G1 X157.398 Y158.543 E4.87685
G1 X157.398 Y76.375 E8.70294
G1 X157.274 Y75.908 E8.72544
G1 X157.114 Y75.657 E8.7393
G1 X156.942 Y75.469 E8.75116
G1 X156.635 Y75.234 E8.76917
G1 X156.314 Y75.138 E8.78477
G1 X156.043 Y75.102 E8.7975
G1 X78.875 Y75.102 E12.39076
G1 X78.408 Y75.226 E12.41326
G1 X78.157 Y75.386 E12.42712
G1 X77.969 Y75.558 E12.43899
G1 X77.734 Y75.865 E12.45699
G1 X77.638 Y76.186 E12.47259
G1 X77.602 Y76.457 E12.48532
G1 X77.602 Y158.625 E16.31141
G1 X77.726 Y159.092 E16.3339
G1 X77.886 Y159.342 E16.34773
G1 X78.059 Y159.53 E16.35962
G1 X78.363 Y159.765 E16.37751
G1 X78.686 Y159.862 E16.39322
G1 X78.957 Y159.898 E16.40595
G0 F6000 X78.931 Y160.298
;TYPE:WALL-OUTER
G1 F780 X156.163 Y160.298 E20.00219
G1 X156.471 Y160.238 E20.0168
G1 X156.766 Y160.137 E20.03132
G1 X157.087 Y159.932 E20.04906
G1 X157.326 Y159.713 E20.06415
G1 X157.519 Y159.462 E20.0789
G1 X157.667 Y159.191 E20.09327
G1 X157.754 Y158.898 E20.10751
G1 X157.798 Y158.569 E20.12296
G1 X157.798 Y76.337 E23.95203
G1 X157.738 Y76.029 E23.96664
G1 X157.637 Y75.734 E23.98116
G1 X157.432 Y75.413 E23.99889
G1 X157.213 Y75.173 E24.01402
G1 X156.962 Y74.981 E24.02874
G1 X156.691 Y74.833 E24.04312
G1 X156.398 Y74.746 E24.05735
G1 X156.069 Y74.702 E24.0728
G1 X78.837 Y74.702 E27.66905
G1 X78.529 Y74.762 E27.68366
G1 X78.234 Y74.863 E27.69818
G1 X77.913 Y75.068 E27.71592
G1 X77.673 Y75.287 E27.73104
G1 X77.481 Y75.538 E27.74576
G1 X77.333 Y75.809 E27.76014
G1 X77.246 Y76.102 E27.77437
G1 X77.202 Y76.431 E27.78983
G1 X77.202 Y158.663 E31.61889
G1 X77.262 Y158.971 E31.6335
G1 X77.363 Y159.266 E31.64802
G1 X77.568 Y159.587 E31.66576
G1 X77.787 Y159.826 E31.68085
G1 X78.038 Y160.019 E31.6956
G1 X78.309 Y160.167 E31.70997
G1 X78.602 Y160.254 E31.72421
G1 X78.931 Y160.298 E31.73966
G0 F6000 X78.99 Y159.538
;TYPE:SKIN
G1 F780 X78.603 Y159.458 E31.75806
G1 X78.234 Y159.216 E31.77861
G1 X78.055 Y158.935 E31.79412
G1 X77.963 Y158.588 E31.81084
G1 X77.962 Y76.49 E35.63367
G1 X78.042 Y76.102 E35.65211
G1 X78.284 Y75.733 E35.67266
G1 X78.564 Y75.555 E35.68811
G1 X78.911 Y75.462 E35.70484
G1 X156.01 Y75.462 E39.29489
G1 X156.398 Y75.542 E39.31334
G1 X156.767 Y75.784 E39.33389
G1 X156.945 Y76.064 E39.34934
G1 X157.038 Y76.411 E39.36606
G1 X157.038 Y158.51 E43.18894
G1 X156.958 Y158.897 E43.20734
G1 X156.716 Y159.266 E43.22789
G1 X156.435 Y159.445 E43.2434
G1 X156.088 Y159.537 E43.26012
G1 X78.99 Y159.538 E46.85012
G0 F6000 X78.926 Y159.791
G0 X78.526 Y159.646
G0 X78.133 Y159.389
G0 X77.731 Y158.726
G0 X78.162 Y158.489
G1 F780 X79.009 Y159.337 E46.90593
G0 F6000 X79.574 Y159.336
G1 F780 X78.162 Y157.923 E46.99895
G0 F6000 X78.162 Y157.358
G1 F780 X80.14 Y159.336 E47.1292
G0 F6000 X80.706 Y159.336
G1 F780 X78.162 Y156.792 E47.29673
G0 F6000 X78.162 Y156.226
G1 F780 X81.272 Y159.336 E47.50153
G0 F6000 X81.837 Y159.336
G1 F780 X78.162 Y155.661 E47.74353
G0 F6000 X78.162 Y155.095
G1 F780 X82.403 Y159.336 E48.02281
G0 F6000 X82.969 Y159.336
G1 F780 X78.162 Y154.529 E48.33936
G0 F6000 X78.162 Y153.964
G1 F780 X83.534 Y159.336 E48.69311
G0 F6000 X84.1 Y159.336
G1 F780 X78.162 Y153.398 E49.08414
G0 F6000 X78.162 Y152.832
G1 F780 X84.666 Y159.336 E49.51244
G0 F6000 X85.231 Y159.336
G1 F780 X78.162 Y152.266 E49.97798
G0 F6000 X78.162 Y151.701
G1 F780 X85.797 Y159.336 E50.48076
G0 F6000 X86.363 Y159.336
G1 F780 X78.162 Y151.135 E51.02081
G0 F6000 X78.162 Y150.569
G1 F780 X86.928 Y159.336 E51.5981
G0 F6000 X87.494 Y159.336
G1 F780 X78.162 Y150.004 E52.21262
G0 F6000 X78.162 Y149.438
G1 F780 X88.06 Y159.336 E52.86442
G0 F6000 X88.625 Y159.336
G1 F780 X78.162 Y148.872 E53.55346
G0 F6000 X78.162 Y148.307
G1 F780 X89.191 Y159.336 E54.27974
G0 F6000 X89.757 Y159.336
G1 F780 X78.162 Y147.741 E55.04329
G0 F6000 X78.162 Y147.175
G1 F780 X90.322 Y159.336 E55.84408
G0 F6000 X90.888 Y159.336
G1 F780 X78.162 Y146.61 E56.68211
G0 F6000 X78.162 Y146.044
G1 F780 X91.454 Y159.336 E57.55741
G0 F6000 X92.02 Y159.336
G1 F780 X78.162 Y145.478 E58.46999
G0 F6000 X78.162 Y144.913
G1 F780 X92.585 Y159.336 E59.41976
G0 F6000 X93.151 Y159.336
G1 F780 X78.162 Y144.347 E60.40682
G0 F6000 X78.162 Y143.781
G1 F780 X93.717 Y159.336 E61.43114
G0 F6000 X94.282 Y159.336
G1 F780 X78.162 Y143.215 E62.4927
G0 F6000 X78.162 Y142.65
G1 F780 X94.848 Y159.336 E63.5915
G0 F6000 X95.414 Y159.336
G1 F780 X78.162 Y142.084 E64.72758
G0 F6000 X78.162 Y141.518
G1 F780 X95.979 Y159.336 E65.90089
G0 F6000 X96.545 Y159.336
G1 F780 X78.162 Y140.953 E67.11144
G0 F6000 X78.162 Y140.387
G1 F780 X97.111 Y159.336 E68.35927
G0 F6000 X97.676 Y159.336
G1 F780 X78.162 Y139.821 E69.64433
G0 F6000 X78.162 Y139.256
G1 F780 X98.242 Y159.336 E70.96663
G0 F6000 X98.808 Y159.336
G1 F780 X78.162 Y138.69 E72.32621
G0 F6000 X78.162 Y138.124
G1 F780 X99.373 Y159.336 E73.72302
G0 F6000 X99.939 Y159.336
G1 F780 X78.162 Y137.559 E75.15707
G0 F6000 X78.162 Y136.993
G1 F780 X100.505 Y159.336 E76.6284
G0 F6000 X101.071 Y159.336
G1 F780 X78.162 Y136.427 E78.13699
G0 F6000 X78.162 Y135.862
G1 F780 X101.636 Y159.336 E79.6828
G0 F6000 X102.202 Y159.336
G1 F780 X78.162 Y135.296 E81.26587
G0 F6000 X78.162 Y134.73
G1 F780 X102.768 Y159.336 E82.88622
G0 F6000 X103.333 Y159.336
G1 F780 X78.162 Y134.165 E84.54377
G0 F6000 X78.162 Y133.599
G1 F780 X103.899 Y159.336 E86.2386
G0 F6000 X104.465 Y159.336
G1 F780 X78.162 Y133.033 E87.97069
G0 F6000 X78.162 Y132.467
G1 F780 X105.03 Y159.336 E89.74003
G0 F6000 X105.596 Y159.336
G1 F780 X78.162 Y131.902 E91.54661
G0 F6000 X78.162 Y131.336
G1 F780 X106.162 Y159.336 E93.39045
G0 F6000 X106.727 Y159.336
G1 F780 X78.162 Y130.77 E95.27154
G0 F6000 X78.162 Y130.205
G1 F780 X107.293 Y159.336 E97.18987
G0 F6000 X107.859 Y159.336
G1 F780 X78.162 Y129.639 E99.14547
G0 F6000 X78.162 Y129.073
G1 F780 X108.424 Y159.336 E101.1383
G0 F6000 X108.99 Y159.336
G1 F780 X78.162 Y128.508 E103.16838
G0 F6000 X78.162 Y127.942
G1 F780 X109.556 Y159.336 E105.23573
G0 F6000 X110.121 Y159.336
G1 F780 X78.162 Y127.376 E107.34032
G0 F6000 X78.162 Y126.811
G1 F780 X110.687 Y159.336 E109.48214
G0 F6000 X111.253 Y159.336
G1 F780 X78.162 Y126.245 E111.66124
G0 F6000 X78.162 Y125.679
G1 F780 X111.819 Y159.336 E113.87761
G0 F6000 X112.384 Y159.336
G1 F780 X78.162 Y125.114 E116.13119
G0 F6000 X78.162 Y124.548
G1 F780 X112.95 Y159.336 E118.42204
G0 F6000 X113.516 Y159.336
G1 F780 X78.162 Y123.982 E120.75016
G0 F6000 X78.162 Y123.417
G1 F780 X114.081 Y159.336 E123.11549
G0 F6000 X114.647 Y159.336
G1 F780 X78.162 Y122.851 E125.51809
G0 F6000 X78.162 Y122.285
G1 F780 X115.213 Y159.336 E127.95796
G0 F6000 X115.778 Y159.336
G1 F780 X78.162 Y121.719 E130.43507
G0 F6000 X78.162 Y121.154
G1 F780 X116.344 Y159.336 E132.94942
G0 F6000 X116.91 Y159.336
G1 F780 X78.162 Y120.588 E135.50104
G0 F6000 X78.162 Y120.022
G1 F780 X117.475 Y159.336 E138.0899
G0 F6000 X118.04 Y159.335
G1 F780 X78.162 Y119.457 E140.71594
G0 F6000 X78.162 Y118.891
G1 F780 X118.606 Y159.335 E143.37924
G0 F6000 X119.172 Y159.335
G1 F780 X78.162 Y118.325 E146.07982
G0 F6000 X78.162 Y117.76
G1 F780 X119.737 Y159.335 E148.81761
G0 F6000 X120.303 Y159.335
G1 F780 X78.161 Y117.193 E151.59273
G0 F6000 X78.161 Y116.628
G1 F780 X120.869 Y159.335 E154.40509
G0 F6000 X121.434 Y159.335
G1 F780 X78.161 Y116.062 E157.25469
G0 F6000 X78.161 Y115.496
G1 F780 X122 Y159.335 E160.14156
G0 F6000 X122.566 Y159.335
G1 F780 X78.161 Y114.931 E163.06568
G0 F6000 X78.161 Y114.365
G1 F780 X123.132 Y159.335 E166.02706
G0 F6000 X123.697 Y159.335
G1 F780 X78.161 Y113.799 E169.02568
G0 F6000 X78.161 Y113.233
G1 F780 X124.263 Y159.335 E172.06158
G0 F6000 X124.829 Y159.335
G1 F780 X78.161 Y112.668 E175.13471
G0 F6000 X78.161 Y112.102
G1 F780 X125.394 Y159.335 E178.24509
G0 F6000 X125.96 Y159.335
G1 F780 X78.161 Y111.536 E181.39273
G0 F6000 X78.161 Y110.971
G1 F780 X126.526 Y159.335 E184.57762
G0 F6000 X127.091 Y159.335
G1 F780 X78.161 Y110.405 E187.79974
G0 F6000 X78.161 Y109.839
G1 F780 X127.657 Y159.335 E191.05914
G0 F6000 X128.223 Y159.335
G1 F780 X78.161 Y109.274 E194.35577
G0 F6000 X78.161 Y108.708
G1 F780 X128.788 Y159.335 E197.68965
G0 F6000 X129.354 Y159.335
G1 F780 X78.161 Y108.142 E201.0608
G0 F6000 X78.161 Y107.577
G1 F780 X129.92 Y159.335 E204.46918
G0 F6000 X130.485 Y159.335
G1 F780 X78.161 Y107.011 E207.91481
G0 F6000 X78.161 Y106.445
G1 F780 X131.051 Y159.335 E211.3977
G0 F6000 X131.617 Y159.335
G1 F780 X78.161 Y105.88 E214.91784
G0 F6000 X78.161 Y105.314
G1 F780 X132.183 Y159.335 E218.47525
G0 F6000 X132.748 Y159.335
G1 F780 X78.161 Y104.748 E222.06989
G0 F6000 X78.161 Y104.182
G1 F780 X133.314 Y159.335 E225.70181
G0 F6000 X133.88 Y159.335
G1 F780 X78.161 Y103.617 E229.37097
G0 F6000 X78.161 Y103.051
G1 F780 X134.445 Y159.335 E233.07737
G0 F6000 X135.011 Y159.335
G1 F780 X78.161 Y102.485 E236.82104
G0 F6000 X78.161 Y101.92
G1 F780 X135.577 Y159.335 E240.60195
G0 F6000 X136.142 Y159.335
G1 F780 X78.161 Y101.354 E244.42009
G0 F6000 X78.161 Y100.788
G1 F780 X136.708 Y159.335 E248.27551
G0 F6000 X137.274 Y159.335
G1 F780 X78.161 Y100.223 E252.16817
G0 F6000 X78.161 Y99.657
G1 F780 X137.839 Y159.335 E256.09807
G0 F6000 X138.405 Y159.335
G1 F780 X78.161 Y99.091 E260.06524
G0 F6000 X78.161 Y98.526
G1 F780 X138.971 Y159.335 E264.06965
G0 F6000 X139.536 Y159.335
G1 F780 X78.161 Y97.96 E268.1113
G0 F6000 X78.161 Y97.394
G1 F780 X140.102 Y159.335 E272.19022
G0 F6000 X140.668 Y159.335
G1 F780 X78.161 Y96.829 E276.30638
G0 F6000 X78.161 Y96.263
G1 F780 X141.233 Y159.335 E280.45978
G0 F6000 X141.799 Y159.335
G1 F780 X78.161 Y95.697 E284.65045
G0 F6000 X78.161 Y95.132
G1 F780 X142.365 Y159.335 E288.87836
G0 F6000 X142.931 Y159.335
G1 F780 X78.161 Y94.566 E293.14354
G0 F6000 X78.161 Y94
G1 F780 X143.496 Y159.335 E297.44596
G0 F6000 X144.062 Y159.335
G1 F780 X78.161 Y93.434 E301.78566
G0 F6000 X78.161 Y92.869
G1 F780 X144.628 Y159.335 E306.16259
G0 F6000 X145.193 Y159.335
G1 F780 X78.161 Y92.303 E310.57676
G0 F6000 X78.161 Y91.737
G1 F780 X145.759 Y159.335 E315.02821
G0 F6000 X146.325 Y159.335
G1 F780 X78.161 Y91.172 E319.51689
G0 F6000 X78.161 Y90.606
G1 F780 X146.89 Y159.335 E324.04281
G0 F6000 X147.456 Y159.335
G1 F780 X78.161 Y90.04 E328.606
G0 F6000 X78.161 Y89.475
G1 F780 X148.022 Y159.335 E333.20644
G0 F6000 X148.587 Y159.335
G1 F780 X78.161 Y88.909 E337.84411
G0 F6000 X78.161 Y88.343
G1 F780 X149.153 Y159.335 E342.51905
G0 F6000 X149.719 Y159.335
G1 F780 X78.161 Y87.778 E347.23124
G0 F6000 X78.161 Y87.212
G1 F780 X150.284 Y159.335 E351.98066
G0 F6000 X150.85 Y159.335
G1 F780 X78.161 Y86.646 E356.76736
G0 F6000 X78.161 Y86.081
G1 F780 X151.416 Y159.335 E361.59129
G0 F6000 X151.981 Y159.335
G1 F780 X78.161 Y85.515 E366.45246
G0 F6000 X78.161 Y84.949
G1 F780 X152.547 Y159.335 E371.35091
G0 F6000 X153.113 Y159.335
G1 F780 X78.161 Y84.384 E376.28659
G0 F6000 X78.161 Y83.818
G1 F780 X153.679 Y159.335 E381.25955
G0 F6000 X154.244 Y159.335
G1 F780 X78.161 Y83.252 E386.26974
G0 F6000 X78.161 Y82.686
G1 F780 X154.81 Y159.335 E391.31721
G0 F6000 X155.376 Y159.335
G1 F780 X78.161 Y82.121 E396.40192
G0 F6000 X78.161 Y81.555
G1 F780 X155.941 Y159.335 E401.52386
G0 F6000 X156.399 Y159.228
G1 F780 X78.161 Y80.989 E406.676
G0 F6000 X78.161 Y80.424
G1 F780 X156.685 Y158.948 E411.84694
G0 F6000 X156.83 Y158.527
G1 F780 X78.161 Y79.858 E417.02743
G0 F6000 X78.161 Y79.292
G1 F780 X156.837 Y157.969 E422.20841
G0 F6000 X156.837 Y157.403
G1 F780 X78.161 Y78.727 E427.38936
G0 F6000 X78.161 Y78.161
G1 F780 X156.837 Y156.837 E432.57031
G0 F6000 X156.837 Y156.272
G1 F780 X78.161 Y77.595 E437.75129
G0 F6000 X78.161 Y77.03
G1 F780 X156.837 Y155.706 E442.93224
G0 F6000 X156.837 Y155.14
G1 F780 X78.168 Y76.471 E448.11273
G0 F6000 X78.313 Y76.05
G1 F780 X156.837 Y154.574 E453.28367
G0 F6000 X156.837 Y154.009
G1 F780 X78.598 Y75.77 E458.43584
G0 F6000 X79.056 Y75.662
G1 F780 X156.837 Y153.443 E463.55785
G0 F6000 X156.837 Y152.877
G1 F780 X79.622 Y75.662 E468.64259
G0 F6000 X80.188 Y75.662
G1 F780 X156.837 Y152.312 E473.69009
G0 F6000 X156.837 Y151.746
G1 F780 X80.753 Y75.662 E478.70035
G0 F6000 X81.319 Y75.662
G1 F780 X156.837 Y151.18 E483.67334
G0 F6000 X156.837 Y150.615
G1 F780 X81.885 Y75.662 E488.60909
G0 F6000 X82.45 Y75.662
G1 F780 X156.837 Y150.049 E493.5076
G0 F6000 X156.837 Y149.483
G1 F780 X83.016 Y75.662 E498.36884
G0 F6000 X83.582 Y75.662
G1 F780 X156.837 Y148.918 E503.19284
G0 F6000 X156.837 Y148.352
G1 F780 X84.147 Y75.662 E507.9796
G0 F6000 X84.713 Y75.662
G1 F780 X156.837 Y147.786 E512.72909
G0 F6000 X156.837 Y147.221
G1 F780 X85.279 Y75.662 E517.44134
G0 F6000 X85.844 Y75.662
G1 F780 X156.837 Y146.655 E522.11635
G0 F6000 X156.837 Y146.089
G1 F780 X86.41 Y75.662 E526.75409
G0 F6000 X86.976 Y75.662
G1 F780 X156.837 Y145.523 E531.35456
G0 F6000 X156.837 Y144.958
G1 F780 X87.541 Y75.662 E535.91782
G0 F6000 X88.107 Y75.662
G1 F780 X156.837 Y144.392 E540.4438
G0 F6000 X156.837 Y143.826
G1 F780 X88.673 Y75.662 E544.93252
G0 F6000 X89.238 Y75.662
G1 F780 X156.837 Y143.261 E549.38403
G0 F6000 X156.837 Y142.695
G1 F780 X89.804 Y75.662 E553.79827
G0 F6000 X90.37 Y75.662
G1 F780 X156.837 Y142.129 E558.17523
G0 F6000 X156.837 Y141.564
G1 F780 X90.936 Y75.662 E562.51496
G0 F6000 X91.501 Y75.662
G1 F780 X156.837 Y140.998 E566.81745
G0 F6000 X156.837 Y140.432
G1 F780 X92.067 Y75.662 E571.08266
G0 F6000 X92.633 Y75.662
G1 F780 X156.837 Y139.867 E575.31064
G0 F6000 X156.837 Y139.301
G1 F780 X93.198 Y75.662 E579.50137
G0 F6000 X93.764 Y75.662
G1 F780 X156.837 Y138.735 E583.65484
G0 F6000 X156.837 Y138.17
G1 F780 X94.33 Y75.662 E587.77106
G0 F6000 X94.895 Y75.662
G1 F780 X156.837 Y137.604 E591.85005
