;FLAVOR:Marlin
;TIME:5853
;Filament used: 7.46832m
;Layer height: 0.28
;MINX:77.2
;MINY:74.7
;MINZ:0.28
;MAXX:157.8
;MAXY:160.3
;MAXZ:10.08
;TARGET_MACHINE.NAME:Creality Ender-3
;Generated with Cura_SteamEngine 5.6.0
M140 S60
M105
M190 S60
M104 S210
M105
M109 S210
M82 ;absolute extrusion mode
; Ender 3 Custom Start G-code
G92 E0 ; Reset Extruder
G28 ; Home all axes
G1 Z2.0 F3000 ; Move Z Axis up little to prevent scratching of Heat Bed
G1 X0.1 Y20 Z0.3 F5000.0 ; Move to start position
G1 X0.1 Y200.0 Z0.3 F1500.0 E15 ; Draw the first line
G1 X0.4 Y200.0 Z0.3 F5000.0 ; Move to side a little
G1 X0.4 Y20 Z0.3 F1500.0 E30 ; Draw the second line
G92 E0 ; Reset Extruder
G1 Z2.0 F3000 ; Move Z Axis up little to prevent scratching of Heat Bed
G1 X5 Y20 Z0.3 F5000.0 ; Move over to prevent blob squish
G92 E0
G92 E0
G1 F2700 E-5
;LAYER_COUNT:36
;LAYER:0
M107
;MESH:Golf Cart V3 Controller Case Lid.stl
G0 F6000 X157.4 Y159.9 Z0.28
;TYPE:WALL-INNER
G1 F2700 E0
G1 F780 X157.4 Y75.1 E3.94864
G1 X77.6 Y75.1 E7.66447
G1 X77.6 Y159.9 E11.61311
G1 X157.4 Y159.9 E15.32893
G0 F6000 X157.8 Y160.3
;TYPE:WALL-OUTER
G1 F780 X157.8 Y74.7 E19.31483
G1 X77.2 Y74.7 E23.0679
G1 X77.2 Y160.3 E27.05379
G1 X157.8 Y160.3 E30.80687
G0 F6000 X157.53 Y160.03
G0 X157.3 Y159.54
G0 X157.04 Y159.54
;TYPE:SKIN
G1 F780 X77.96 Y159.54 E34.48916
G1 X77.96 Y75.46 E38.40428
G1 X157.04 Y75.46 E42.08658
G1 X157.04 Y159.54 E46.00169
G1 F2700 E41.00169
G0 F6000 X157.3 Y159.54
G0 X78.445 Y159.8
G0 X78.445 Y159.338
G1 F2700 E46.00169
G1 F780 X78.159 Y159.052 E46.02053
G0 F6000 X78.159 Y158.486
G1 F780 X79.011 Y159.338 E46.07663
G0 F6000 X79.577 Y159.338
G1 F780 X78.159 Y157.92 E46.17001
G0 F6000 X78.159 Y157.355
G1 F780 X80.142 Y159.338 E46.30059
G0 F6000 X80.708 Y159.338
G1 F780 X78.159 Y156.789 E46.46845
G0 F6000 X78.159 Y156.223
G1 F780 X81.274 Y159.338 E46.67358
G0 F6000 X81.839 Y159.338
G1 F780 X78.159 Y155.658 E46.91591
G0 F6000 X78.159 Y155.092
G1 F780 X82.405 Y159.338 E47.19552
G0 F6000 X82.971 Y159.338
G1 F780 X78.159 Y154.526 E47.5124
G0 F6000 X78.159 Y153.961
G1 F780 X83.536 Y159.338 E47.86648
G0 F6000 X84.102 Y159.338
G1 F780 X78.159 Y153.395 E48.25784
G0 F6000 X78.159 Y152.829
G1 F780 X84.668 Y159.338 E48.68647
G0 F6000 X85.233 Y159.338
G1 F780 X78.159 Y152.264 E49.1523
G0 F6000 X78.159 Y151.698
G1 F780 X85.799 Y159.338 E49.65541
G0 F6000 X86.365 Y159.338
G1 F780 X78.159 Y151.132 E50.19579
G0 F6000 X78.159 Y150.567
G1 F780 X86.931 Y159.338 E50.77341
G0 F6000 X87.496 Y159.338
G1 F780 X78.159 Y150.001 E51.38826
G0 F6000 X78.159 Y149.435
G1 F780 X88.062 Y159.338 E52.04039
G0 F6000 X88.628 Y159.338
G1 F780 X78.159 Y148.87 E52.72976
G0 F6000 X78.159 Y148.304
G1 F780 X89.193 Y159.338 E53.45637
G0 F6000 X89.759 Y159.338
G1 F780 X78.159 Y147.738 E54.22025
G0 F6000 X78.159 Y147.172
G1 F780 X90.325 Y159.338 E55.0214
G0 F6000 X90.89 Y159.338
G1 F780 X78.159 Y146.607 E55.85976
G0 F6000 X78.159 Y146.041
G1 F780 X91.456 Y159.338 E56.73539
G0 F6000 X92.022 Y159.338
G1 F780 X78.159 Y145.475 E57.64829
G0 F6000 X78.159 Y144.91
G1 F780 X92.587 Y159.338 E58.5984
G0 F6000 X93.153 Y159.338
G1 F780 X78.159 Y144.344 E59.58578
G0 F6000 X78.159 Y143.778
G1 F780 X93.719 Y159.338 E60.61043
G0 F6000 X94.284 Y159.338
G1 F780 X78.159 Y143.213 E61.67229
G0 F6000 X78.159 Y142.647
G1 F780 X94.85 Y159.338 E62.77142
G0 F6000 X95.416 Y159.338
G1 F780 X78.159 Y142.081 E63.90783
G0 F6000 X78.159 Y141.516
G1 F780 X95.981 Y159.338 E65.08144
G0 F6000 X96.547 Y159.338
G1 F780 X78.159 Y140.95 E66.29232
G0 F6000 X78.159 Y140.384
G1 F780 X97.113 Y159.338 E67.54047
G0 F6000 X97.679 Y159.338
G1 F780 X78.159 Y139.819 E68.82586
G0 F6000 X78.159 Y139.253
G1 F780 X98.244 Y159.338 E70.14849
G0 F6000 X98.81 Y159.338
G1 F780 X78.159 Y138.687 E71.5084
G0 F6000 X78.159 Y138.121
G1 F780 X99.376 Y159.338 E72.90557
G0 F6000 X99.941 Y159.338
G1 F780 X78.159 Y137.556 E74.33996
G0 F6000 X78.159 Y136.99
G1 F780 X100.507 Y159.338 E75.81161
G0 F6000 X101.073 Y159.338
G1 F780 X78.159 Y136.424 E77.32054
G0 F6000 X78.159 Y135.859
G1 F780 X101.638 Y159.338 E78.86667
G0 F6000 X102.204 Y159.338
G1 F780 X78.159 Y135.293 E80.45007
G0 F6000 X78.159 Y134.727
G1 F780 X102.77 Y159.338 E82.07075
G0 F6000 X103.335 Y159.338
G1 F780 X78.159 Y134.162 E83.72863
G0 F6000 X78.159 Y133.596
G1 F780 X103.901 Y159.338 E85.42379
G0 F6000 X104.467 Y159.338
G1 F780 X78.159 Y133.03 E87.15621
G0 F6000 X78.159 Y132.465
G1 F780 X105.032 Y159.338 E88.92585
G0 F6000 X105.598 Y159.338
G1 F780 X78.159 Y131.899 E90.73275
G0 F6000 X78.159 Y131.333
G1 F780 X106.164 Y159.338 E92.57693
G0 F6000 X106.729 Y159.338
G1 F780 X78.159 Y130.768 E94.45831
G0 F6000 X78.159 Y130.202
G1 F780 X107.295 Y159.338 E96.37697
G0 F6000 X107.861 Y159.338
G1 F780 X78.159 Y129.636 E98.33289
G0 F6000 X78.159 Y129.071
G1 F780 X108.427 Y159.338 E100.32606
G0 F6000 X108.992 Y159.338
G1 F780 X78.159 Y128.505 E102.35647
G0 F6000 X78.159 Y127.939
G1 F780 X109.558 Y159.338 E104.42414
G0 F6000 X110.124 Y159.338
G1 F780 X78.159 Y127.373 E106.52909
G0 F6000 X78.159 Y126.808
G1 F780 X110.689 Y159.338 E108.67125
G0 F6000 X111.255 Y159.338
G1 F780 X78.159 Y126.242 E110.85068
G0 F6000 X78.159 Y125.676
G1 F780 X111.821 Y159.338 E113.06738
G0 F6000 X112.386 Y159.338
G1 F780 X78.159 Y125.111 E115.32128
G0 F6000 X78.159 Y124.545
G1 F780 X112.952 Y159.338 E117.61246
G0 F6000 X113.518 Y159.338
G1 F780 X78.159 Y123.979 E119.94091
G0 F6000 X78.159 Y123.414
G1 F780 X114.083 Y159.338 E122.30657
G0 F6000 X114.649 Y159.338
G1 F780 X78.159 Y122.848 E124.7095
G0 F6000 X78.159 Y122.282
G1 F780 X115.215 Y159.338 E127.1497
G0 F6000 X115.78 Y159.338
G1 F780 X78.159 Y121.717 E129.62711
G0 F6000 X78.159 Y121.151
G1 F780 X116.346 Y159.338 E132.14179
G0 F6000 X116.912 Y159.338
G1 F780 X78.159 Y120.585 E134.69374
G0 F6000 X78.159 Y120.02
G1 F780 X117.478 Y159.338 E137.28293
G0 F6000 X118.043 Y159.338
G1 F780 X78.159 Y119.454 E139.90936
G0 F6000 X78.159 Y118.888
G1 F780 X118.609 Y159.338 E142.57306
G0 F6000 X119.175 Y159.338
G1 F780 X78.159 Y118.323 E145.274
G0 F6000 X78.159 Y117.757
G1 F780 X119.74 Y159.338 E148.01218
G0 F6000 X120.306 Y159.338
G1 F780 X78.159 Y117.191 E150.78763
G0 F6000 X78.159 Y116.625
G1 F780 X120.872 Y159.338 E153.60035
G0 F6000 X121.437 Y159.338
G1 F780 X78.159 Y116.06 E156.45029
G0 F6000 X78.159 Y115.494
G1 F780 X122.003 Y159.338 E159.33749
G0 F6000 X122.569 Y159.338
G1 F780 X78.159 Y114.928 E162.26196
G0 F6000 X78.159 Y114.363
G1 F780 X123.134 Y159.338 E165.22364
G0 F6000 X123.7 Y159.338
G1 F780 X78.159 Y113.797 E168.22259
G0 F6000 X78.159 Y113.231
G1 F780 X124.266 Y159.338 E171.25882
G0 F6000 X124.831 Y159.338
G1 F780 X78.159 Y112.666 E174.33225
G0 F6000 X78.159 Y112.1
G1 F780 X125.397 Y159.338 E177.44295
G0 F6000 X125.963 Y159.338
G1 F780 X78.159 Y111.534 E180.59093
G0 F6000 X78.159 Y110.969
G1 F780 X126.528 Y159.338 E183.77611
G0 F6000 X127.094 Y159.338
G1 F780 X78.159 Y110.403 E186.99856
G0 F6000 X78.159 Y109.837
G1 F780 X127.66 Y159.338 E190.25829
G0 F6000 X128.226 Y159.338
G1 F780 X78.159 Y109.272 E193.55525
G0 F6000 X78.159 Y108.706
G1 F780 X128.791 Y159.338 E196.88946
G0 F6000 X129.357 Y159.338
G1 F780 X78.159 Y108.14 E200.26093
G0 F6000 X78.159 Y107.574
G1 F780 X129.923 Y159.338 E203.66968
G0 F6000 X130.488 Y159.338
G1 F780 X78.159 Y107.009 E207.11563
G0 F6000 X78.159 Y106.443
G1 F780 X131.054 Y159.338 E210.59886
G0 F6000 X131.62 Y159.338
G1 F780 X78.159 Y105.877 E214.11936
G0 F6000 X78.159 Y105.312
G1 F780 X132.185 Y159.338 E217.67706
G0 F6000 X132.751 Y159.338
G1 F780 X78.159 Y104.746 E221.27204
G0 F6000 X78.159 Y104.18
G1 F780 X133.317 Y159.338 E224.90429
G0 F6000 X133.882 Y159.338
G1 F780 X78.159 Y103.615 E228.57374
G0 F6000 X78.159 Y103.049
G1 F780 X134.448 Y159.338 E232.28047
G0 F6000 X135.014 Y159.338
G1 F780 X78.159 Y102.483 E236.02447
G0 F6000 X78.159 Y101.918
G1 F780 X135.579 Y159.338 E239.80567
G0 F6000 X136.145 Y159.338
G1 F780 X78.159 Y101.352 E243.62415
G0 F6000 X78.159 Y100.786
G1 F780 X136.711 Y159.338 E247.4799
G0 F6000 X137.277 Y159.338
G1 F780 X78.159 Y100.221 E251.37289
G0 F6000 X78.159 Y99.655
G1 F780 X137.842 Y159.338 E255.30312
G0 F6000 X138.408 Y159.338
G1 F780 X78.159 Y99.089 E259.27061
G0 F6000 X78.159 Y98.524
G1 F780 X138.974 Y159.338 E263.27535
G0 F6000 X139.539 Y159.338
G1 F780 X78.159 Y97.958 E267.31733
G0 F6000 X78.159 Y97.392
G1 F780 X140.105 Y159.338 E271.39658
G0 F6000 X140.671 Y159.338
G1 F780 X78.159 Y96.826 E275.5131
G0 F6000 X78.159 Y96.261
G1 F780 X141.236 Y159.338 E279.66683
G0 F6000 X141.802 Y159.338
G1 F780 X78.159 Y95.695 E283.85783
G0 F6000 X78.159 Y95.129
G1 F780 X142.368 Y159.338 E288.0861
G0 F6000 X142.933 Y159.338
G1 F780 X78.159 Y94.564 E292.35158
G0 F6000 X78.159 Y93.998
G1 F780 X143.499 Y159.338 E296.65433
G0 F6000 X144.065 Y159.338
G1 F780 X78.159 Y93.432 E300.99436
G0 F6000 X78.159 Y92.867
G1 F780 X144.63 Y159.338 E305.37158
G0 F6000 X145.196 Y159.338
G1 F780 X78.159 Y92.301 E309.78609
G0 F6000 X78.159 Y91.735
G1 F780 X145.762 Y159.338 E314.23786
G0 F6000 X146.327 Y159.338
G1 F780 X78.159 Y91.17 E318.72684
G0 F6000 X78.159 Y90.604
G1 F780 X146.893 Y159.338 E323.25309
G0 F6000 X147.459 Y159.338
G1 F780 X78.159 Y90.038 E327.81661
G0 F6000 X78.159 Y89.473
G1 F780 X148.025 Y159.338 E332.41737
G0 F6000 X148.59 Y159.338
G1 F780 X78.159 Y88.907 E337.05538
G0 F6000 X78.159 Y88.341
G1 F780 X149.156 Y159.338 E341.73065
G0 F6000 X149.722 Y159.338
G1 F780 X78.159 Y87.775 E346.4432
G0 F6000 X78.159 Y87.21
G1 F780 X150.287 Y159.338 E351.19295
G0 F6000 X150.853 Y159.338
G1 F780 X78.159 Y86.644 E355.97997
G0 F6000 X78.159 Y86.078
G1 F780 X151.419 Y159.338 E360.80427
G0 F6000 X151.984 Y159.338
G1 F780 X78.159 Y85.513 E365.66577
G0 F6000 X78.159 Y84.947
G1 F780 X152.55 Y159.338 E370.56454
G0 F6000 X153.116 Y159.338
G1 F780 X78.159 Y84.381 E375.50059
G0 F6000 X78.159 Y83.816
G1 F780 X153.681 Y159.338 E380.47384
G0 F6000 X154.247 Y159.338
G1 F780 X78.159 Y83.25 E385.48437
G0 F6000 X78.159 Y82.684
G1 F780 X154.813 Y159.338 E390.53217
G0 F6000 X155.378 Y159.338
G1 F780 X78.159 Y82.119 E395.61717
G0 F6000 X78.159 Y81.553
G1 F780 X155.944 Y159.338 E400.73944
G0 F6000 X156.51 Y159.338
G1 F780 X78.159 Y80.987 E405.89899
G0 F6000 X78.159 Y80.422
G1 F780 X156.84 Y159.103 E411.08027
G0 F6000 X156.84 Y158.537
G1 F780 X78.159 Y79.856 E416.26155
G0 F6000 X78.159 Y79.29
G1 F780 X156.84 Y157.971 E421.44282
G0 F6000 X156.84 Y157.406
G1 F780 X78.159 Y78.725 E426.6241
G0 F6000 X78.159 Y78.159
G1 F780 X156.84 Y156.84 E431.80538
G0 F6000 X156.84 Y156.274
G1 F780 X78.159 Y77.593 E436.98666
G0 F6000 X78.159 Y77.027
G1 F780 X156.84 Y155.709 E442.16797
G0 F6000 X156.84 Y155.143
G1 F780 X78.159 Y76.462 E447.34925
G0 F6000 X78.159 Y75.896
G1 F780 X156.84 Y154.577 E452.53053
G0 F6000 X156.84 Y154.012
G1 F780 X78.488 Y75.66 E457.69014
G0 F6000 X79.054 Y75.66
G1 F780 X156.84 Y153.446 E462.81248
G0 F6000 X156.84 Y152.88
G1 F780 X79.62 Y75.66 E467.89755
G0 F6000 X80.185 Y75.66
G1 F780 X156.84 Y152.315 E472.94541
G0 F6000 X156.84 Y151.749
G1 F780 X80.751 Y75.66 E477.956
G0 F6000 X81.317 Y75.66
G1 F780 X156.84 Y151.183 E482.92932
G0 F6000 X156.84 Y150.617
G1 F780 X81.882 Y75.66 E487.8654
G0 F6000 X82.448 Y75.66
G1 F780 X156.84 Y150.052 E492.76424
G0 F6000 X156.84 Y149.486
G1 F780 X83.014 Y75.66 E497.62581
G0 F6000 X83.58 Y75.66
G1 F780 X156.84 Y148.92 E502.45011
G0 F6000 X156.84 Y148.355
G1 F780 X84.145 Y75.66 E507.2372
G0 F6000 X84.711 Y75.66
G1 F780 X156.84 Y147.789 E511.98701
G0 F6000 X156.84 Y147.223
G1 F780 X85.277 Y75.66 E516.69956
G0 F6000 X85.842 Y75.66
G1 F780 X156.84 Y146.658 E521.3749
G0 F6000 X156.84 Y146.092
G1 F780 X86.408 Y75.66 E526.01297
G0 F6000 X86.974 Y75.66
G1 F780 X156.84 Y145.526 E530.61376
G0 F6000 X156.84 Y144.961
G1 F780 X87.539 Y75.66 E535.17735
G0 F6000 X88.105 Y75.66
G1 F780 X156.84 Y144.395 E539.70367
G0 F6000 X156.84 Y143.829
G1 F780 X88.671 Y75.66 E544.19271
G0 F6000 X89.236 Y75.66
G1 F780 X156.84 Y143.264 E548.64455
G0 F6000 X156.84 Y142.698
G1 F780 X89.802 Y75.66 E553.05912
G0 F6000 X90.368 Y75.66
G1 F780 X156.84 Y142.132 E557.43641
G0 F6000 X156.84 Y141.567
G1 F780 X90.933 Y75.66 E561.7765
G0 F6000 X91.499 Y75.66
G1 F780 X156.84 Y141.001 E566.07932
G0 F6000 X156.84 Y140.435
G1 F780 X92.065 Y75.66 E570.34486
G0 F6000 X92.63 Y75.66
G1 F780 X156.84 Y139.869 E574.57317
G0 F6000 X156.84 Y139.304
G1 F780 X93.196 Y75.66 E578.76423
G0 F6000 X93.762 Y75.66
G1 F780 X156.84 Y138.738 E582.91803
G0 F6000 X156.84 Y138.172
G1 F780 X94.328 Y75.66 E587.03455
G0 F6000 X94.893 Y75.66
G1 F780 X156.84 Y137.607 E591.11387
G0 F6000 X156.84 Y137.041
G1 F780 X95.459 Y75.66 E595.15591
G0 F6000 X96.025 Y75.66
G1 F780 X156.84 Y136.475 E599.16068
G0 F6000 X156.84 Y135.91
G1 F780 X96.59 Y75.66 E603.12825
G0 F6000 X97.156 Y75.66
G1 F780 X156.84 Y135.344 E607.05854
G0 F6000 X156.84 Y134.778
G1 F780 X97.722 Y75.66 E610.95156
G0 F6000 X98.287 Y75.66
G1 F780 X156.84 Y134.213 E614.80738
G0 F6000 X156.84 Y133.647
G1 F780 X98.853 Y75.66 E618.62592
G0 F6000 X99.419 Y75.66
G1 F780 X156.84 Y133.081 E622.40719
G0 F6000 X156.84 Y132.516
G1 F780 X99.984 Y75.66 E626.15125
G0 F6000 X100.55 Y75.66
G1 F780 X156.84 Y131.95 E629.85805
G0 F6000 X156.84 Y131.384
G1 F780 X101.116 Y75.66 E633.52757
G0 F6000 X101.681 Y75.66
G1 F780 X156.84 Y130.818 E637.15985
G0 F6000 X156.84 Y130.253
G1 F780 X102.247 Y75.66 E640.75489
G0 F6000 X102.813 Y75.66
G1 F780 X156.84 Y129.687 E644.31266
G0 F6000 X156.84 Y129.121
G1 F780 X103.379 Y75.66 E647.83316
G0 F6000 X103.944 Y75.66
G1 F780 X156.84 Y128.556 E651.31645
G0 F6000 X156.84 Y127.99
G1 F780 X104.51 Y75.66 E654.76247
G0 F6000 X105.076 Y75.66
G1 F780 X156.84 Y127.424 E658.17122
G0 F6000 X156.84 Y126.859
G1 F780 X105.641 Y75.66 E661.54276
G0 F6000 X106.207 Y75.66
G1 F780 X156.84 Y126.293 E664.87703
G0 F6000 X156.84 Y125.727
G1 F780 X106.773 Y75.66 E668.17403
G0 F6000 X107.338 Y75.66
G1 F780 X156.84 Y125.162 E671.43382
G0 F6000 X156.84 Y124.596
G1 F780 X107.904 Y75.66 E674.65634
G0 F6000 X108.47 Y75.66
G1 F780 X156.84 Y124.03 E677.84159
G0 F6000 X156.84 Y123.465
G1 F780 X109.035 Y75.66 E680.98963
G0 F6000 X109.601 Y75.66
G1 F780 X156.84 Y122.899 E684.1004
G0 F6000 X156.84 Y122.333
G1 F780 X110.167 Y75.66 E687.17389
G0 F6000 X110.732 Y75.66
G1 F780 X156.84 Y121.768 E690.21018
G0 F6000 X156.84 Y121.202
G1 F780 X111.298 Y75.66 E693.2092
G0 F6000 X111.864 Y75.66
G1 F780 X156.84 Y120.636 E696.17095
G0 F6000 X156.84 Y120.07
G1 F780 X112.429 Y75.66 E699.09545
G0 F6000 X112.995 Y75.66
G1 F780 X156.84 Y119.505 E701.98272
G0 F6000 X156.84 Y118.939
G1 F780 X113.561 Y75.66 E704.83272
G0 F6000 X114.127 Y75.66
G1 F780 X156.84 Y118.373 E707.64544
G0 F6000 X156.84 Y117.808
G1 F780 X114.692 Y75.66 E710.42096
G0 F6000 X115.258 Y75.66
G1 F780 X156.839 Y117.241 E713.15914
G0 F6000 X156.839 Y116.676
G1 F780 X115.824 Y75.66 E715.86008
G0 F6000 X116.389 Y75.66
G1 F780 X156.839 Y116.11 E718.52378
G0 F6000 X156.839 Y115.544
G1 F780 X116.955 Y75.66 E721.15021
G0 F6000 X117.521 Y75.66
G1 F780 X156.839 Y114.979 E723.7394
G0 F6000 X156.839 Y114.413
G1 F780 X118.086 Y75.66 E726.29135
G0 F6000 X118.652 Y75.66
G1 F780 X156.839 Y113.847 E728.80603
G0 F6000 X156.839 Y113.282
G1 F780 X119.218 Y75.66 E731.28347
G0 F6000 X119.783 Y75.66
G1 F780 X156.839 Y112.716 E733.72367
G0 F6000 X156.839 Y112.15
G1 F780 X120.349 Y75.66 E736.1266
G0 F6000 X120.915 Y75.66
G1 F780 X156.839 Y111.584 E738.49226
G0 F6000 X156.839 Y111.019
G1 F780 X121.48 Y75.66 E740.82071
G0 F6000 X122.046 Y75.66
G1 F780 X156.839 Y110.453 E743.11189
G0 F6000 X156.839 Y109.887
G1 F780 X122.612 Y75.66 E745.36579
G0 F6000 X123.178 Y75.66
G1 F780 X156.839 Y109.322 E747.58246
G0 F6000 X156.839 Y108.756
G1 F780 X123.743 Y75.66 E749.76189
G0 F6000 X124.309 Y75.66
G1 F780 X156.839 Y108.19 E751.90405
G0 F6000 X156.839 Y107.625
G1 F780 X124.875 Y75.66 E754.00896
G0 F6000 X125.44 Y75.66
G1 F780 X156.839 Y107.059 E756.07664
G0 F6000 X156.839 Y106.493
G1 F780 X126.006 Y75.66 E758.10705
G0 F6000 X126.572 Y75.66
G1 F780 X156.839 Y105.928 E760.10021
G0 F6000 X156.839 Y105.362
G1 F780 X127.137 Y75.66 E762.05614
G0 F6000 X127.703 Y75.66
G1 F780 X156.839 Y104.796 E763.9748
G0 F6000 X156.839 Y104.231
G1 F780 X128.269 Y75.66 E765.85621
