;FLAVOR:Marlin
;TIME:12269
;Filament used: 9.805m
;Layer height: 0.2
;MINX:0
;MINY:24.644
;MINZ:0.2
;MAXX:108.521
;MAXY:154.822
;MAXZ:14.4
;TARGET_MACHINE.NAME:Creality Ender-3
;Generated with Cura_SteamEngine 5.6.0
M140 S50
M105
M190 S50
M104 S200
M105
M109 S200
M82 ;absolute extrusion mode
; Ender 3 Custom Start G-code
G92 E0 ; Reset Extruder
G28 ; Home all axes
G1 Z2.0 F3000 ; Move Z Axis up little to prevent scratching of Heat Bed
G1 X0.1 Y20 Z0.3 F5000.0 ; Move to start position
G1 X0.1 Y200.0 Z0.3 F1500.0 E15 ; Draw the first line
G1 X0.4 Y200.0 Z0.3 F5000.0 ; Move to side a little
G1 X0.4 Y20 Z0.3 F1500.0 E30 ; Draw the second line
G92 E0 ; Reset Extruder
G1 Z2.0 F3000 ; Move Z Axis up little to prevent scratching of Heat Bed
G1 X5 Y20 Z0.3 F5000.0 ; Move over to prevent blob squish
G92 E0
G92 E0
G1 F2700 E-5
;LAYER_COUNT:72
;LAYER:0
M107
G0 F6000 X0.00 Y30.063 Z0.2
;TYPE:SKIRT
G1 F2700 E0
G1 F1200 X0.318 Y29.598 E0.01892
G1 X0.922 Y28.862 E0.05091
G1 X1.163 Y28.595 E0.06299
G1 X1.848 Y27.902 E0.09572
G1 X2.56 Y27.297 E0.12711
G1 X3.192 Y26.84 E0.15331
G1 X3.49 Y26.641 E0.16535
G1 X4.323 Y26.138 E0.19804
G1 X5.133 Y25.738 E0.22838
G1 X5.798 Y25.468 E0.25249
G1 X6.158 Y25.336 E0.26537
G1 X7.122 Y25.033 E0.29932
G1 X8.072 Y24.826 E0.33198
G1 X8.968 Y24.708 E0.36234
G1 X9.73 Y24.667 E0.38798
G1 X10.909 Y24.646 E0.42759
G1 X94.923 Y24.644 E3.24985
G1 X95.809 Y24.657 E3.27961
G1 X96.779 Y24.716 E3.31226
G1 X97.706 Y24.854 E3.34374
G1 X98.623 Y25.069 E3.37538
G1 X99.555 Y25.356 E3.40814
G1 X100.392 Y25.694 E3.43846
G1 X101.297 Y26.143 E3.4724
G1 X102.142 Y26.627 E3.50511
G1 X102.941 Y27.184 E3.53783
G1 X103.683 Y27.805 E3.57034
G1 X104.362 Y28.473 E3.60233
G1 X105.019 Y29.206 E3.6354
G1 X105.769 Y30.233 E3.67812
G1 X105.972 Y30.55 E3.69077
G1 X106.467 Y31.409 E3.72407
G1 X106.878 Y32.292 E3.75679
G1 X107.197 Y33.173 E3.78826
G1 X107.454 Y34.132 E3.82162
G1 X107.54 Y34.533 E3.83539
G1 X107.703 Y35.499 E3.8683
G1 X107.785 Y36.618 E3.90599
G1 X107.797 Y37.322 E3.92965
G1 X107.798 Y80.269 E5.37235
G1 X107.835 Y82.841 E5.45876
G1 X107.944 Y85.407 E5.54504
G1 X108.118 Y87.874 E5.62812
G1 X108.337 Y90.121 E5.70396
G1 X108.436 Y91.041 E5.73504
G1 X108.497 Y91.99 E5.76699
G1 X108.519 Y93.233 E5.80875
G1 X108.521 Y141.916 E7.44415
G1 X108.508 Y142.827 E7.47475
G1 X108.45 Y143.798 E7.50743
G1 X108.318 Y144.692 E7.53779
G1 X108.157 Y145.409 E7.56247
G1 X108.048 Y145.823 E7.57685
G1 X107.759 Y146.754 E7.6096
G1 X107.399 Y147.631 E7.64145
G1 X106.715 Y148.892 E7.68964
G1 X106.513 Y149.212 E7.70235
G1 X105.998 Y149.954 E7.73269
G1 X105.335 Y150.749 E7.76747
G1 X104.87 Y151.226 E7.78984
G1 X104.64 Y151.447 E7.80056
G1 X103.902 Y152.095 E7.83355
G1 X102.973 Y152.763 E7.87199
G1 X102.574 Y153.017 E7.88788
G1 X101.73 Y153.504 E7.92061
G1 X100.911 Y153.886 E7.95097
G1 X99.93 Y154.241 E7.98602
G1 X99.058 Y154.473 E8.01633
G1 X98.442 Y154.591 E8.0374
G1 X97.972 Y154.666 E8.05338
G1 X97.016 Y154.778 E8.08572
G1 X96.428 Y154.803 E8.10549
G1 X95.31 Y154.821 E8.14305
G1 X11.595 Y154.822 E10.95527
G1 X10.761 Y154.81 E10.98329
G1 X9.533 Y154.72 E11.02465
G1 X9.038 Y154.654 E11.04142
G1 X8.079 Y154.479 E11.07417
G1 X7.176 Y154.232 E11.10562
G1 X6.332 Y153.927 E11.13577
G1 X5.505 Y153.566 E11.16608
G1 X4.592 Y153.068 E11.20102
G1 X3.838 Y152.572 E11.23133
G1 X3.034 Y151.968 E11.26511
G1 X2.087 Y151.098 E11.30831
G1 X1.354 Y150.276 E11.34531
G1 X0.753 Y149.464 E11.37925
G1 X0.238 Y148.621 E11.41243
G1 X0.00 Y148.183 E11.42918
G1 F2700 E6.42918
G0 F6000 X0.00 Y30.803
G1 F2700 E11.42918
G1 F1200 X0.098 Y30.628 E11.43592
G1 X0.627 Y29.852 E11.46746
G1 X1.219 Y29.13 E11.49883
G1 X1.448 Y28.876 E11.51032
G1 X2.107 Y28.207 E11.54186
G1 X2.795 Y27.621 E11.57222
G1 X3.415 Y27.172 E11.59794
G1 X3.697 Y26.983 E11.60934
G1 X4.5 Y26.497 E11.64087
G1 X5.31 Y26.097 E11.67122
G1 X5.936 Y25.844 E11.6939
G1 X6.296 Y25.712 E11.70678
G1 X7.208 Y25.424 E11.73891
G1 X8.124 Y25.223 E11.77041
G1 X9.02 Y25.105 E11.80077
G1 X9.737 Y25.067 E11.82489
G1 X10.909 Y25.046 E11.86427
G1 X94.917 Y25.044 E14.68633
G1 X95.785 Y25.056 E14.71549
G1 X96.721 Y25.112 E14.74699
G1 X97.615 Y25.244 E14.77734
G1 X98.506 Y25.452 E14.80808
G1 X99.405 Y25.727 E14.83966
G1 X100.242 Y26.065 E14.86999
G1 X101.099 Y26.49 E14.90212
G1 X101.914 Y26.955 E14.93364
G1 X102.685 Y27.491 E14.96518
G1 X103.403 Y28.09 E14.9966
G1 X104.065 Y28.74 E15.02776
G1 X104.696 Y29.442 E15.05947
G1 X105.432 Y30.449 E15.10137
G1 X105.635 Y30.766 E15.11402
G1 X106.105 Y31.578 E15.14553
G1 X106.502 Y32.429 E15.17708
G1 X106.811 Y33.277 E15.2074
G1 X107.063 Y34.217 E15.24009
G1 X107.146 Y34.6 E15.25325
G1 X107.304 Y35.528 E15.28488
G1 X107.385 Y36.625 E15.32183
G1 X107.397 Y37.322 E15.34525
G1 X107.398 Y80.269 E16.78795
G1 X107.435 Y82.858 E16.87493
G1 X107.544 Y85.424 E16.96121
G1 X107.72 Y87.913 E17.04503
G1 X107.939 Y90.164 E17.12101
G1 X108.037 Y91.067 E17.15152
G1 X108.097 Y91.997 E17.18282
G1 X108.119 Y93.233 E17.22435
G1 X108.121 Y141.911 E18.85958
G1 X108.109 Y142.804 E18.88958
G1 X108.054 Y143.74 E18.92108
G1 X107.922 Y144.634 E18.95143
G1 X107.77 Y145.308 E18.97464
G1 X107.666 Y145.705 E18.98843
G1 X107.389 Y146.602 E19.01997
G1 X107.029 Y147.479 E19.05181
G1 X106.376 Y148.679 E19.09771
G1 X106.184 Y148.984 E19.10981
G1 X105.669 Y149.726 E19.14015
G1 X105.048 Y150.47 E19.17271
G1 X104.593 Y150.938 E19.19464
G1 X104.376 Y151.147 E19.20476
G1 X103.668 Y151.77 E19.23644
G1 X102.739 Y152.438 E19.27488
G1 X102.374 Y152.671 E19.28942
G1 X101.561 Y153.141 E19.32097
G1 X100.742 Y153.523 E19.35133
G1 X99.827 Y153.854 E19.38401
G1 X98.955 Y154.086 E19.41433
G1 X98.378 Y154.196 E19.43406
G1 X97.925 Y154.269 E19.44947
G1 X96.999 Y154.378 E19.48079
G1 X96.422 Y154.403 E19.50019
G1 X95.31 Y154.421 E19.53755
G1 X11.6 Y154.422 E22.3496
G1 X10.79 Y154.411 E22.37681
G1 X9.585 Y154.323 E22.4174
G1 X9.109 Y154.26 E22.43353
G1 X8.185 Y154.093 E22.46507
G1 X7.282 Y153.846 E22.49652
G1 X6.492 Y153.56 E22.52475
G1 X5.665 Y153.199 E22.55506
G1 X4.812 Y152.734 E22.58769
G1 X4.078 Y152.252 E22.61719
G1 X3.305 Y151.673 E22.64964
G1 X2.358 Y150.803 E22.69284
G1 X1.653 Y150.01 E22.72848
G1 X1.094 Y149.255 E22.76004
G1 X0.589 Y148.429 E22.79256
G1 X0.369 Y148.027 E22.80795
G1 X0.00 Y147.276 E22.83606
G1 F2700 E17.83606
G0 F6000 X0.00 Y31.624
G1 F2700 E22.83606
G1 F1200 X0.429 Y30.853 E22.8657
G1 X0.936 Y30.106 E22.89603
G1 X1.528 Y29.384 E22.9274
G1 X1.733 Y29.156 E22.93769
G1 X2.366 Y28.512 E22.96803
G1 X3.054 Y27.926 E22.99839
G1 X3.638 Y27.504 E23.02259
G1 X3.905 Y27.325 E23.03339
G1 X4.677 Y26.856 E23.06374
G1 X5.487 Y26.456 E23.09408
G1 X6.074 Y26.22 E23.11534
G1 X6.434 Y26.088 E23.12822
G1 X7.294 Y25.815 E23.15853
G1 X8.176 Y25.62 E23.18887
G1 X9.072 Y25.502 E23.21923
G1 X9.744 Y25.467 E23.24183
G1 X10.909 Y25.446 E23.28098
G1 X94.912 Y25.444 E26.10287
G1 X95.762 Y25.455 E26.13142
G1 X96.663 Y25.508 E26.16174
G1 X97.557 Y25.64 E26.1921
G1 X98.39 Y25.835 E26.22084
G1 X99.255 Y26.098 E26.25121
G1 X100.092 Y26.436 E26.28153
G1 X100.901 Y26.838 E26.31188
G1 X101.686 Y27.284 E26.34221
G1 X102.429 Y27.799 E26.37258
G1 X103.123 Y28.376 E26.4029
G1 X103.768 Y29.008 E26.43323
G1 X104.373 Y29.678 E26.46356
G1 X105.095 Y30.665 E26.50464
G1 X105.289 Y30.967 E26.5167
G1 X105.743 Y31.748 E26.54704
G1 X106.126 Y32.566 E26.57738
G1 X106.435 Y33.414 E26.6077
G1 X106.672 Y34.302 E26.63858
G1 X106.752 Y34.668 E26.65116
G1 X106.905 Y35.558 E26.6815
G1 X106.985 Y36.632 E26.71768
G1 X106.997 Y37.322 E26.74086
G1 X106.998 Y80.269 E28.18357
G1 X107.035 Y82.875 E28.27112
G1 X107.144 Y85.441 E28.3574
G1 X107.322 Y87.952 E28.44196
G1 X107.541 Y90.208 E28.5181
G1 X107.638 Y91.093 E28.54801
G1 X107.697 Y92.004 E28.57867
G1 X107.719 Y93.233 E28.61997
G1 X107.721 Y141.906 E30.25503
G1 X107.71 Y142.781 E30.28442
G1 X107.658 Y143.682 E30.31474
G1 X107.526 Y144.576 E30.3451
G1 X107.383 Y145.207 E30.36683
G1 X107.284 Y145.588 E30.38005
G1 X107.019 Y146.451 E30.41038
G1 X106.678 Y147.288 E30.44074
G1 X106.038 Y148.466 E30.48578
G1 X105.855 Y148.756 E30.4973
G1 X105.34 Y149.498 E30.52764
G1 X104.761 Y150.191 E30.55797
G1 X104.315 Y150.65 E30.57947
G1 X104.111 Y150.847 E30.589
G1 X103.434 Y151.445 E30.61934
G1 X102.523 Y152.101 E30.65706
G1 X102.173 Y152.325 E30.67101
G1 X101.392 Y152.778 E30.70134
G1 X100.573 Y153.16 E30.7317
G1 X99.724 Y153.467 E30.76203
G1 X98.852 Y153.699 E30.79234
G1 X98.314 Y153.801 E30.81074
G1 X97.878 Y153.872 E30.82558
G1 X96.981 Y153.978 E30.85592
G1 X96.415 Y154.003 E30.87495
G1 X95.31 Y154.021 E30.91208
G1 X11.605 Y154.022 E33.72396
G1 X10.819 Y154.012 E33.75036
G1 X9.614 Y153.924 E33.79095
G1 X9.179 Y153.866 E33.80569
G1 X8.29 Y153.707 E33.83603
G1 X7.418 Y153.47 E33.86638
G1 X6.652 Y153.193 E33.89375
G1 X5.825 Y152.832 E33.92406
G1 X5.032 Y152.4 E33.9544
G1 X4.298 Y151.918 E33.98389
G1 X3.575 Y151.378 E34.01421
G1 X2.657 Y150.537 E34.05603
G1 X1.974 Y149.771 E34.09051
G1 X1.435 Y149.046 E34.12085
G1 X0.94 Y148.236 E34.15274
G1 X0.728 Y147.85 E34.16754
G1 X0.328 Y147.04 E34.19788
G1 X0.00 Y146.191 E34.22846
G1 F2700 E29.22846
;MESH:RC Top Final 1.stl
G0 F6000 X62.235 Y81.748
G0 X69.289 Y81.442
;TYPE:WALL-INNER
G1 F2700 E34.22846
G1 F1200 X68.706 Y81.567 E34.24849
G1 X62.252 Y81.567 E34.4653
G1 X61.676 Y81.445 E34.48507
G1 X61.183 Y81.227 E34.50318
G1 X60.733 Y80.904 E34.52179
G1 X60.299 Y80.42 E34.54363
G1 X60.003 Y79.773 E34.56753
G1 X59.878 Y79.191 E34.58753
G1 X59.876 Y72.743 E34.80413
G1 X59.999 Y72.173 E34.82372
G1 X60.267 Y71.557 E34.84629
G1 X60.723 Y71.047 E34.86927
G1 X61.159 Y70.719 E34.8876
G1 X61.668 Y70.494 E34.90629
G1 X62.25 Y70.369 E34.92629
G1 X68.696 Y70.369 E35.14283
G1 X69.281 Y70.493 E35.16292
G1 X69.886 Y70.758 E35.1851
G1 X70.387 Y71.202 E35.20759
G1 X70.815 Y71.78 E35.23175
G1 X71.019 Y72.424 E35.25444
G1 X71.073 Y72.901 E35.27057
G1 X71.073 Y79.034 E35.4766
G1 X71.001 Y79.655 E35.4976
G1 X70.737 Y80.257 E35.51968
G1 X70.415 Y80.709 E35.53832
G1 X69.911 Y81.161 E35.56106
G1 X69.289 Y81.442 E35.58399
G1 F2700 E30.58399
G0 F6000 X69.33 Y81.533
G0 X70.292 Y80.599
G0 X70.596 Y80.176
G0 X70.852 Y79.592
G0 X70.915 Y78.99
G0 X70.915 Y72.944
G0 X70.865 Y72.459
G0 X70.663 Y71.843
G0 X70.447 Y71.55
G0 X69.337 Y70.322
G0 X69.341 Y67.611
G0 X69.284 Y67.44
G1 F2700 E35.58399
G1 F1200 X68.701 Y67.565 E35.60402
G1 X62.255 Y67.564 E35.82056
G1 X61.67 Y67.44 E35.84065
G1 X61.178 Y67.221 E35.85874
G1 X60.734 Y66.905 E35.87705
G1 X60.293 Y66.415 E35.89919
G1 X60.006 Y65.783 E35.92251
G1 X59.876 Y65.17 E35.94356
G1 X59.876 Y58.743 E36.15946
G1 X59.998 Y58.164 E36.17934
G1 X60.282 Y57.534 E36.20255
G1 X60.726 Y57.04 E36.22486
G1 X61.161 Y56.718 E36.24304
G1 X61.668 Y56.494 E36.26166
G1 X62.25 Y56.369 E36.28166
G1 X68.696 Y56.369 E36.4982
G1 X69.281 Y56.493 E36.51829
G1 X69.886 Y56.758 E36.54048
G1 X70.406 Y57.218 E36.5638
G1 X70.814 Y57.782 E36.58718
G1 X71.025 Y58.43 E36.61007
G1 X71.074 Y58.897 E36.62585
G1 X71.073 Y65.034 E36.83201
G1 X71.011 Y65.621 E36.85184
G1 X70.744 Y66.239 E36.87445
G1 X70.417 Y66.707 E36.89363
G1 X69.891 Y67.171 E36.91719
G1 X69.284 Y67.44 E36.9395
G1 F2700 E31.9395
G0 F6000 X69.829 Y67.308
G0 X68.686 Y67.406
G0 X62.273 Y67.406
G0 X60.613 Y67.04
G0 X58.4 Y66.331
G0 X57.397 Y67.168
G1 F2700 E36.9395
G1 F1200 X56.788 Y67.442 E36.96193
G1 X56.203 Y67.564 E36.982
G1 X49.736 Y67.562 E37.19925
G1 X49.192 Y67.446 E37.21793
G1 X48.702 Y67.234 E37.23587
G1 X48.253 Y66.917 E37.25433
G1 X47.793 Y66.416 E37.27718
G1 X47.5 Y65.773 E37.30092
G1 X47.377 Y65.179 E37.32129
G1 X47.377 Y58.762 E37.53686
G1 X47.511 Y58.138 E37.5583
G1 X47.791 Y57.524 E37.58097
G1 X48.214 Y57.055 E37.60218
G1 X48.67 Y56.714 E37.62131
G1 X49.188 Y56.488 E37.6403
G1 X49.728 Y56.372 E37.65885
G1 X56.197 Y56.37 E37.87616
G1 X56.788 Y56.496 E37.89646
G1 X57.42 Y56.781 E37.91975
G1 X57.908 Y57.221 E37.94182
G1 X58.314 Y57.78 E37.96503
G1 X58.523 Y58.422 E37.98771
G1 X58.574 Y58.901 E38.00389
G1 X58.574 Y65.034 E38.20992
G1 X58.511 Y65.622 E38.22978
G1 X58.241 Y66.244 E38.25256
G1 X57.912 Y66.712 E38.27178
G1 X57.397 Y67.168 E38.29489
G1 F2700 E33.29489
G0 F6000 X57.439 Y67.26
G0 X58.096 Y66.176
G0 X58.352 Y65.592
G0 X58.754 Y58.881
G0 X62.236 Y53.744
G0 X69.284 Y53.44
G1 F2700 E38.29489
G1 F1200 X68.701 Y53.565 E38.31492
G1 X62.255 Y53.564 E38.53146
G1 X61.67 Y53.44 E38.55154
G1 X61.178 Y53.221 E38.56964
G1 X60.736 Y52.906 E38.58787
G1 X60.288 Y52.408 E38.61037
G1 X60 Y51.764 E38.63407
G1 X59.876 Y51.196 E38.6536
G1 X59.878 Y44.751 E38.8701
G1 X60.001 Y44.168 E38.89012
G1 X60.273 Y43.543 E38.91302
G1 X60.728 Y43.038 E38.93585
G1 X61.162 Y42.718 E38.95397
G1 X61.664 Y42.492 E38.97246
G1 X62.246 Y42.367 E38.99246
G1 X68.699 Y42.367 E39.20923
G1 X69.277 Y42.489 E39.22907
G1 X69.904 Y42.767 E39.25211
G1 X70.403 Y43.216 E39.27466
G1 X70.81 Y43.769 E39.29773
G1 X71.021 Y44.429 E39.32101
G1 X71.073 Y44.891 E39.33662
G1 X71.073 Y51.034 E39.54299
G1 X71.005 Y51.641 E39.5635
G1 X70.735 Y52.256 E39.58607
G1 X70.413 Y52.705 E39.60463
G1 X69.892 Y53.171 E39.62811
G1 X69.284 Y53.44 E39.65044
G1 F2700 E34.65044
G0 F6000 X69.907 Y53.274
G0 X73.624 Y56.893
G0 X82.288 Y67.439
G1 F2700 E39.65044
G1 F1200 X81.724 Y67.562 E39.66983
G1 X75.269 Y67.565 E39.88668
G1 X74.675 Y67.441 E39.90706
G1 X74.169 Y67.215 E39.92568
G1 X73.736 Y66.906 E39.94355
G1 X73.295 Y66.417 E39.96567
G1 X73.009 Y65.79 E39.98882
G1 X72.877 Y65.204 E40.00899
G1 X72.876 Y58.744 E40.226
G1 X72.998 Y58.164 E40.24591
G1 X73.285 Y57.529 E40.26932
G1 X73.741 Y57.03 E40.29203
G1 X74.162 Y56.722 E40.30955
G1 X74.668 Y56.494 E40.3282
G1 X75.254 Y56.369 E40.34833
G1 X81.674 Y56.368 E40.56399
G1 X82.281 Y56.49 E40.58479
G1 X82.912 Y56.774 E40.60803
G1 X83.401 Y57.219 E40.63025
G1 X83.813 Y57.779 E40.6536
G1 X84.02 Y58.426 E40.67642
G1 X84.073 Y58.891 E40.69214
G1 X84.073 Y65.034 E40.8985
G1 X84.008 Y65.64 E40.91898
G1 X83.735 Y66.255 E40.94158
G1 X83.412 Y66.706 E40.96021
G1 X82.9 Y67.167 E40.98336
G1 X82.288 Y67.439 E41.00586
G1 F2700 E36.00586
G0 F6000 X83.007 Y67.313
G0 X95.318 Y67.315
G0 X95.466 Y86.988
G1 F2700 E41.00586
G1 F1200 X95.498 Y86.905 E41.00884
G1 X95.5 Y37.039 E42.68398
G1 X95.467 Y36.945 E42.68733
G1 X10.21 Y36.948 E45.55134
G1 X10.153 Y36.984 E45.55361
G1 X10.153 Y86.959 E47.2324
G1 X10.236 Y86.99 E47.23538
G1 X95.466 Y86.988 E50.09849
G0 F6000 X95.748 Y87.281
;TYPE:WALL-OUTER
G1 F1200 X95.863 Y87.114 E50.1053
G1 X95.899 Y86.947 E50.11104
G1 X95.899 Y36.987 E51.78933
G1 X95.862 Y36.819 E51.79511
G1 X95.75 Y36.654 E51.80181
G1 X95.462 Y36.545 E51.81216
G1 X10.137 Y36.548 E54.67846
G1 X9.937 Y36.624 E54.68564
G1 X9.801 Y36.78 E54.69259
G1 X9.753 Y36.903 E54.69703
G1 X9.753 Y86.955 E56.37841
G1 X9.862 Y87.239 E56.38863
G1 X10.029 Y87.354 E56.39544
G1 X10.194 Y87.39 E56.40112
G1 X95.464 Y87.389 E59.26557
G1 X95.748 Y87.281 E59.27578
G1 F2700 E54.27578
G0 F6000 X95.398 Y86.721
G0 X95.318 Y67.326
G0 X83.547 Y66.827
G0 X82.18 Y67.052
G1 F2700 E59.27578
G1 F1200 X81.668 Y67.166 E59.2934
G1 X75.303 Y67.167 E59.50722
G1 X74.797 Y67.06 E59.52459
G1 X74.378 Y66.874 E59.53999
G1 X74.008 Y66.608 E59.5553
G1 X73.621 Y66.18 E59.57468
G1 X73.385 Y65.655 E59.59402
G1 X73.276 Y65.144 E59.61157
G1 X73.28 Y58.769 E59.82572
G1 X73.39 Y58.269 E59.84292
G1 X73.613 Y57.769 E59.86131
G1 X73.989 Y57.346 E59.88032
G1 X74.364 Y57.068 E59.89601
G1 X74.793 Y56.874 E59.91182
G1 X75.293 Y56.767 E59.929
G1 X81.667 Y56.769 E60.14312
G1 X82.145 Y56.87 E60.15953
G1 X82.689 Y57.114 E60.17956
G1 X83.119 Y57.504 E60.19906
G1 X83.451 Y57.963 E60.21809
G1 X83.629 Y58.51 E60.23741
G1 X83.675 Y58.933 E60.25171
G1 X83.675 Y64.992 E60.45525
G1 X83.62 Y65.515 E60.47291
G1 X83.397 Y66.039 E60.49204
G1 X83.114 Y66.439 E60.5085
G1 X82.696 Y66.815 E60.52739
G1 X82.18 Y67.052 E60.54646
G1 F2700 E55.54646
G0 F6000 X82.3 Y67.324
G0 X81.686 Y67.406
G0 X75.273 Y67.406
G0 X73.628 Y67.048
G0 X70.554 Y66.826
G0 X69.16 Y67.06
G1 F2700 E60.54646
G1 F1200 X68.656 Y67.167 E60.56377
G1 X62.298 Y67.166 E60.77735
G1 X61.795 Y67.06 E60.79462
G1 X61.381 Y66.876 E60.80984
G1 X61.017 Y66.616 E60.82487
G1 X60.621 Y66.175 E60.84478
G1 X60.384 Y65.653 E60.86404
G1 X60.276 Y65.144 E60.88152
G1 X60.28 Y58.769 E61.09567
