;FLAVOR:Marlin
;TIME:14407
;Filament used: 21.9101m
;Layer height: 0.32
;MINX:30
;MINY:52.5
;MINZ:0.28
;MAXX:205
;MAXY:182.5
;MAXZ:20.12
;Generated with Cura_SteamEngine 5.4.0
M140 S60
M105
M190 S60
M104 S215
M105
M109 S215
M82 ;absolute extrusion mode
; Ender 3 Custom Start G-code
G92 E0 ; Reset Extruder
G28 ; Home all axes
G1 Z2.0 F3000 ; Move Z Axis up little to prevent scratching of Heat Bed
G1 X0.1 Y20 Z0.3 F5000.0 ; Move to start position
G1 X0.1 Y200.0 Z0.3 F1500.0 E15 ; Draw the first line
G1 X0.4 Y200.0 Z0.3 F5000.0 ; Move to side a little
G1 X0.4 Y20 Z0.3 F1500.0 E30 ; Draw the second line
G92 E0 ; Reset Extruder
G1 Z2.0 F3000 ; Move Z Axis up little to prevent scratching of Heat Bed
G1 X5 Y20 Z0.3 F5000.0 ; Move over to prevent blob squish
G92 E0
G92 E0
G1 F2700 E-5
;LAYER_COUNT:63
;LAYER:0
M107
G0 F6000 X34.924 Y54.346 Z0.28
;TYPE:SKIRT
G1 F2700 E0
G1 F1200 X35.821 Y53.811 E0.04863
G1 X36.699 Y53.39 E0.09397
G1 X37.612 Y53.048 E0.13937
G1 X38.549 Y52.789 E0.18464
G1 X39.516 Y52.611 E0.23042
G1 X40.655 Y52.515 E0.28365
G1 X41.312 Y52.5 E0.31425
G1 X193.304 Y52.5 E7.39163
G1 X194.184 Y52.513 E7.43261
G1 X195.156 Y52.572 E7.47796
G1 X196.119 Y52.718 E7.52331
G1 X197.066 Y52.949 E7.5687
G1 X197.954 Y53.249 E7.61234
G1 X198.846 Y53.639 E7.65768
G1 X199.729 Y54.126 E7.70463
G1 X200.48 Y54.628 E7.74669
G1 X201.295 Y55.286 E7.79547
G1 X201.993 Y55.964 E7.84078
G1 X202.629 Y56.701 E7.88611
G1 X203.199 Y57.491 E7.93147
G1 X203.661 Y58.267 E7.97352
G1 X204.115 Y59.209 E8.02221
G1 X204.444 Y60.087 E8.06587
G1 X204.713 Y61.059 E8.11284
G1 X204.89 Y62.025 E8.15857
G1 X204.985 Y63.155 E8.21137
G1 X205 Y63.83 E8.24281
G1 X204.999 Y170.9 E13.22843
G1 X204.988 Y171.663 E13.26397
G1 X204.931 Y172.636 E13.30935
G1 X204.786 Y173.599 E13.3547
G1 X204.557 Y174.545 E13.40002
G1 X204.246 Y175.469 E13.44542
G1 X203.854 Y176.36 E13.49074
G1 X203.386 Y177.212 E13.53601
G1 X202.864 Y177.993 E13.57975
G1 X202.231 Y178.778 E13.62671
G1 X201.606 Y179.429 E13.66873
G1 X200.817 Y180.117 E13.71747
G1 X200.057 Y180.667 E13.76116
G1 X199.19 Y181.184 E13.80816
G1 X198.312 Y181.606 E13.85352
G1 X197.401 Y181.948 E13.89883
G1 X196.462 Y182.209 E13.94421
G1 X195.496 Y182.387 E13.98995
G1 X194.345 Y182.485 E14.04374
G1 X193.67 Y182.5 E14.07518
G1 X41.564 Y182.499 E21.15787
G1 X40.831 Y182.488 E21.19201
G1 X39.859 Y182.431 E21.23735
G1 X38.896 Y182.285 E21.2827
G1 X37.95 Y182.056 E21.32802
G1 X37.026 Y181.744 E21.37343
G1 X36.136 Y181.352 E21.41872
G1 X35.313 Y180.901 E21.46242
G1 X34.474 Y180.34 E21.50941
G1 X33.77 Y179.774 E21.55147
G1 X33.017 Y179.049 E21.60015
G1 X32.38 Y178.313 E21.64547
G1 X31.85 Y177.582 E21.68752
G1 X31.314 Y176.685 E21.73617
G1 X30.892 Y175.807 E21.78153
G1 X30.55 Y174.895 E21.82689
G1 X30.29 Y173.957 E21.87221
G1 X30.112 Y172.988 E21.91809
G1 X30.014 Y171.809 E21.97318
G1 X30 Y171.158 E22.0035
G1 X30.001 Y64.025 E26.99206
G1 X30.012 Y63.325 E27.02466
G1 X30.07 Y62.352 E27.07004
G1 X30.216 Y61.389 E27.1154
G1 X30.446 Y60.443 E27.16073
G1 X30.759 Y59.52 E27.20611
G1 X31.151 Y58.63 E27.2514
G1 X31.621 Y57.777 E27.29675
G1 X32.164 Y56.969 E27.34208
G1 X32.731 Y56.265 E27.38417
G1 X33.456 Y55.513 E27.43281
G1 X34.192 Y54.876 E27.47813
G1 X34.924 Y54.346 E27.52021
G0 F6000 X35.159 Y54.67
G1 F1200 X35.995 Y54.171 E27.56555
G1 X36.84 Y53.764 E27.60922
G1 X37.719 Y53.433 E27.65296
G1 X38.622 Y53.182 E27.6966
G1 X39.55 Y53.01 E27.74055
G1 X40.689 Y52.914 E27.79377
G1 X41.321 Y52.9 E27.82321
G1 X193.298 Y52.9 E34.89989
G1 X194.16 Y52.912 E34.94003
G1 X195.097 Y52.968 E34.98374
G1 X196.025 Y53.107 E35.02744
G1 X196.938 Y53.328 E35.07118
G1 X197.794 Y53.616 E35.11323
G1 X198.686 Y54.006 E35.15856
G1 X199.507 Y54.459 E35.20223
G1 X200.258 Y54.961 E35.24429
G1 X201.017 Y55.573 E35.28969
G1 X201.691 Y56.226 E35.33339
G1 X202.305 Y56.935 E35.37706
G1 X202.855 Y57.696 E35.42078
G1 X203.317 Y58.472 E35.46283
G1 X203.74 Y59.349 E35.50817
G1 X204.069 Y60.227 E35.55183
G1 X204.32 Y61.132 E35.59556
G1 X204.491 Y62.059 E35.63946
G1 X204.586 Y63.189 E35.69226
G1 X204.6 Y63.83 E35.72211
G1 X204.599 Y170.895 E40.70751
G1 X204.589 Y171.64 E40.7422
G1 X204.535 Y172.577 E40.78591
G1 X204.397 Y173.506 E40.82964
G1 X204.178 Y174.418 E40.87331
G1 X203.88 Y175.308 E40.91702
G1 X203.503 Y176.168 E40.96074
G1 X203.053 Y176.99 E41.00438
G1 X202.531 Y177.771 E41.04812
G1 X201.942 Y178.501 E41.09179
G1 X201.317 Y179.152 E41.13382
G1 X200.582 Y179.793 E41.17923
G1 X199.822 Y180.343 E41.22291
G1 X199.016 Y180.824 E41.26662
G1 X198.171 Y181.232 E41.31031
G1 X197.293 Y181.563 E41.354
G1 X196.389 Y181.816 E41.39771
G1 X195.462 Y181.988 E41.44162
G1 X194.311 Y182.086 E41.49541
G1 X193.67 Y182.1 E41.52526
G1 X41.57 Y182.099 E48.60767
G1 X40.854 Y182.089 E48.64102
G1 X39.918 Y182.035 E48.68467
G1 X38.989 Y181.896 E48.72841
G1 X38.077 Y181.677 E48.77209
G1 X37.187 Y181.378 E48.8158
G1 X36.328 Y181.001 E48.85949
G1 X35.505 Y180.55 E48.90319
G1 X34.725 Y180.028 E48.94689
G1 X34.021 Y179.462 E48.98895
G1 X33.319 Y178.787 E49.0343
G1 X32.704 Y178.078 E49.078
G1 X32.174 Y177.347 E49.12005
G1 X31.674 Y176.511 E49.1654
G1 X31.266 Y175.666 E49.2091
G1 X30.935 Y174.788 E49.25279
G1 X30.683 Y173.884 E49.29649
G1 X30.511 Y172.955 E49.34048
G1 X30.413 Y171.776 E49.39557
G1 X30.4 Y171.158 E49.42435
G1 X30.401 Y64.031 E54.41264
G1 X30.411 Y63.348 E54.44444
G1 X30.466 Y62.411 E54.48815
G1 X30.605 Y61.483 E54.53184
G1 X30.825 Y60.571 E54.57553
G1 X31.125 Y59.681 E54.61926
G1 X31.502 Y58.822 E54.66294
G1 X31.953 Y58 E54.7066
G1 X32.476 Y57.22 E54.75033
G1 X33.043 Y56.516 E54.79242
G1 X33.718 Y55.815 E54.83773
G1 X34.427 Y55.2 E54.88144
G1 X35.159 Y54.67 E54.92352
G0 F6000 X35.394 Y54.994
G1 F1200 X36.169 Y54.531 E54.96555
G1 X36.982 Y54.138 E55.0076
G1 X37.827 Y53.818 E55.04968
G1 X38.696 Y53.575 E55.09169
G1 X39.584 Y53.409 E55.13376
G1 X40.723 Y53.313 E55.18698
G1 X41.33 Y53.3 E55.21525
G1 X193.293 Y53.3 E62.29129
G1 X194.137 Y53.311 E62.33059
G1 X195.039 Y53.364 E62.37266
G1 X195.932 Y53.496 E62.4147
G1 X196.81 Y53.707 E62.45675
G1 X197.666 Y53.995 E62.4988
G1 X198.493 Y54.357 E62.54084
G1 X199.285 Y54.792 E62.58291
G1 X200.036 Y55.294 E62.62497
G1 X200.739 Y55.861 E62.66703
G1 X201.389 Y56.488 E62.70908
G1 X201.981 Y57.17 E62.75113
G1 X202.511 Y57.901 E62.79318
G1 X202.973 Y58.677 E62.83523
G1 X203.366 Y59.49 E62.87728
G1 X203.684 Y60.335 E62.91932
G1 X203.927 Y61.205 E62.96138
G1 X204.092 Y62.093 E63.00344
G1 X204.187 Y63.223 E63.05624
G1 X204.2 Y63.83 E63.08451
G1 X204.199 Y170.89 E68.06967
G1 X204.19 Y171.617 E68.10353
G1 X204.139 Y172.519 E68.1456
G1 X204.008 Y173.413 E68.18767
G1 X203.799 Y174.291 E68.22969
G1 X203.513 Y175.148 E68.27176
G1 X203.152 Y175.976 E68.31382
G1 X202.72 Y176.768 E68.35583
G1 X202.219 Y177.52 E68.39791
G1 X201.653 Y178.224 E68.43997
G1 X201.028 Y178.875 E68.48199
G1 X200.347 Y179.469 E68.52407
G1 X199.616 Y180 E68.56614
G1 X198.842 Y180.464 E68.60816
G1 X198.029 Y180.858 E68.65023
G1 X197.185 Y181.178 E68.69226
G1 X196.315 Y181.423 E68.73435
G1 X195.428 Y181.589 E68.77637
G1 X194.277 Y181.687 E68.83016
G1 X193.67 Y181.7 E68.85843
G1 X41.575 Y181.699 E75.94061
G1 X40.877 Y181.69 E75.97311
G1 X39.976 Y181.639 E76.01513
G1 X39.082 Y181.507 E76.05721
G1 X38.204 Y181.298 E76.09924
G1 X37.347 Y181.011 E76.14132
G1 X36.52 Y180.65 E76.18334
G1 X35.727 Y180.217 E76.22541
G1 X34.976 Y179.716 E76.26745
G1 X34.272 Y179.15 E76.30951
G1 X33.621 Y178.524 E76.35156
G1 X33.028 Y177.843 E76.39361
G1 X32.498 Y177.112 E76.43566
G1 X32.034 Y176.337 E76.47772
G1 X31.64 Y175.524 E76.51978
G1 X31.32 Y174.68 E76.56181
G1 X31.076 Y173.81 E76.60389
G1 X30.91 Y172.922 E76.64595
G1 X30.813 Y171.767 E76.69992
G1 X30.8 Y171.158 E76.72829
G1 X30.801 Y64.036 E81.71634
G1 X30.81 Y63.371 E81.74731
G1 X30.862 Y62.469 E81.78938
G1 X30.994 Y61.576 E81.83141
G1 X31.204 Y60.698 E81.87345
G1 X31.491 Y59.841 E81.91553
G1 X31.853 Y59.014 E81.95757
G1 X32.286 Y58.222 E81.9996
G1 X32.788 Y57.471 E82.04166
G1 X33.355 Y56.767 E82.08375
G1 X33.981 Y56.117 E82.12577
G1 X34.662 Y55.524 E82.16782
G1 X35.394 Y54.994 E82.2099
G1 F2700 E77.2099
;MESH:Golf Cart Mainboard Lid.stl
G0 F6000 X41.8 Y62.835
G0 X193.4 Y170.9
;TYPE:WALL-INNER
G1 F2700 E82.2099
G1 F1200 X193.4 Y64.1 E87.18296
G1 X41.6 Y64.1 E94.2514
G1 X41.6 Y170.9 E99.22445
G1 X193.4 Y170.9 E106.2929
G0 F6000 X193.8 Y171.3
;TYPE:WALL-OUTER
G1 F1200 X193.8 Y63.7 E111.30321
G1 X41.2 Y63.7 E118.4089
G1 X41.2 Y171.3 E123.41921
G1 X193.8 Y171.3 E130.5249
G0 F6000 X193.53 Y171.03
G0 X193.3 Y170.54
G0 X193.04 Y170.54
;TYPE:SKIN
G1 F1200 X41.96 Y170.54 E137.55982
G1 X41.96 Y64.46 E142.49935
G1 X193.04 Y64.46 E149.53427
G1 X193.04 Y170.54 E154.4738
G1 F2700 E149.4738
G0 F6000 X193.3 Y170.54
G0 X193.3 Y64.994
G0 X192.839 Y64.994
G1 F2700 E154.4738
G1 F1200 X192.504 Y64.659 E154.49586
G0 F6000 X191.939 Y64.659
G1 F1200 X192.839 Y65.56 E154.55516
G0 F6000 X192.839 Y66.125
G1 F1200 X191.373 Y64.659 E154.65169
G0 F6000 X190.807 Y64.659
G1 F1200 X192.839 Y66.691 E154.78551
G0 F6000 X192.839 Y67.257
G1 F1200 X190.242 Y64.659 E154.95656
G0 F6000 X189.676 Y64.659
G1 F1200 X192.839 Y67.822 E155.16484
G0 F6000 X192.839 Y68.388
G1 F1200 X189.11 Y64.659 E155.41041
G0 F6000 X188.545 Y64.659
G1 F1200 X192.839 Y68.954 E155.69321
G0 F6000 X192.839 Y69.519
G1 F1200 X187.979 Y64.659 E156.01324
G0 F6000 X187.413 Y64.659
G1 F1200 X192.839 Y70.085 E156.37056
G0 F6000 X192.839 Y70.651
G1 F1200 X186.848 Y64.659 E156.76511
G0 F6000 X186.282 Y64.659
G1 F1200 X192.839 Y71.216 E157.1969
G0 F6000 X192.839 Y71.782
G1 F1200 X185.716 Y64.659 E157.66596
G0 F6000 X185.15 Y64.659
G1 F1200 X192.839 Y72.348 E158.17229
G0 F6000 X192.839 Y72.914
G1 F1200 X184.585 Y64.659 E158.71586
G0 F6000 X184.019 Y64.659
G1 F1200 X192.839 Y73.479 E159.29668
G0 F6000 X192.839 Y74.045
G1 F1200 X183.453 Y64.659 E159.91476
G0 F6000 X182.888 Y64.659
G1 F1200 X192.839 Y74.611 E160.57008
G0 F6000 X192.839 Y75.176
G1 F1200 X182.322 Y64.659 E161.26265
G0 F6000 X181.756 Y64.659
G1 F1200 X192.839 Y75.742 E161.99248
G0 F6000 X192.839 Y76.308
G1 F1200 X181.191 Y64.659 E162.75955
G0 F6000 X180.625 Y64.659
G1 F1200 X192.839 Y76.873 E163.56387
G0 F6000 X192.839 Y77.439
G1 F1200 X180.059 Y64.659 E164.40545
G0 F6000 X179.494 Y64.659
G1 F1200 X192.839 Y78.005 E165.28428
G0 F6000 X192.839 Y78.57
G1 F1200 X178.928 Y64.659 E166.20034
G0 F6000 X178.362 Y64.659
G1 F1200 X192.839 Y79.136 E167.15367
G0 F6000 X192.839 Y79.702
G1 F1200 X177.797 Y64.659 E168.14425
G0 F6000 X177.231 Y64.659
G1 F1200 X192.839 Y80.267 E169.17206
G0 F6000 X192.839 Y80.833
G1 F1200 X176.665 Y64.659 E170.23715
G0 F6000 X176.099 Y64.659
G1 F1200 X192.839 Y81.399 E171.33951
G0 F6000 X192.839 Y81.964
G1 F1200 X175.534 Y64.659 E172.47907
G0 F6000 X174.968 Y64.659
G1 F1200 X192.839 Y82.53 E173.6559
G0 F6000 X192.839 Y83.096
G1 F1200 X174.402 Y64.659 E174.87001
G0 F6000 X173.837 Y64.659
G1 F1200 X192.839 Y83.662 E176.12136
G0 F6000 X192.839 Y84.227
G1 F1200 X173.271 Y64.659 E177.40995
G0 F6000 X172.705 Y64.659
G1 F1200 X192.839 Y84.793 E178.7358
G0 F6000 X192.839 Y85.359
G1 F1200 X172.14 Y64.659 E180.0989
G0 F6000 X171.574 Y64.659
G1 F1200 X192.839 Y85.924 E181.49924
G0 F6000 X192.839 Y86.49
G1 F1200 X171.008 Y64.659 E182.93685
G0 F6000 X170.443 Y64.659
G1 F1200 X192.839 Y87.056 E184.41169
G0 F6000 X192.839 Y87.621
G1 F1200 X169.877 Y64.659 E185.92378
G0 F6000 X169.311 Y64.659
G1 F1200 X192.839 Y88.187 E187.47314
G0 F6000 X192.839 Y88.753
G1 F1200 X168.746 Y64.659 E189.05974
G0 F6000 X168.18 Y64.659
G1 F1200 X192.839 Y89.318 E190.68358
G0 F6000 X192.839 Y89.884
G1 F1200 X167.614 Y64.659 E192.34469
G0 F6000 X167.049 Y64.659
G1 F1200 X192.839 Y90.45 E194.04303
G0 F6000 X192.839 Y91.015
G1 F1200 X166.483 Y64.659 E195.77862
G0 F6000 X165.917 Y64.659
G1 F1200 X192.839 Y91.581 E197.55148
G0 F6000 X192.839 Y92.147
G1 F1200 X165.351 Y64.659 E199.36161
G0 F6000 X164.786 Y64.659
G1 F1200 X192.839 Y92.713 E201.20898
G0 F6000 X192.839 Y93.278
G1 F1200 X164.22 Y64.659 E203.09359
G0 F6000 X163.654 Y64.659
G1 F1200 X192.839 Y93.844 E205.01548
G0 F6000 X192.839 Y94.41
G1 F1200 X163.089 Y64.659 E206.9746
G0 F6000 X162.523 Y64.659
G1 F1200 X192.839 Y94.975 E208.97096
G0 F6000 X192.839 Y95.541
G1 F1200 X161.957 Y64.659 E211.00459
G0 F6000 X161.392 Y64.659
G1 F1200 X192.839 Y96.107 E213.07546
G0 F6000 X192.839 Y96.672
G1 F1200 X160.826 Y64.659 E215.18357
G0 F6000 X160.26 Y64.659
G1 F1200 X192.839 Y97.238 E217.32896
G0 F6000 X192.839 Y97.804
G1 F1200 X159.695 Y64.659 E219.51158
G0 F6000 X159.129 Y64.659
G1 F1200 X192.839 Y98.369 E221.73144
G0 F6000 X192.839 Y98.935
G1 F1200 X158.563 Y64.659 E223.98857
G0 F6000 X157.998 Y64.659
G1 F1200 X192.839 Y99.501 E226.28294
G0 F6000 X192.839 Y100.066
G1 F1200 X157.432 Y64.659 E228.61455
G0 F6000 X156.866 Y64.659
G1 F1200 X192.839 Y100.632 E230.98344
G0 F6000 X192.839 Y101.198
G1 F1200 X156.301 Y64.659 E233.38956
G0 F6000 X155.735 Y64.659
G1 F1200 X192.839 Y101.763 E235.83292
G0 F6000 X192.839 Y102.329
G1 F1200 X155.169 Y64.659 E238.31356
G0 F6000 X154.603 Y64.659
G1 F1200 X192.839 Y102.895 E240.83146
G0 F6000 X192.839 Y103.461
G1 F1200 X154.038 Y64.659 E243.38661
G0 F6000 X153.472 Y64.659
G1 F1200 X192.839 Y104.026 E245.97899
G0 F6000 X192.839 Y104.592
G1 F1200 X152.906 Y64.659 E248.60865
G0 F6000 X152.341 Y64.659
G1 F1200 X192.839 Y105.158 E251.27554
G0 F6000 X192.839 Y105.723
G1 F1200 X151.775 Y64.659 E253.97968
G0 F6000 X151.209 Y64.659
G1 F1200 X192.839 Y106.289 E256.72108
G0 F6000 X192.839 Y106.855
G1 F1200 X150.644 Y64.659 E259.49973
G0 F6000 X150.078 Y64.659
G1 F1200 X192.839 Y107.42 E262.31562
G0 F6000 X192.839 Y107.986
G1 F1200 X149.512 Y64.659 E265.16877
G0 F6000 X148.947 Y64.659
G1 F1200 X192.839 Y108.552 E268.05917
G0 F6000 X192.839 Y109.117
G1 F1200 X148.381 Y64.659 E270.9868
G0 F6000 X147.815 Y64.659
G1 F1200 X192.839 Y109.683 E273.95171
G0 F6000 X192.839 Y110.249
G1 F1200 X147.25 Y64.659 E276.95386
G0 F6000 X146.684 Y64.659
G1 F1200 X192.839 Y110.814 E279.99324
G0 F6000 X192.839 Y111.38
G1 F1200 X146.118 Y64.659 E283.0699
G0 F6000 X145.552 Y64.659
G1 F1200 X192.839 Y111.946 E286.18383
G0 F6000 X192.839 Y112.512
G1 F1200 X144.987 Y64.659 E289.335
G0 F6000 X144.421 Y64.659
G1 F1200 X192.839 Y113.077 E292.52341
G0 F6000 X192.839 Y113.643
G1 F1200 X143.855 Y64.659 E295.74909
G0 F6000 X143.29 Y64.659
G1 F1200 X192.839 Y114.209 E299.01201
G0 F6000 X192.839 Y114.774
G1 F1200 X142.724 Y64.659 E302.31216
G0 F6000 X142.158 Y64.659
G1 F1200 X192.839 Y115.34 E305.64959
G0 F6000 X192.839 Y115.906
G1 F1200 X141.593 Y64.659 E309.02426
G0 F6000 X141.027 Y64.659
G1 F1200 X192.839 Y116.471 E312.43617
G0 F6000 X192.839 Y117.037
G1 F1200 X140.461 Y64.659 E315.88535
G0 F6000 X139.896 Y64.659
G1 F1200 X192.839 Y117.603 E319.37177
G0 F6000 X192.839 Y118.168
G1 F1200 X139.33 Y64.659 E322.89543
G0 F6000 X138.764 Y64.659
G1 F1200 X192.839 Y118.734 E326.45636
G0 F6000 X192.839 Y119.3
G1 F1200 X138.199 Y64.659 E330.05453
G0 F6000 X137.633 Y64.659
G1 F1200 X192.839 Y119.865 E333.68994
G0 F6000 X192.839 Y120.431
G1 F1200 X137.067 Y64.659 E337.36262
G0 F6000 X136.502 Y64.659
G1 F1200 X192.839 Y120.997 E341.07255
G0 F6000 X192.839 Y121.562
G1 F1200 X135.936 Y64.659 E344.81971
G0 F6000 X135.37 Y64.659
G1 F1200 X192.839 Y122.128 E348.60414
G0 F6000 X192.839 Y122.694
G1 F1200 X134.804 Y64.659 E352.42584
G0 F6000 X134.239 Y64.659
G1 F1200 X192.839 Y123.26 E356.28478
G0 F6000 X192.839 Y123.825
G1 F1200 X133.673 Y64.659 E360.18097
G0 F6000 X133.107 Y64.659
G1 F1200 X192.839 Y124.391 E364.11442
G0 F6000 X192.839 Y124.957
G1 F1200 X132.542 Y64.659 E368.08511
G0 F6000 X131.976 Y64.659
G1 F1200 X192.839 Y125.522 E372.09305
G0 F6000 X192.839 Y126.088
G1 F1200 X131.41 Y64.659 E376.13825
G0 F6000 X130.845 Y64.659
G1 F1200 X192.839 Y126.654 E380.22069
G0 F6000 X192.839 Y127.219
G1 F1200 X130.279 Y64.659 E384.34038
G0 F6000 X129.713 Y64.659
G1 F1200 X192.839 Y127.785 E388.49733
G0 F6000 X192.839 Y128.351
G1 F1200 X129.148 Y64.659 E392.69153
G0 F6000 X128.582 Y64.659
G1 F1200 X192.839 Y128.916 E396.92296
G0 F6000 X192.839 Y129.482
G1 F1200 X128.016 Y64.659 E401.19166
G0 F6000 X127.451 Y64.659
G1 F1200 X192.839 Y130.048 E405.49761
