;FLAVOR:Marlin
;TIME:25842
;Filament used: 36.0596m
;Layer height: 0.32
;MINX:51.5
;MINY:14
;MINZ:0.28
;MAXX:181.207
;MAXY:220
;MAXZ:39
;Generated with Cura_SteamEngine 5.4.0
M140 S60
M105
M190 S60
M104 S220
M105
M109 S220
M82 ;absolute extrusion mode
; Ender 3 Custom Start G-code
G92 E0 ; Reset Extruder
G28 ; Home all axes
G1 Z2.0 F3000 ; Move Z Axis up little to prevent scratching of Heat Bed
G1 X0.1 Y20 Z0.3 F5000.0 ; Move to start position
G1 X0.1 Y200.0 Z0.3 F1500.0 E15 ; Draw the first line
G1 X0.4 Y200.0 Z0.3 F5000.0 ; Move to side a little
G1 X0.4 Y20 Z0.3 F1500.0 E30 ; Draw the second line
G92 E0 ; Reset Extruder
G1 Z2.0 F3000 ; Move Z Axis up little to prevent scratching of Heat Bed
G1 X5 Y20 Z0.3 F5000.0 ; Move over to prevent blob squish
G92 E0
G92 E0
G1 F2700 E-5
;LAYER_COUNT:122
;LAYER:0
M107
G0 F6000 X55.981 Y36.222 Z0.28
;TYPE:SKIRT
G1 F2700 E0
G1 F1200 X56.583 Y35.456 E0.04537
G1 X57.255 Y34.742 E0.09102
G1 X58.125 Y33.98 E0.14487
G1 X58.582 Y33.623 E0.17188
G1 X59.376 Y33.057 E0.21728
G1 X60.185 Y32.582 E0.26096
G1 X61.097 Y32.15 E0.30795
G1 X62.026 Y31.809 E0.35403
G1 X63.282 Y31.491 E0.41436
G1 X65.574 Y31.062 E0.52294
G1 X68.088 Y30.523 E0.64267
G1 X70.497 Y29.935 E0.75813
G1 X72.923 Y29.269 E0.87528
G1 X75.384 Y28.519 E0.99507
G1 X77.742 Y27.726 E1.11092
G1 X80.07 Y26.869 E1.22643
G1 X82.447 Y25.918 E1.34564
G1 X84.73 Y24.928 E1.46151
G1 X87.054 Y23.84 E1.581
G1 X89.269 Y22.726 E1.69645
G1 X91.454 Y21.55 E1.81199
G1 X93.676 Y20.271 E1.93137
G1 X95.814 Y18.959 E2.04818
G1 X97.939 Y17.571 E2.16636
G1 X100.251 Y15.963 E2.2975
G1 X101.076 Y15.444 E2.34288
G1 X101.943 Y15.001 E2.38822
G1 X102.779 Y14.661 E2.43024
G1 X103.779 Y14.355 E2.47894
G1 X104.732 Y14.156 E2.52427
G1 X105.628 Y14.047 E2.5663
G1 X106.189 Y14.015 E2.59247
G1 X106.847 Y14.001 E2.62311
G1 X127.801 Y14 E3.59882
G1 X128.687 Y14.013 E3.64008
G1 X129.659 Y14.072 E3.68542
G1 X130.622 Y14.218 E3.73078
G1 X131.57 Y14.449 E3.77621
G1 X132.426 Y14.737 E3.81826
G1 X133.382 Y15.155 E3.86685
G1 X134.201 Y15.605 E3.91036
G1 X134.812 Y16.003 E3.94432
G1 X135.722 Y16.641 E3.99607
G1 X137.885 Y18.115 E4.11795
G1 X140.004 Y19.472 E4.23512
G1 X142.17 Y20.772 E4.35275
G1 X144.363 Y22.007 E4.46994
G1 X146.579 Y23.175 E4.58658
G1 X148.857 Y24.294 E4.70476
G1 X151.13 Y25.329 E4.82106
G1 X153.451 Y26.31 E4.93839
G1 X155.826 Y27.234 E5.05706
G1 X158.179 Y28.077 E5.17344
G1 X160.554 Y28.848 E5.28971
G1 X162.991 Y29.566 E5.40801
G1 X165.417 Y30.208 E5.52486
G1 X167.848 Y30.777 E5.64112
G1 X170.732 Y31.361 E5.77814
G1 X171.557 Y31.514 E5.81721
G1 X172.488 Y31.732 E5.86173
G1 X172.876 Y31.841 E5.8805
G1 X173.767 Y32.136 E5.9242
G1 X174.694 Y32.536 E5.97121
G1 X175.519 Y32.983 E6.01491
G1 X176.36 Y33.54 E6.06188
G1 X177.12 Y34.149 E6.10723
G1 X177.774 Y34.771 E6.14925
G1 X178.551 Y35.665 E6.20441
G1 X178.906 Y36.122 E6.23135
G1 X179.467 Y36.918 E6.2767
G1 X179.956 Y37.761 E6.32208
G1 X180.368 Y38.642 E6.36736
G1 X180.679 Y39.49 E6.40942
G1 X180.95 Y40.501 E6.45816
G1 X181.117 Y41.477 E6.50427
G1 X181.205 Y42.867 E6.56912
G1 X181.191 Y44.837 E6.66086
G1 X181.191 Y190.273 E13.43297
G1 X181.207 Y191.628 E13.49606
G1 X181.204 Y192.245 E13.52479
G1 X181.159 Y193.147 E13.56685
G1 X181.015 Y194.181 E13.61546
G1 X180.812 Y195.061 E13.65751
G1 X180.488 Y196.055 E13.70619
G1 X180.103 Y196.948 E13.75148
G1 X179.677 Y197.744 E13.79351
G1 X178.858 Y198.943 E13.86113
G1 X178.507 Y199.389 E13.88755
G1 X177.87 Y200.126 E13.93291
G1 X177.17 Y200.803 E13.97826
G1 X176.441 Y201.395 E14.02199
G1 X175.606 Y201.959 E14.06891
G1 X174.753 Y202.429 E14.11426
G1 X173.861 Y202.823 E14.15966
G1 X172.965 Y203.127 E14.20372
G1 X172.538 Y203.252 E14.22444
G1 X171.66 Y203.467 E14.26653
G1 X170.979 Y203.582 E14.29869
G1 X169.14 Y203.835 E14.38513
G1 X166.614 Y204.242 E14.50427
G1 X164.13 Y204.715 E14.62201
G1 X161.677 Y205.254 E14.73896
G1 X159.272 Y205.853 E14.85436
G1 X156.82 Y206.539 E14.97292
G1 X154.403 Y207.289 E15.09076
G1 X152.047 Y208.096 E15.20673
G1 X149.655 Y208.991 E15.32565
G1 X147.316 Y209.94 E15.44319
G1 X145.046 Y210.941 E15.55871
G1 X142.767 Y212.019 E15.6761
G1 X140.516 Y213.165 E15.79372
G1 X138.331 Y214.357 E15.90962
G1 X136.109 Y215.653 E16.02939
G1 X133.98 Y216.973 E16.14604
G1 X132.508 Y217.934 E16.22789
G1 X131.669 Y218.427 E16.27321
G1 X130.879 Y218.806 E16.31401
G1 X130.371 Y219.024 E16.33975
G1 X129.442 Y219.372 E16.38594
G1 X128.505 Y219.631 E16.43121
G1 X127.618 Y219.798 E16.47324
G1 X127.065 Y219.878 E16.49925
G1 X125.838 Y219.986 E16.55661
G1 X125.244 Y219.999 E16.58427
G1 X110.197 Y220 E17.28493
G1 X109.305 Y219.987 E17.32647
G1 X108.095 Y219.899 E17.38296
G1 X107.566 Y219.829 E17.4078
G1 X106.607 Y219.658 E17.45316
G1 X105.673 Y219.405 E17.49822
G1 X104.926 Y219.137 E17.53518
G1 X104.382 Y218.918 E17.56248
G1 X103.489 Y218.512 E17.60816
G1 X102.545 Y217.968 E17.65889
G1 X101.581 Y217.341 E17.71244
G1 X99.384 Y215.956 E17.83337
G1 X97.221 Y214.676 E17.95041
G1 X94.997 Y213.443 E18.06881
G1 X92.768 Y212.288 E18.18571
G1 X90.506 Y211.196 E18.30267
G1 X88.22 Y210.173 E18.41929
G1 X85.884 Y209.205 E18.53703
G1 X83.493 Y208.293 E18.65619
G1 X81.177 Y207.483 E18.77044
G1 X78.744 Y206.708 E18.88934
G1 X76.352 Y206.02 E19.00524
G1 X73.913 Y205.395 E19.12248
G1 X71.432 Y204.83 E19.24096
G1 X68.969 Y204.343 E19.35787
G1 X66.507 Y203.93 E19.47411
G1 X64.014 Y203.58 E19.59133
G1 X63.224 Y203.438 E19.62871
G1 X62.814 Y203.348 E19.64826
G1 X61.907 Y203.105 E19.69198
G1 X60.959 Y202.758 E19.73899
G1 X60.078 Y202.344 E19.78431
G1 X59.238 Y201.853 E19.82962
G1 X58.468 Y201.309 E19.87352
G1 X57.605 Y200.567 E19.92651
G1 X57.273 Y200.25 E19.94789
G1 X56.648 Y199.599 E19.98991
G1 X55.995 Y198.782 E20.03861
G1 X55.459 Y197.97 E20.08392
G1 X54.995 Y197.115 E20.12921
G1 X54.619 Y196.246 E20.1733
G1 X54.199 Y194.892 E20.23932
G1 X54.114 Y194.535 E20.2564
G1 X53.932 Y193.563 E20.30245
G1 X53.826 Y192.256 E20.36351
G1 X53.808 Y191.116 E20.4166
G1 X53.809 Y92.321 E25.01691
G1 X53.772 Y89.727 E25.13771
G1 X53.663 Y87.183 E25.25628
G1 X53.487 Y84.698 E25.37228
G1 X53.24 Y82.203 E25.48902
G1 X52.921 Y79.713 E25.60592
G1 X52.534 Y77.247 E25.72215
G1 X51.836 Y73.617 E25.89427
G1 X51.742 Y73.172 E25.91545
G1 X51.594 Y72.281 E25.95751
G1 X51.51 Y71.07 E26.01403
G1 X51.5 Y70.271 E26.05124
G1 X51.501 Y61.611 E26.45449
G1 X51.514 Y60.868 E26.48909
G1 X51.576 Y59.89 E26.53472
G1 X51.755 Y58.771 E26.58749
G1 X51.876 Y58.208 E26.6143
G1 X52.385 Y55.669 E26.73488
G1 X52.807 Y53.204 E26.85133
G1 X53.162 Y50.707 E26.96877
G1 X53.441 Y48.244 E27.08419
G1 X53.66 Y45.689 E27.2036
G1 X53.83 Y42.512 E27.35175
G1 X53.923 Y41.507 E27.39874
G1 X54.202 Y40.128 E27.46426
G1 X54.313 Y39.722 E27.48386
G1 X54.611 Y38.795 E27.5292
G1 X54.991 Y37.897 E27.5746
G1 X55.449 Y37.038 E27.61993
G1 X55.981 Y36.222 E27.66529
G0 F6000 X56.296 Y36.469
G1 F1200 X56.875 Y35.73 E27.709
G1 X57.519 Y35.043 E27.75285
G1 X58.372 Y34.295 E27.80568
G1 X58.815 Y33.948 E27.83188
G1 X59.579 Y33.402 E27.87561
G1 X60.388 Y32.927 E27.91929
G1 X61.236 Y32.525 E27.96299
G1 X62.124 Y32.197 E28.00707
G1 X63.38 Y31.879 E28.0674
G1 X65.66 Y31.453 E28.1754
G1 X68.183 Y30.912 E28.29555
G1 X70.592 Y30.324 E28.41102
G1 X73.041 Y29.652 E28.52927
G1 X75.501 Y28.902 E28.64902
G1 X77.87 Y28.105 E28.76541
G1 X80.219 Y27.24 E28.88197
G1 X82.606 Y26.285 E29.00168
G1 X84.889 Y25.295 E29.11756
G1 X87.224 Y24.202 E29.2376
G1 X89.46 Y23.078 E29.35414
G1 X91.654 Y21.897 E29.47016
G1 X93.876 Y20.618 E29.58954
G1 X96.033 Y19.294 E29.70739
G1 X98.158 Y17.906 E29.82558
G1 X100.464 Y16.301 E29.9564
G1 X101.258 Y15.8 E30.00012
G1 X102.094 Y15.372 E30.04385
G1 X102.93 Y15.032 E30.08588
G1 X103.861 Y14.746 E30.13123
G1 X104.78 Y14.553 E30.17495
G1 X105.676 Y14.444 E30.21698
G1 X106.198 Y14.415 E30.24133
G1 X106.847 Y14.401 E30.27155
G1 X127.795 Y14.4 E31.24698
G1 X128.663 Y14.412 E31.2874
G1 X129.6 Y14.468 E31.33111
G1 X130.528 Y14.607 E31.3748
G1 X131.442 Y14.828 E31.41859
G1 X132.298 Y15.116 E31.46064
G1 X133.189 Y15.506 E31.50593
G1 X134.008 Y15.956 E31.54945
G1 X134.582 Y16.331 E31.58137
G1 X135.492 Y16.969 E31.63312
G1 X137.669 Y18.452 E31.75578
G1 X139.788 Y19.809 E31.87295
G1 X141.974 Y21.121 E31.99166
G1 X144.176 Y22.361 E32.10934
G1 X146.392 Y23.529 E32.22598
G1 X148.691 Y24.658 E32.34524
G1 X150.964 Y25.693 E32.46154
G1 X153.306 Y26.683 E32.57993
G1 X155.691 Y27.611 E32.6991
G1 X158.044 Y28.453 E32.81547
G1 X160.441 Y29.232 E32.93283
G1 X162.881 Y29.951 E33.05128
G1 X165.315 Y30.594 E33.1685
G1 X167.769 Y31.169 E33.28587
G1 X170.653 Y31.753 E33.42288
G1 X171.466 Y31.903 E33.46138
G1 X172.38 Y32.117 E33.50509
G1 X172.75 Y32.221 E33.52299
G1 X173.641 Y32.516 E33.56669
G1 X174.503 Y32.888 E33.61041
G1 X175.328 Y33.335 E33.6541
G1 X176.11 Y33.853 E33.69777
G1 X176.844 Y34.439 E33.74151
G1 X177.498 Y35.061 E33.78354
G1 X178.235 Y35.91 E33.83589
G1 X178.579 Y36.353 E33.862
G1 X179.121 Y37.119 E33.9057
G1 X179.594 Y37.931 E33.94945
G1 X179.992 Y38.78 E33.99312
G1 X180.303 Y39.628 E34.03517
G1 X180.556 Y40.569 E34.08055
G1 X180.718 Y41.502 E34.12464
G1 X180.805 Y42.864 E34.18819
G1 X180.791 Y44.834 E34.27992
G1 X180.791 Y190.273 E41.05217
G1 X180.807 Y191.626 E41.11518
G1 X180.804 Y192.225 E41.14307
G1 X180.759 Y193.127 E41.18512
G1 X180.625 Y194.091 E41.23044
G1 X180.422 Y194.971 E41.2725
G1 X180.12 Y195.897 E41.31785
G1 X179.75 Y196.759 E41.36153
G1 X179.324 Y197.555 E41.40357
G1 X178.543 Y198.696 E41.46795
G1 X178.204 Y199.128 E41.49352
G1 X177.591 Y199.839 E41.53724
G1 X176.918 Y200.492 E41.5809
G1 X176.189 Y201.084 E41.62463
G1 X175.412 Y201.609 E41.66829
G1 X174.591 Y202.063 E41.71198
G1 X173.732 Y202.444 E41.75574
G1 X172.853 Y202.743 E41.79897
G1 X172.443 Y202.863 E41.81886
G1 X171.565 Y203.078 E41.86095
G1 X170.925 Y203.186 E41.89118
G1 X169.076 Y203.44 E41.97808
G1 X166.55 Y203.847 E42.09722
G1 X164.044 Y204.324 E42.216
G1 X161.591 Y204.863 E42.33295
G1 X159.175 Y205.465 E42.44889
G1 X156.701 Y206.157 E42.56851
G1 X154.284 Y206.907 E42.68635
G1 X151.907 Y207.721 E42.80334
G1 X149.515 Y208.616 E42.92227
G1 X147.166 Y209.569 E43.0403
G1 X144.875 Y210.579 E43.15689
G1 X142.596 Y211.657 E43.27428
G1 X140.324 Y212.814 E43.393
G1 X138.129 Y214.011 E43.50942
G1 X135.907 Y215.307 E43.6292
G1 X133.769 Y216.633 E43.74635
G1 X132.305 Y217.589 E43.82777
G1 X131.496 Y218.066 E43.8715
G1 X130.721 Y218.438 E43.91153
G1 X130.213 Y218.656 E43.93727
G1 X129.335 Y218.987 E43.98096
G1 X128.431 Y219.238 E44.02464
G1 X127.561 Y219.402 E44.06587
G1 X127.008 Y219.482 E44.09189
G1 X125.829 Y219.586 E44.147
G1 X125.244 Y219.599 E44.17425
G1 X110.203 Y219.6 E44.87462
G1 X109.334 Y219.588 E44.91509
G1 X108.147 Y219.502 E44.9705
G1 X107.635 Y219.435 E44.99455
G1 X106.711 Y219.272 E45.03824
G1 X105.808 Y219.029 E45.08178
G1 X105.075 Y218.766 E45.11804
G1 X104.547 Y218.554 E45.14454
G1 X103.689 Y218.165 E45.1884
G1 X102.745 Y217.621 E45.23914
G1 X101.799 Y217.006 E45.29168
G1 X99.588 Y215.612 E45.41338
G1 X97.415 Y214.326 E45.53096
G1 X95.191 Y213.093 E45.64937
G1 X92.952 Y211.933 E45.76679
G1 X90.68 Y210.836 E45.88427
G1 X88.373 Y209.803 E46.00197
G1 X86.037 Y208.835 E46.11971
G1 X83.636 Y207.919 E46.23937
G1 X81.309 Y207.105 E46.35416
G1 X78.865 Y206.327 E46.47359
G1 X76.463 Y205.636 E46.58998
G1 X74.002 Y205.005 E46.70828
G1 X71.521 Y204.44 E46.82676
G1 X69.047 Y203.951 E46.94419
G1 X66.563 Y203.534 E47.06147
G1 X64.085 Y203.186 E47.17799
G1 X63.31 Y203.047 E47.21466
G1 X62.917 Y202.961 E47.23339
G1 X62.044 Y202.729 E47.27545
G1 X61.129 Y202.396 E47.32079
G1 X60.279 Y201.998 E47.36449
G1 X59.469 Y201.526 E47.40815
G1 X58.699 Y200.982 E47.45205
G1 X57.881 Y200.277 E47.50233
G1 X57.562 Y199.973 E47.52285
G1 X56.937 Y199.322 E47.56487
G1 X56.328 Y198.561 E47.61026
G1 X55.81 Y197.779 E47.65393
G1 X55.362 Y196.955 E47.69761
G1 X55.001 Y196.127 E47.73967
G1 X54.581 Y194.773 E47.80568
G1 X54.507 Y194.461 E47.82061
G1 X54.331 Y193.531 E47.86468
G1 X54.225 Y192.224 E47.92574
G1 X54.208 Y191.116 E47.97734
G1 X54.209 Y92.321 E52.57765
G1 X54.172 Y89.721 E52.69873
G1 X54.063 Y87.166 E52.81781
G1 X53.886 Y84.67 E52.93433
G1 X53.637 Y82.152 E53.05215
G1 X53.318 Y79.662 E53.16904
G1 X52.927 Y77.171 E53.28645
G1 X52.229 Y73.541 E53.45858
G1 X52.137 Y73.106 E53.47928
G1 X51.989 Y72.215 E53.52134
G1 X51.91 Y71.065 E53.57501
G1 X51.9 Y70.271 E53.61199
G1 X51.901 Y61.618 E54.01491
G1 X51.913 Y60.893 E54.04867
G1 X51.971 Y59.953 E54.09252
G1 X52.146 Y58.855 E54.1443
G1 X52.267 Y58.292 E54.17111
G1 X52.777 Y55.748 E54.29193
G1 X53.201 Y53.272 E54.4089
G1 X53.558 Y50.763 E54.5269
G1 X53.84 Y48.278 E54.64336
G1 X54.058 Y45.723 E54.76276
G1 X54.228 Y42.548 E54.91082
G1 X54.315 Y41.586 E54.95579
G1 X54.588 Y40.233 E55.02006
G1 X54.694 Y39.844 E55.03884
G1 X54.98 Y38.95 E55.08254
G1 X55.344 Y38.085 E55.12624
G1 X55.784 Y37.256 E55.16995
G1 X56.296 Y36.469 E55.21366
G0 F6000 X56.611 Y36.715
G1 F1200 X57.167 Y36.003 E55.25573
G1 X57.783 Y35.344 E55.29773
G1 X58.619 Y34.61 E55.34954
G1 X59.048 Y34.273 E55.37494
G1 X59.782 Y33.747 E55.41699
G1 X60.56 Y33.288 E55.45905
G1 X61.375 Y32.9 E55.50108
G1 X62.222 Y32.585 E55.54316
G1 X63.478 Y32.267 E55.60349
G1 X65.746 Y31.844 E55.71092
G1 X68.278 Y31.301 E55.8315
G1 X70.687 Y30.713 E55.94696
G1 X73.159 Y30.035 E56.06632
G1 X75.618 Y29.284 E56.18604
G1 X77.997 Y28.484 E56.30292
G1 X80.368 Y27.611 E56.42057
G1 X82.765 Y26.652 E56.54078
G1 X85.048 Y25.662 E56.65665
G1 X87.394 Y24.564 E56.77726
G1 X89.651 Y23.43 E56.89488
G1 X91.854 Y22.244 E57.01138
G1 X94.076 Y20.965 E57.13076
G1 X96.252 Y19.629 E57.24966
G1 X98.377 Y18.24 E57.36787
G1 X100.678 Y16.639 E57.4984
G1 X101.441 Y16.156 E57.54045
G1 X102.245 Y15.743 E57.58254
G1 X103.081 Y15.403 E57.62456
G1 X103.944 Y15.137 E57.66661
G1 X104.828 Y14.95 E57.70868
G1 X105.724 Y14.841 E57.75071
G1 X106.207 Y14.815 E57.77324
G1 X106.847 Y14.801 E57.80304
G1 X127.79 Y14.8 E58.77824
G1 X128.64 Y14.811 E58.81782
G1 X129.542 Y14.864 E58.85989
G1 X130.435 Y14.996 E58.90193
G1 X131.314 Y15.207 E58.94402
G1 X132.17 Y15.495 E58.98608
G1 X132.997 Y15.857 E59.02811
G1 X133.789 Y16.291 E59.07016
G1 X134.352 Y16.659 E59.10148
G1 X135.262 Y17.297 E59.15323
G1 X137.453 Y18.789 E59.27666
G1 X139.572 Y20.146 E59.39383
G1 X141.778 Y21.47 E59.51363
G1 X143.989 Y22.715 E59.63179
G1 X146.205 Y23.883 E59.74843
G1 X148.525 Y25.022 E59.86878
G1 X150.798 Y26.057 E59.98507
G1 X153.161 Y27.056 E60.10453
G1 X155.556 Y27.988 E60.2242
G1 X157.909 Y28.829 E60.34055
G1 X160.328 Y29.616 E60.459
G1 X162.771 Y30.336 E60.5776
G1 X165.213 Y30.98 E60.69519
G1 X167.69 Y31.561 E60.81366
G1 X170.574 Y32.145 E60.95068
G1 X171.375 Y32.293 E60.98861
G1 X172.272 Y32.502 E61.0315
G1 X172.625 Y32.601 E61.04857
G1 X173.483 Y32.883 E61.09062
G1 X174.313 Y33.24 E61.13269
G1 X175.108 Y33.669 E61.17476
G1 X175.861 Y34.166 E61.21677
G1 X176.568 Y34.729 E61.25885
G1 X177.222 Y35.351 E61.30088
G1 X177.919 Y36.156 E61.35046
G1 X178.253 Y36.585 E61.37578
G1 X178.776 Y37.321 E61.41782
G1 X179.232 Y38.101 E61.45989
G1 X179.616 Y38.918 E61.50193
G1 X179.927 Y39.766 E61.54399
G1 X180.162 Y40.638 E61.58604
G1 X180.319 Y41.528 E61.62812
G1 X180.405 Y42.861 E61.69032
G1 X180.391 Y44.831 E61.78206
G1 X180.391 Y190.273 E68.55444
G1 X180.407 Y191.624 E68.61736
G1 X180.404 Y192.205 E68.64441
G1 X180.359 Y193.107 E68.68646
G1 X180.235 Y194.001 E68.72849
G1 X180.032 Y194.881 E68.77054
G1 X179.752 Y195.74 E68.81261
G1 X179.397 Y196.57 E68.85465
G1 X178.971 Y197.366 E68.89669
G1 X178.228 Y198.449 E68.95784
G1 X177.9 Y198.867 E68.98258
G1 X177.312 Y199.552 E69.02462
G1 X176.665 Y200.182 E69.06667
G1 X175.965 Y200.753 E69.10873
G1 X175.218 Y201.259 E69.15075
G1 X174.428 Y201.698 E69.19283
G1 X173.603 Y202.065 E69.23488
G1 X172.741 Y202.359 E69.27728
G1 X172.348 Y202.474 E69.29635
G1 X171.47 Y202.689 E69.33844
G1 X170.871 Y202.79 E69.36673
G1 X169.012 Y203.045 E69.4541
G1 X166.486 Y203.452 E69.57324
G1 X163.958 Y203.933 E69.69307
G1 X161.505 Y204.472 E69.81001
G1 X159.078 Y205.077 E69.92648
G1 X156.582 Y205.775 E70.04717
G1 X154.165 Y206.526 E70.16502
G1 X151.767 Y207.346 E70.28303
G1 X149.364 Y208.245 E70.4025
G1 X147.015 Y209.199 E70.52055
G1 X144.704 Y210.217 E70.63814
