;FLAVOR:Marlin
;TIME:8868
;Filament used: 10.1388m
;Layer height: 0.32
;MINX:68.431
;MINY:62.935
;MINZ:0.28
;MAXX:166.565
;MAXY:172.066
;MAXZ:7.96
;Generated with Cura_SteamEngine 5.4.0
M140 S50
M105
M190 S50
M104 S200
M105
M109 S200
M82 ;absolute extrusion mode
; Ender 3 Custom Start G-code
G92 E0 ; Reset Extruder
G28 ; Home all axes
G1 Z2.0 F3000 ; Move Z Axis up little to prevent scratching of Heat Bed
G1 X0.1 Y20 Z0.3 F5000.0 ; Move to start position
G1 X0.1 Y200.0 Z0.3 F1500.0 E15 ; Draw the first line
G1 X0.4 Y200.0 Z0.3 F5000.0 ; Move to side a little
G1 X0.4 Y20 Z0.3 F1500.0 E30 ; Draw the second line
G92 E0 ; Reset Extruder
G1 Z2.0 F3000 ; Move Z Axis up little to prevent scratching of Heat Bed
G1 X5 Y20 Z0.3 F5000.0 ; Move over to prevent blob squish
G92 E0
G92 E0
G1 F2700 E-5
;LAYER_COUNT:25
;LAYER:0
M107
G0 F6000 X71.401 Y66.178 Z0.28
;TYPE:SKIRT
G1 F2700 E0
G1 F1200 X72.796 Y64.861 E0.08933
G1 X75.117 Y63.631 E0.21165
G1 X76.307 Y63.185 E0.27082
G1 X78.322 Y62.963 E0.36522
G1 X156.064 Y62.935 E3.98521
G1 X158.739 Y63.191 E4.11034
G1 X160.269 Y63.823 E4.18742
G1 X162.349 Y64.965 E4.29791
G1 X164.001 Y66.613 E4.40657
G1 X164.995 Y67.841 E4.48013
G1 X166.226 Y70.516 E4.61725
G1 X166.565 Y73.313 E4.74844
G1 X166.454 Y162.962 E8.92288
G1 X166.161 Y164.624 E9.00146
G1 X164.93 Y167.302 E9.1387
G1 X163.599 Y168.822 E9.23278
G1 X162.204 Y170.139 E9.32211
G1 X159.883 Y171.369 E9.44442
G1 X158.693 Y171.815 E9.5036
G1 X156.678 Y172.037 E9.59799
G1 X119.147 Y172.065 E11.3456
G1 X117.605 Y171.686 E11.41953
G1 X117.401 Y171.755 E11.42956
G1 X115.981 Y171.99 E11.49658
G1 X78.122 Y172.066 E13.25946
G1 X75.283 Y171.535 E13.39395
G1 X72.559 Y169.965 E13.54035
G1 X70.538 Y167.959 E13.67294
G1 X69.112 Y165.438 E13.80781
G1 X68.843 Y164.733 E13.84294
G1 X68.431 Y161.648 E13.98787
G1 X68.53 Y72.112 E18.15704
G1 X68.806 Y70.439 E18.236
G1 X70.069 Y67.701 E18.3764
G1 X71.401 Y66.178 E18.47062
G0 F6000 X71.676 Y66.469
G1 F1200 X73.033 Y65.188 E18.55751
G1 X75.257 Y64.006 E18.67479
G1 X76.4 Y63.578 E18.73162
G1 X78.366 Y63.361 E18.82372
G1 X156.064 Y63.335 E22.44166
G1 X158.641 Y63.583 E22.56221
G1 X160.077 Y64.174 E22.63452
G1 X162.108 Y65.289 E22.74241
G1 X163.69 Y66.865 E22.84639
G1 X164.654 Y68.056 E22.91774
G1 X165.836 Y70.625 E23.04941
G1 X166.165 Y73.313 E23.17551
G1 X166.06 Y162.893 E27.34674
G1 X165.776 Y164.505 E27.42295
G1 X164.591 Y167.082 E27.55503
G1 X163.324 Y168.531 E27.64465
G1 X161.967 Y169.812 E27.73155
G1 X159.743 Y170.994 E27.84883
G1 X158.6 Y171.422 E27.90566
G1 X156.634 Y171.639 E27.99776
G1 X119.193 Y171.665 E29.74117
G1 X117.578 Y171.268 E29.81861
G1 X117.336 Y171.36 E29.83066
G1 X115.916 Y171.595 E29.89768
G1 X78.158 Y171.666 E31.65586
G1 X75.425 Y171.155 E31.78532
G1 X72.803 Y169.643 E31.92626
G1 X70.858 Y167.713 E32.05385
G1 X69.486 Y165.296 E32.18326
G1 X69.233 Y164.632 E32.21635
G1 X68.831 Y161.648 E32.35655
G1 X68.925 Y72.177 E36.5227
G1 X69.193 Y70.555 E36.59925
G1 X70.407 Y67.921 E36.7343
G1 X71.676 Y66.469 E36.82409
G0 F6000 X71.951 Y66.76
G1 F1200 X73.27 Y65.515 E36.90855
G1 X75.397 Y64.381 E37.02079
G1 X76.493 Y63.971 E37.07528
G1 X78.41 Y63.759 E37.16509
G1 X156.064 Y63.735 E40.78098
G1 X158.543 Y63.975 E40.89695
G1 X159.885 Y64.525 E40.96449
G1 X161.865 Y65.612 E41.06966
G1 X163.379 Y67.117 E41.16907
G1 X164.313 Y68.271 E41.2382
G1 X165.446 Y70.734 E41.36444
G1 X165.765 Y73.313 E41.48544
G1 X165.666 Y162.824 E45.65345
G1 X165.391 Y164.386 E45.7273
G1 X164.252 Y166.862 E45.85421
G1 X163.049 Y168.24 E45.93939
G1 X161.73 Y169.485 E46.02384
G1 X159.603 Y170.619 E46.13608
G1 X158.507 Y171.029 E46.19057
G1 X156.59 Y171.241 E46.28038
G1 X119.239 Y171.265 E48.0196
G1 X117.542 Y170.848 E48.10097
G1 X117.271 Y170.965 E48.11471
G1 X115.851 Y171.2 E48.18173
G1 X78.193 Y171.266 E49.93525
G1 X75.565 Y170.775 E50.05974
G1 X73.05 Y169.324 E50.19494
G1 X71.179 Y167.468 E50.31766
G1 X69.86 Y165.153 E50.44172
G1 X69.622 Y164.53 E50.47278
G1 X69.231 Y161.648 E50.6082
G1 X69.32 Y72.242 E54.77132
G1 X69.579 Y70.672 E54.84542
G1 X70.747 Y68.14 E54.97526
G1 X71.951 Y66.76 E55.06054
G0 F6000 X72.226 Y67.051
G1 F1200 X73.506 Y65.843 E55.14249
G1 X75.537 Y64.756 E55.24975
G1 X76.586 Y64.364 E55.3019
G1 X78.454 Y64.157 E55.38941
G1 X156.064 Y64.135 E59.00326
G1 X158.447 Y64.367 E59.11475
G1 X159.692 Y64.876 E59.17738
G1 X161.624 Y65.937 E59.28001
G1 X163.068 Y67.369 E59.37471
G1 X163.972 Y68.486 E59.44162
G1 X165.056 Y70.843 E59.56242
G1 X165.365 Y73.313 E59.67833
G1 X165.272 Y162.755 E63.84313
G1 X165.006 Y164.267 E63.91462
G1 X163.914 Y166.64 E64.03625
G1 X162.774 Y167.949 E64.11708
G1 X161.494 Y169.157 E64.19903
G1 X159.463 Y170.244 E64.3063
G1 X158.414 Y170.636 E64.35844
G1 X156.546 Y170.843 E64.44596
G1 X119.285 Y170.865 E66.18098
G1 X117.729 Y170.483 E66.25559
G1 X117.543 Y170.4 E66.26507
G1 X117.206 Y170.57 E66.28265
G1 X115.786 Y170.805 E66.34967
G1 X78.229 Y170.866 E68.09848
G1 X75.705 Y170.394 E68.21805
G1 X73.297 Y169.005 E68.34749
G1 X71.5 Y167.223 E68.46533
G1 X70.208 Y164.955 E68.58688
G1 X70.011 Y164.428 E68.61307
G1 X69.631 Y161.648 E68.74373
G1 X69.715 Y72.307 E72.90382
G1 X69.966 Y70.788 E72.97551
G1 X71.084 Y68.362 E73.09989
G1 X72.226 Y67.051 E73.18085
G0 F6000 X72.528 Y67.314
G1 F1200 X73.742 Y66.17 E73.25852
G1 X75.677 Y65.131 E73.36079
G1 X76.679 Y64.757 E73.41059
G1 X78.498 Y64.555 E73.49582
G1 X156.064 Y64.535 E77.10761
G1 X158.351 Y64.759 E77.21462
G1 X159.499 Y65.227 E77.27234
G1 X161.385 Y66.263 E77.37254
G1 X162.757 Y67.621 E77.46243
G1 X163.631 Y68.701 E77.52712
G1 X164.666 Y70.952 E77.64249
G1 X164.965 Y73.313 E77.7533
G1 X164.878 Y162.686 E81.91489
G1 X164.621 Y164.148 E81.98401
G1 X163.576 Y166.418 E82.10037
G1 X162.472 Y167.686 E82.17866
G1 X161.258 Y168.83 E82.25633
G1 X159.323 Y169.869 E82.3586
G1 X158.321 Y170.243 E82.4084
G1 X156.502 Y170.445 E82.49362
G1 X119.331 Y170.465 E84.22446
G1 X117.824 Y170.095 E84.29672
G1 X117.531 Y169.942 E84.31211
G1 X117.141 Y170.175 E84.33326
G1 X115.721 Y170.41 E84.40028
G1 X78.264 Y170.466 E86.14444
G1 X75.845 Y170.014 E86.25903
G1 X73.544 Y168.686 E86.38273
G1 X71.821 Y166.978 E86.4957
G1 X70.556 Y164.757 E86.61472
G1 X70.401 Y164.33 E86.63587
G1 X70.031 Y161.648 E86.76194
G1 X70.11 Y72.372 E90.91901
G1 X70.353 Y70.904 E90.98829
G1 X71.422 Y68.584 E91.10724
G1 X72.528 Y67.314 E91.18566
G0 F6000 X72.83 Y67.577
G1 F1200 X73.977 Y66.498 E91.25899
G1 X75.817 Y65.506 E91.35632
G1 X76.772 Y65.15 E91.40378
G1 X78.542 Y64.953 E91.48671
G1 X156.064 Y64.935 E95.09646
G1 X158.253 Y65.151 E95.19888
G1 X159.306 Y65.578 E95.25179
G1 X161.144 Y66.588 E95.34945
G1 X162.446 Y67.873 E95.43463
G1 X163.29 Y68.916 E95.4971
G1 X164.276 Y71.061 E95.60703
G1 X164.565 Y73.313 E95.71275
G1 X164.484 Y162.617 E99.87112
G1 X164.236 Y164.029 E99.93788
G1 X163.238 Y166.196 E100.04897
G1 X162.17 Y167.423 E100.12472
G1 X161.023 Y168.502 E100.19804
G1 X159.183 Y169.494 E100.29538
G1 X158.228 Y169.85 E100.34284
G1 X156.458 Y170.047 E100.42576
G1 X119.378 Y170.065 E102.15236
G1 X117.967 Y169.718 E102.22002
G1 X117.517 Y169.485 E102.24362
G1 X117.003 Y169.792 E102.2715
G1 X115.656 Y170.015 E102.33507
G1 X78.3 Y170.066 E104.07453
G1 X75.985 Y169.633 E104.18419
G1 X73.791 Y168.367 E104.30214
G1 X72.141 Y166.732 E104.41031
G1 X70.932 Y164.62 E104.52362
G1 X70.791 Y164.232 E104.54285
G1 X70.431 Y161.648 E104.66433
G1 X70.505 Y72.437 E108.81837
G1 X70.74 Y71.02 E108.88525
G1 X71.76 Y68.806 E108.99876
G1 X72.83 Y67.577 E109.07464
G0 F6000 X73.132 Y67.84
G1 F1200 X74.213 Y66.826 E109.14365
G1 X75.957 Y65.881 E109.23601
G1 X76.865 Y65.543 E109.28113
G1 X78.586 Y65.351 E109.36176
G1 X156.064 Y65.335 E112.96946
G1 X158.156 Y65.543 E113.06736
G1 X159.156 Y65.949 E113.11761
G1 X160.901 Y66.911 E113.2104
G1 X162.165 Y68.158 E113.29307
G1 X162.948 Y69.129 E113.35116
G1 X163.886 Y71.17 E113.45575
G1 X164.165 Y73.313 E113.55638
G1 X164.09 Y162.548 E117.71154
G1 X163.851 Y163.91 E117.77593
G1 X162.9 Y165.974 E117.88175
G1 X161.868 Y167.16 E117.95495
G1 X160.787 Y168.174 E118.02397
G1 X159.043 Y169.119 E118.11633
G1 X158.135 Y169.457 E118.16144
G1 X156.414 Y169.649 E118.24208
G1 X119.424 Y169.665 E119.96449
G1 X118.11 Y169.342 E120.0275
G1 X117.503 Y169.028 E120.05932
G1 X116.865 Y169.409 E120.09392
G1 X115.591 Y169.62 E120.15405
G1 X78.335 Y169.666 E121.88885
G1 X76.125 Y169.253 E121.99354
G1 X74.035 Y168.046 E122.10592
G1 X72.462 Y166.488 E122.20901
G1 X71.279 Y164.421 E122.31991
G1 X71.181 Y164.136 E122.33394
G1 X70.831 Y161.648 E122.45093
G1 X70.9 Y72.502 E126.60195
G1 X71.126 Y71.137 E126.66637
G1 X72.099 Y69.027 E126.77456
G1 X73.132 Y67.84 E126.84784
G0 F6000 X73.406 Y68.132
G1 F1200 X74.449 Y67.154 E126.91441
G1 X76.148 Y66.233 E127.0044
G1 X76.955 Y65.936 E127.04444
G1 X78.63 Y65.749 E127.12292
G1 X156.064 Y65.735 E130.72857
G1 X158.057 Y65.935 E130.82184
G1 X159.005 Y66.32 E130.86949
G1 X160.658 Y67.233 E130.95742
G1 X161.884 Y68.443 E131.03763
G1 X162.606 Y69.342 E131.09132
G1 X163.496 Y71.279 E131.19058
G1 X163.765 Y73.313 E131.28611
G1 X163.696 Y162.479 E135.43806
G1 X163.466 Y163.791 E135.50008
G1 X162.561 Y165.754 E135.60073
G1 X161.594 Y166.868 E135.66942
G1 X160.551 Y167.846 E135.736
G1 X158.852 Y168.767 E135.82599
G1 X158.045 Y169.064 E135.86603
G1 X156.37 Y169.251 E135.94451
G1 X119.47 Y169.265 E137.66273
G1 X118.253 Y168.966 E137.72108
G1 X117.489 Y168.571 E137.76113
G1 X116.727 Y169.026 E137.80246
G1 X115.526 Y169.225 E137.85914
G1 X78.371 Y169.266 E139.58924
G1 X76.265 Y168.872 E139.689
G1 X74.282 Y167.727 E139.79563
G1 X72.782 Y166.241 E139.89394
G1 X71.626 Y164.222 E140.00228
G1 X71.577 Y164.08 E140.00927
G1 X71.231 Y161.648 E140.12365
G1 X71.295 Y72.567 E144.27164
G1 X71.513 Y71.253 E144.33366
G1 X72.438 Y69.247 E144.43652
G1 X73.406 Y68.132 E144.50528
G0 F6000 X73.68 Y68.424
G1 F1200 X74.685 Y67.482 E144.56942
G1 X76.339 Y66.585 E144.65703
G1 X77.045 Y66.329 E144.692
G1 X78.674 Y66.147 E144.76833
G1 X156.064 Y66.135 E148.37193
G1 X157.958 Y66.327 E148.46057
G1 X158.854 Y66.691 E148.50561
G1 X160.416 Y67.556 E148.58875
G1 X161.572 Y68.694 E148.66428
G1 X162.263 Y69.554 E148.71565
G1 X163.108 Y71.394 E148.80993
G1 X163.365 Y73.313 E148.90009
G1 X163.302 Y162.41 E153.04882
G1 X163.081 Y163.671 E153.10843
G1 X162.221 Y165.535 E153.20402
G1 X161.32 Y166.576 E153.26813
G1 X160.315 Y167.518 E153.33227
G1 X158.661 Y168.415 E153.41988
G1 X157.955 Y168.671 E153.45485
G1 X156.326 Y168.853 E153.53117
G1 X119.517 Y168.865 E155.24515
G1 X118.395 Y168.589 E155.29896
G1 X117.475 Y168.114 E155.34717
G1 X116.589 Y168.643 E155.39522
G1 X115.461 Y168.83 E155.44846
G1 X78.407 Y168.866 E157.17385
G1 X76.405 Y168.491 E157.26869
G1 X74.529 Y167.408 E157.36956
G1 X73.102 Y165.994 E157.4631
G1 X71.973 Y164.023 E157.56887
G1 X71.631 Y161.648 E157.6806
G1 X71.69 Y72.632 E161.82556
G1 X71.899 Y71.371 E161.88508
G1 X72.778 Y69.466 E161.98277
G1 X73.68 Y68.424 E162.04694
G0 F6000 X73.983 Y68.686
G1 F1200 X74.919 Y67.811 E162.10661
G1 X76.53 Y66.937 E162.19195
G1 X77.135 Y66.722 E162.22185
G1 X78.718 Y66.545 E162.29602
G1 X156.064 Y66.535 E165.89757
G1 X157.859 Y66.719 E165.98159
G1 X158.703 Y67.062 E166.02401
G1 X160.176 Y67.881 E166.10249
G1 X161.26 Y68.945 E166.17322
G1 X161.922 Y69.769 E166.22244
G1 X162.72 Y71.506 E166.31145
G1 X162.965 Y73.313 E166.39636
G1 X162.908 Y162.341 E170.54188
G1 X162.696 Y163.551 E170.59908
G1 X161.882 Y165.314 E170.6895
G1 X161.017 Y166.314 E170.75106
G1 X160.081 Y167.189 E170.81073
G1 X158.47 Y168.063 E170.89607
G1 X157.865 Y168.278 E170.92597
G1 X156.282 Y168.455 E171.00014
G1 X119.564 Y168.465 E172.70988
G1 X118.535 Y168.212 E172.75922
G1 X117.46 Y167.657 E172.81556
G1 X116.449 Y168.26 E172.87037
G1 X115.395 Y168.435 E172.92012
G1 X78.443 Y168.466 E174.64076
G1 X76.545 Y168.11 E174.73068
G1 X74.773 Y167.087 E174.82596
G1 X73.423 Y165.75 E174.91443
G1 X72.358 Y163.891 E175.01419
G1 X72.031 Y161.648 E175.11974
G1 X72.085 Y72.698 E179.26163
G1 X72.286 Y71.488 E179.31874
G1 X73.117 Y69.687 E179.4111
G1 X73.983 Y68.686 E179.47273
G0 F6000 X74.286 Y68.948
G1 F1200 X75.152 Y68.14 E179.52788
G1 X76.721 Y67.289 E179.611
G1 X77.224 Y67.115 E179.63578
G1 X78.762 Y66.943 E179.70784
G1 X156.064 Y66.935 E183.30735
G1 X157.762 Y67.111 E183.38684
G1 X158.509 Y67.412 E183.42434
G1 X159.934 Y68.204 E183.50025
G1 X160.948 Y69.196 E183.5663
G1 X161.579 Y69.981 E183.6132
G1 X162.332 Y71.621 E183.69723
G1 X162.565 Y73.313 E183.77676
G1 X162.514 Y162.272 E187.91907
G1 X162.311 Y163.431 E187.97386
G1 X161.543 Y165.093 E188.05911
G1 X160.714 Y166.052 E188.11814
G1 X159.848 Y166.86 E188.17329
G1 X158.279 Y167.711 E188.2564
G1 X157.776 Y167.885 E188.28118
G1 X156.238 Y168.057 E188.35325
G1 X119.61 Y168.065 E190.0588
G1 X118.678 Y167.836 E190.10349
G1 X117.741 Y167.352 E190.1526
G1 X117.487 Y167.113 E190.16884
G1 X117.266 Y167.307 E190.18253
G1 X116.309 Y167.877 E190.2344
G1 X115.329 Y168.04 E190.28066
G1 X78.48 Y168.066 E191.9965
G1 X76.685 Y167.729 E192.08154
G1 X75.017 Y166.766 E192.17123
G1 X73.744 Y165.506 E192.25463
G1 X72.743 Y163.759 E192.34839
G1 X72.431 Y161.648 E192.44775
G1 X72.48 Y72.763 E196.58661
G1 X72.672 Y71.606 E196.64122
G1 X73.456 Y69.908 E196.72831
G1 X74.286 Y68.948 E196.7874
G0 F6000 X74.559 Y69.241
G1 F1200 X75.388 Y68.468 E196.84018
G1 X76.912 Y67.641 E196.92092
G1 X77.312 Y67.508 E196.94055
G1 X78.806 Y67.341 E197.01055
G1 X156.064 Y67.335 E200.608
G1 X157.664 Y67.503 E200.68291
G1 X158.315 Y67.762 E200.71554
G1 X159.695 Y68.529 E200.78906
G1 X160.636 Y69.447 E200.85027
G1 X161.238 Y70.196 E200.89501
G1 X161.944 Y71.733 E200.97377
G1 X162.165 Y73.313 E201.04806
G1 X162.12 Y162.203 E205.18715
G1 X161.926 Y163.311 E205.23953
G1 X161.203 Y164.874 E205.31972
G1 X160.441 Y165.759 E205.3741
G1 X159.612 Y166.532 E205.42688
G1 X158.088 Y167.359 E205.50762
G1 X157.688 Y167.492 E205.52725
G1 X156.194 Y167.659 E205.59725
G1 X119.656 Y167.665 E207.29861
G1 X118.821 Y167.46 E207.33864
G1 X117.925 Y166.997 E207.38561
G1 X117.508 Y166.548 E207.41414
G1 X117.061 Y166.963 E207.44254
G1 X116.169 Y167.495 E207.4909
G1 X115.264 Y167.645 E207.53362
G1 X78.517 Y167.666 E209.24471
G1 X76.825 Y167.348 E209.32488
G1 X75.263 Y166.447 E209.40885
G1 X74.064 Y165.259 E209.48744
G1 X73.128 Y163.627 E209.57504
G1 X72.831 Y161.648 E209.66823
G1 X72.875 Y72.828 E213.80406
G1 X73.058 Y71.724 E213.85617
G1 X73.796 Y70.127 E213.93809
G1 X74.559 Y69.241 E213.99253
G0 F6000 X74.832 Y69.533
G1 F1200 X75.621 Y68.797 E214.04277
G1 X77.103 Y67.993 E214.12128
G1 X77.397 Y67.901 E214.13563
G1 X78.85 Y67.739 E214.2037
G1 X156.064 Y67.735 E217.79911
G1 X157.569 Y67.895 E217.86959
G1 X158.121 Y68.112 E217.8972
G1 X159.454 Y68.853 E217.96822
G1 X160.324 Y69.698 E218.02469
G1 X160.897 Y70.411 E218.06729
G1 X161.556 Y71.845 E218.14077
G1 X161.765 Y73.313 E218.20982
G1 X161.726 Y162.134 E222.3457
G1 X161.541 Y163.19 E222.39562
G1 X160.863 Y164.655 E222.47078
G1 X160.168 Y165.467 E222.52055
G1 X159.379 Y166.203 E222.5708
G1 X157.897 Y167.007 E222.6493
G1 X157.603 Y167.099 E222.66365
G1 X156.15 Y167.261 E222.73173
G1 X119.702 Y167.265 E224.4289
G1 X118.964 Y167.084 E224.46428
G1 X118.17 Y166.674 E224.50589
G1 X117.657 Y166.12 E224.54105
G1 X117.512 Y165.896 E224.55347
G1 X117.358 Y166.142 E224.56699
G1 X116.822 Y166.639 E224.60102
G1 X116.029 Y167.112 E224.64402
G1 X115.198 Y167.25 E224.68324
G1 X78.554 Y167.266 E226.38954
G1 X76.965 Y166.967 E226.46483
G1 X75.507 Y166.126 E226.54321
G1 X74.385 Y165.015 E226.61673
G1 X73.512 Y163.492 E226.69847
G1 X73.231 Y161.648 E226.78533
G1 X73.27 Y72.893 E230.91813
G1 X73.444 Y71.842 E230.96774
G1 X74.136 Y70.346 E231.04449
G1 X74.832 Y69.533 E231.09432
G0 F6000 X75.105 Y69.825
G1 F1200 X75.854 Y69.126 E231.14203
G1 X77.294 Y68.345 E231.21831
G1 X77.441 Y68.299 E231.22548
G1 X78.894 Y68.137 E231.29356
G1 X156.064 Y68.135 E234.88692
G1 X157.475 Y68.288 E234.953
G1 X157.927 Y68.462 E234.97556
G1 X159.213 Y69.177 E235.04407
G1 X160.012 Y69.949 E235.09581
G1 X160.554 Y70.623 E235.13608
G1 X161.168 Y71.96 E235.20459
G1 X161.365 Y73.313 E235.26825
G1 X161.332 Y162.065 E239.40092
G1 X161.156 Y163.069 E239.44838
G1 X160.523 Y164.436 E239.51853
